!!!!SEGMENT: pl-sa--151-a-iv-1--004_anonim--missa-sanctus.krn
!!!cenid: 17xx:1571
!!!COM: Anonim
!!!COM-rismid: pe30004985
!!!CDT:
!!!CNT:
!!!OPR: Missa
!!!OTL: Sanctus
!!!OMV: 004
!!!PDT:
!!!AGN: Sacred; Mass
!!!SMS-siglum: PL-SA
!!!SMS-shelfmark: 151/A IV 1
!!!SMS-shelfwork: 001-004 M
!!!SMS-variant:
!!!SMS-altvar:
!!!NIFC-rismid: 1001035511
!!!URL-scan: http://bc.bdsandomierz.pl/dlibra/publication/1537/edition/1505/content
!!!ONB-nifc: UWAGA: części Mszy: 1. Kyrie, 2. Gloria, 3. Credo, 4. Sanctus, 5. Agnus Dei
!!!OMD:
!!!key: D
**kern	**fba	**kern	**kern	**kern	**dynam	**kern	**text	**kern	**text	**kern	**text	**kern	**text	**kern	**kern
*part10	*part10	*part9	*part8	*part7	*part7	*part6	*part6	*part5	*part5	*part4	*part4	*part3	*part3	*part2	*part1
*staff10	*staff10	*staff9	*staff8	*staff7	*	*staff6	*staff6	*staff5	*staff5	*staff4	*staff4	*staff3	*staff3	*staff2	*staff1
*I"Fundamento Generali	*	*I"Alto Viola Basso	*I"Violino II	*I"Violino I	*	*I"Baſso.	*	*I"Tenor	*	*I"Alto.	*	*I"Canto	*	*I"[Clarino 2do]	*I"Clarino Primo
*I'b (=bc.fig)	*	*I'a-vla	*I'vl 2	*I'vl 1	*	*I'B	*	*I'T	*	*I'A	*	*I'S	*	*I'clno 2	*I'clno 1
*Iorgan	*	*Iviolb	*Ivioln	*Ivioln	*	*Ibass	*	*Itenor	*	*Ialto	*	*Isoprn	*	*Iclrno	*Iclrno
*ICklav	*	*ICstr	*ICstr	*ICstr	*	*ICvox	*	*ICvox	*	*ICvox	*	*ICvox	*	*ICbras	*ICbras
*clefF4	*	*clefF4	*clefG2	*clefG2	*	*clefF4	*	*clefC4	*	*clefC3	*	*clefC1	*	*clefG2	*clefG2
*	*	*	*	*	*	*	*	*	*	*	*	*	*	*ITrd-1c-2	*ITrd-1c-2
*	*	*	*	*	*	*	*	*ok[]	*	*	*	*ok[c#f#]	*	*	*
*k[f#c#]	*	*k[f#c#]	*k[f#c#]	*k[f#c#]	*	*k[f#c#]	*	*k[f#c#]	*	*k[f#c#]	*	*k[f#c#]	*	*k[f#c#]	*k[f#c#]
*D:	*	*D:	*D:	*D:	*	*D:	*	*D:	*	*D:	*	*D:	*	*D:	*D:
*M3/2	*	*M3/2	*M3/2	*M3/2	*	*M3/2	*	*M3/2	*	*M3/2	*	*M3/2	*	*M3/2	*M3/2
*	*	*all\right	*	*	*	*	*	*all\right	*	*	*	*	*	*	*
=1	=1	=1	=1	=1	=1	=1	=1	=1	=1	=1	=1	=1	=1	=1	=1
*2\right	*	*2\right	*	*	*	*	*	*2\right	*	*	*	*	*	*	*
!!LO:TX:t=P:problem:4\ 8\ 16\ left, middle or right:global (poza a-vla i tenor)
!!LO:TX:t=P:problem:brak oznaczenia tempa
!	!	!	!	!	!	!	!	!LO:TX:t=P:problem:UWAGA! W tekście słownym użyto dwusylabowe zbitki ze względu na ilość tekstu	!	!	!	!	!	!	!
!LO:TX:b:t=ſanctus	!	!LO:TX:b:t=ſanctus	!LO:TX:b:t=ſanctus	!LO:TX:b:t=ſanctus	!	!	!	!LO:TX:t=P:problem:użyć edytorskiej zmiany tonacji [zalecenie J.I.]	!	!	!	!	!	!LO:TX:a:t=Tutti	!LO:TX:a:t=Tutti.
!LO:TX:a:t=Tutti.	!	!LO:TX:t=P:problem:zgodnie z RISM "in F-4 clef, written with other hand"	!LO:TX:a:t=Tutti.	!LO:TX:a:t=Tutti.	!	!LO:TX:a:t=Tutti	!	!LO:TX:t=P:problem:oznaczenie tonacji znika w połowie części "Credo"; przyjęto zgodnie ze str. 14]	!	!	!	!	!	!LO:TX:b:i:t=ſanctus	!LO:TX:b:i:t=ſanctus
2D\	.	2D\	1dd	1ff#	.	1D	San-	2A\	San-	1f#	ſan-	1dd	ſan-	1ff#	1aa
2D\	.	2D\	.	.	.	.	.	1A	.	.	.	.	.	.	.
*	*	*	*2\right	*2\right	*	*2\right	*	*	*	*2\right	*	*2\right	*	*2\right	*2\right
2D\	.	2D\	2dd\	2ff#\	.	2D\	-ctus	.	-ctus	2f#\	-ctus	2dd\	-ctus	2ff#\	2aa\
=2	=2	=2	=2	=2	=2	=2	=2	=2	=2	=2	=2	=2	=2	=2	=2
*	*	*	*	*	*	*	*	*	*ij	*	*ij	*	*ij	*	*
1A	.	1A	1cc#	1aa	.	1A	ſan	1A	San-	1e	/an-	1cc#	ſan-	1ee	1aa
!	!	!	!	!	!	!LO:SIC:v:l:s=-ctus	!	!	!	!	!	!	!	!	!
2A\	.	2A\	2cc#\	2aa\	.	2A\	.	2A\	-ctus	2e\	-ctus	2cc#\	-ctus	2ee\	2aa\
=3	=3	=3	=3	=3	=3	=3	=3	=3	=3	=3	=3	=3	=3	=3	=3
*	*	*	*	*	*	*	*ij	*	*	*	*	*	*	*	*
1.B	76	1.B	2dd\	2aa\	.	1.B	ſan-	1A	San-	(1a	ſan-	1.dd	ſan-	2ff#\	2aa\
*	*	*	*	*	*	*	*Xij	*	*	*	*	*	*	*	*
.	.	.	2cc#\	2ff#\	.	.	.	.	.	.	.	.	.	2.ee\	2aa\
!	!	!	!	!	!	!	!	!LO:SIC:v:s=2d\	!	!	!	!	!	!	!
.	.	.	2b\	2gg#X\	.	.	.	2c#\	-ctus	2g#X\)	.	.	.	.	2gg#X\
*	*	*	*	*	*	*	*	*	*Xij	*	*	*	*	*	*
.	.	.	.	.	.	.	.	.	.	.	.	.	.	4ee\	.
!	!	!	!	!	!	!	!	!	!	!LO:LB:g=original	!	!	!	!	!
=4	=4	=4	=4	=4	=4	=4	=4	=4	=4	=4	=4	=4	=4	=4	=4
!	!	!	!	!	!	!	!	!	!	!	!	!	!	!LO:SIC:v:s=2ee\	!
2A\	.	2A\	2cc#\	2aa\	.	2A\	ctus	2c#\	Do-	2a\	-ctus	2cc#\	-ctus	2ff#\	2aa\
*	*	*	*	*	*	*	*	*	*	*	*	*	*Xij	*	*
2r	.	2r	2rg	2rdd	.	2r	.	2c#\	-mi-	2e\	ſan-	2r	.	2r	2r
2r	.	2r	2rg	2rdd	.	2r	.	2d\	-nus	2f#\	-ctus	2r	.	2r	2r
=5	=5	=5	=5	=5	=5	=5	=5	=5	=5	=5	=5	=5	=5	=5	=5
2r	.	2rBB	2rg	2r	.	2r	.	1d	De-	1g	ſan-	2r	.	2r	2r
2BB/	6	2BB/	2dd\	2gg\	.	2BB/	ſan-	.	.	.	.	2dd\	ſan-	2dd\	2gg\
2C#/	6	2C#/	2ee\	2gg\	.	2C#/	-ctus	2e\	-us	2g\	-ctus	2ee\	-ctus	2dd\	2gg\
*	*	*	*	*	*	*	*	*	*	*	*Xij	*	*	*	*
!	!	!	!	!LO:LB:g=original	!	!	!	!	!	!	!	!	!	!	!
=6	=6	=6	=6	=6	=6	=6	=6	=6	=6	=6	=6	=6	=6	=6	=6
2D\	.	2D\	2ff#\	2a/	.	2D\	Do-	2A\	Do-	2f#\	Do-	2ff#\	Do-	1ee	1ff#
4E\	.	4E\	2ee\	2gg\	.	4E\	-mi-	4A\	-mi-	4e\	-mi-	(4ee\	-mi-	.	.
4F#\	.	4F#\	.	.	.	4F#\	-n(us)	4A\	-nus	4f#\	-n(us)	4dd\)	.	.	.
2G\	.	2G\	2dd\	2gg\	.	2G\	De-	2B\	De-	2g\	De-	2ee\	-nus	2dd\	2r
=7	=7	=7	=7	=7	=7	=7	=7	=7	=7	=7	=7	=7	=7	=7	=7
2D\	.	2D\	4ee\	4gg\	.	2D\	-us	2B\	-us	2f#\	-us	2dd\	De-	2dd\	2ee\
.	.	.	4dd\	4ff#\	.	.	.	.	.	.	.	.	.	.	.
2A\	.	2A\	2.cc#\	2.ee\	.	2A\	ſa-	2.A\	ſa-	2.e\	ſa-	2dd\	-us	2a/	2ff#\
2AA/	.	2AA/	.	.	.	2AA/	-ba-	.	.	.	.	[2dd\	ſa-	2a/	4ee\
.	.	.	4cc#\	4ee\	.	.	.	4A\	-ba-	4e\	-ba-	.	.	.	4dd\
!LO:LB:g=original	!	!	!	!	!	!	!	!	!	!	!	!	!	!	!
=8	=8	=8	=8	=8	=8	=8	=8	=8	=8	=8	=8	=8	=8	=8	=8
2D/	.	2D/	2dd\	2ff#\	.	2D/	-oth	2A\	-oth	2f#\	-oth	2dd\]	.	2f#/	2dd\
*clefC1	*	*	*	*	*	*	*	*	*	*	*	*	*	*	*
*ok[c#f#]	*	*	*	*	*	*	*	*	*	*	*	*	*	*	*
*k[f#c#]	*	*	*	*	*	*	*	*	*	*	*	*	*	*	*
!LO:TX:t=P:problem:kolejność znaków cc# f#	!	!LO:N:vis=4	!	!	!	!	!	!	!	!	!	!	!	!	!
2dd\	.	2r	2rg	2dd\	.	2r	.	2r	.	2r	.	2dd\	-ba-	2ra	2ra
!	!	!LO:N:vis=4	!	!LO:N:acc=-	!	!	!	!	!	!	!	!LO:N:acc=-	!	!	!
2ccn\	.	2r	2rg	2ccn\	.	2r	.	2r	.	2r	.	2ccn\	-oth	2ra	2ra
!	!	!	!LO:LB:g=original	!	!	!LO:LB:g=original	!	!	!	!	!	!	!	!	!
=9	=9	=9	=9	=9	=9	=9	=9	=9	=9	=9	=9	=9	=9	=9	=9
*^	*	*	*	*	*	*	*	*	*	*	*	*	*	*	*
1b	2r	.	00.r	2rg	1b	.	00.r	.	0.r	.	2r	.	2b\	ſan-	00.r	00.r
!	!	!	!	!LO:SIC:v:s=2g/	!	!	!	!	!	!	!	!	!	!	!	!
.	2g\	.	.	2f#/	.	.	.	.	.	.	2g\	ſan-	2g\	-ctus	.	.
2a/	2f#\	.	.	2f#/	2a/	.	.	.	.	.	2f#\	-ctus	2r	.	.	.
!	!	!	!	!	!	!	!	!	!	!	!	!	!LO:LB:g=original	!	!	!
=10	=10	=10	=10	=10	=10	=10	=10	=10	=10	=10	=10	=10	=10	=10	=10	=10
*	*	*	*	*	*	*	*	*	*	*	*	*ij	*	*	*	*
2r	1e	.	.	1e	2r	.	.	.	.	.	1e	ſan-	2r	.	.	.
2ee/	.	.	.	.	2ee\	.	.	.	.	.	.	.	2ee\	ſan-	.	.
2dd/	2e\	.	.	2e/	2dd\	.	.	.	.	.	2e\	-ctus	2dd\	-ctus	.	.
=11	=11	=11	=11	=11	=11	=11	=11	=11	=11	=11	=11	=11	=11	=11	=11	=11
*	*	*	*	*	*	*	*	*	*	*	*	*	*	*ij	*	*
1cc#	2r	.	.	2r	1cc#	.	.	.	1.r	.	2r	.	1cc#	ſan-	.	.
.	2a\	.	.	2a/	.	.	.	.	.	.	2a\	ſan-	.	.	.	.
4b/	2g\	.	.	2g/	4b/	.	.	.	.	.	2g\	-ctus	(4b\	.	.	.
4cc#/	.	.	.	.	4cc#\	.	.	.	.	.	.	.	4cc#\)	.	.	.
!	!	!	!	!	!	!	!	!	!LO:LB:g=original	!	!	!	!	!	!	!
=12	=12	=12	=12	=12	=12	=12	=12	=12	=12	=12	=12	=12	=12	=12	=12	=12
2dd/	2f#\	.	.	2e/	2dd\	.	.	.	2r	.	1f#	ſan-	2dd\	-ctus	.	.
*	*	*	*	*	*	*	*	*	*	*	*	*	*	*Xij	*	*
*clefC4	*	*	*	*	*	*	*	*	*	*	*	*	*	*	*	*
*ok[c#f#]	*	*	*	*	*	*	*	*	*	*	*	*	*	*	*	*
*k[f#c#]	*	*	*	*	*	*	*	*	*	*	*	*	*	*	*	*
!LO:TX:t=P:problem:kolejność znaków c# F#	!	!	!	!	!	!	!	!	!	!	!	!	!	!	!	!
2d\	1ryy	6	.	2f#/	2a/	.	.	.	2d\	ſan-	.	.	2dd\	ſan-	.	.
!	!	!	!	!	!	!	!	!	!LO:N:acc=-	!	!	!	!	!	!	!
2cn\	.	6	.	2f#/	2a/	.	.	.	2cn\	-ctus	2f#\	-ctus	2a\	-ctus	.	.
*v	*v	*	*	*	*	*	*	*	*	*	*	*	*	*	*	*
!	!	!LO:PB:g=original	!	!	!	!	!	!	!	!	!	!	!	!	!
=13	=13	=13	=13	=13	=13	=13	=13	=13	=13	=13	=13	=13	=13	=13	=13
*	*	*	*	*	*	*	*	*	*ij	*	*	*	*ij	*	*
2B\	6	4r	2g/	1dd	.	2r	.	1B	ſan-	2r	.	(2b\	ſan-	0.r	0.r
.	.	4r	.	.	.	.	.	.	.	.	.	.	.	.	.
*clefF4	*	*	*	*	*	*	*	*	*	*	*	*	*	*	*
2G\	.	2G\	2b/	.	.	2G\	ſan-	.	.	2b\	ſan-	2cc#\	.	.	.
!	!	!	!	!	!	!	!	!LO:SIC:v:s=2A\	!	!	!	!	!	!	!
2F#\	6	2F#\	2a/	2dd\	.	2F#\	-ctus	2B\	-ctus	2a\	-ctus	2dd\)	-ctus	.	.
=14	=14	=14	=14	=14	=14	=14	=14	=14	=14	=14	=14	=14	=14	=14	=14
1E	.	2E\	1g	2r	.	1E	ſan-	1G	ſan-	1g	ſan-	2r	.	.	.
.	.	2E\	.	2ee\	.	.	.	.	.	.	.	2ee\	ſan-	.	.
2E\	.	2E\	2g/	2dd\	.	2E\	-ctus	2G/	-ctus	2f#\	-ctus	2dd\	-ctus	.	.
!	!	!	!	!	!	!	!	!	!	!	!	!	!	!	!LO:LB:g=original
=15	=15	=15	=15	=15	=15	=15	=15	=15	=15	=15	=15	=15	=15	=15	=15
2r	.	2r	2rg	1cc#	.	2r	.	2r	.	1e	ſan-	1cc#	ſan-	2ra	2r
2A\	.	2A\	2a/	.	.	2A\	ſan-	2c#\	ſan-	.	.	.	.	2a/	2ee\
2G\	.	2G\	2a/	2cc#\	.	2G\	-ctus	2c#\	-ctus	2g\	-ctus	2cc#\	-ctus	2a/	2ee\
*	*	*	*	*	*	*	*	*	*Xij	*	*Xij	*	*Xij	*	*
!	!	!	!	!	!	!	!	!	!	!LO:LB:g=original	!	!	!	!	!
=16	=16	=16	=16	=16	=16	=16	=16	=16	=16	=16	=16	=16	=16	=16	=16
2F#\	6	2F#\	2a/	2dd\	.	2F#\	Do-	2A\	Do-	2a\	Do-	2dd\	Do-	2dd\	2gg\
2F#\	.	2F#\	2dd\	4aa\	.	4F#\	-mi-	4A\	-mi-	4a\	-mi-	4dd\	-mi-	2dd\	2ff#\
.	.	.	.	4ff#\	.	4F#\	-n(us)	4A\	-nus	4a\	-n(us)	4dd\	-nus	.	.
!LO:LB:g=original	!	!	!	!	!	!	!	!	!	!	!	!	!	!	!
=-	=-	=-	=-	=-	=-	=-	=-	=-	=-	=-	=-	=-	=-	=-	=-
2E\	6	2E\	2ee\	2gg\	.	2E\	De-	2B\	De-	2g\	De-	2dd\	De-	2ee\	2gg\
=17	=17	=17	=17	=17	=17	=17	=17	=17	=17	=17	=17	=17	=17	=17	=17
2D\	.	2D\	2ff#\	2ff#\	.	2D\	-us	2.A\	-us	2f#\	-us	2dd\	-us	2ff#\	2aa\
2A\	.	2A\	2a/	2ff#\	.	2A\	ſa-	.	.	2.e\	ſa-	2dd\	ſa-	2a/	2.ee\
.	.	.	.	.	.	.	.	4A\	ſa-	.	.	.	.	.	.
2AA/	.	2AA/	2a/	4ee\	.	2AA/	-ba-	2B\	-ba-	.	.	2cc#\	-ba-	2a/	.
.	.	.	.	4dd\	.	.	.	.	.	4e\	-ba-	.	.	.	4ee\
=18	=18	=18	=18	=18	=18	=18	=18	=18	=18	=18	=18	=18	=18	=18	=18
2D\	.	2D/	2a/	2dd\	.	2D/	-oth	2A\	-oth	2f#\	-oth	2dd\	-oth	2dd\	2ff#\
2B\	6	2B\	2b/	2gg\	.	2B\	ſan-	2B\	ſan-	2g\	ſan-	2dd\	ſan-	2dd\	2dd\
2A\	6	2A\	2cc#\	2ff#\	.	2A\	-ctus	2A\	-ctus	2f#\	-ctus	2dd\	-ct(us)	2dd\	2dd\
!	!	!	!	!	!	!	!	!	!	!	!	!	!	!LO:LB:g=original	!
=19	=19	=19	=19	=19	=19	=19	=19	=19	=19	=19	=19	=19	=19	=19	=19
1G	6	1G	2g/	1ee	.	2G\	Do-	2G/	Do-	2e\	Do-	2ee\	Do-	1ee	1gg
.	.	.	1a	.	.	4G\	-mi-	4G/	-mi-	4e\	-mi-	4ee\	-mi-	.	.
.	.	.	.	.	.	4G\	-n(us)	4G/	-nus	4e\	-n(us)	4ee\	-n(us)	.	.
!	!	!	!	!	!	!	!	!	!	!	!	!LO:LB:g=original	!	!	!
=-	=-	=-	=-	=-	=-	=-	=-	=-	=-	=-	=-	=-	=-	=-	=-
2F#\	.	2F#\	.	2dd\	.	2F#\	De-	2A/	De-	2a\	De-	2ff#\	De-	2ff#\	2gg\
=20	=20	=20	=20	=20	=20	=20	=20	=20	=20	=20	=20	=20	=20	=20	=20
2G\	.	2G\	4cc#\	4ee\	.	2G\	-us	2G/	-us	(4g\	-us	2dd\	-us	4ee\	4gg\
.	.	.	4dd\	4ff#\	.	.	.	.	.	4f#\)	.	.	.	4dd\	4ff#\
2A\	.	2A\	2.a/	2.cc#\	.	2A\	ſa-	2.A/	ſa-	2.e\	ſa-	2.cc#\	ſa-	2.a/	2.ee\
2AA/	.	2AA/	.	.	.	2AA/	-ba-	.	.	.	.	.	.	.	.
!	!	!	!	!	!	!	!	!LO:N:vis=8	!	!	!	!	!	!	!
.	.	.	4a/	4cc#\	.	.	.	4A/	-ba-	4e\	-ba-	4cc#\	-ba-	4a/	4ee\
!	!	!	!	!	!	!	!	!LO:PB:g=original	!	!	!	!	!	!	!
=21	=21	=21	=21	=21	=21	=21	=21	=21	=21	=21	=21	=21	=21	=21	=21
!	!	!	!LO:SIC:v:s=2f#/	!	!	!	!	!	!	!	!	!	!	!	!
2D/	.	2D/	2g/	2dd\	.	2D/	-oth	2A\	-oth	2f#\	-oth	2dd\	-oth	2dd\	2ff#\
2r	.	2r	2dd\	2ff#\	.	2r	.	2r	.	2r	.	2r	.	2ra	2r
2r	.	2r	4ee\	4gg\	.	2r	.	2r	.	2r	.	2r	.	2ra	2r
.	.	.	4dd\	4ff#\	.	.	.	.	.	.	.	.	.	.	.
!	!	!	!LO:LB:g=original	!LO:LB:g=original	!	!	!	!	!	!	!	!	!	!	!
=22	=22	=22	=22	=22	=22	=22	=22	=22	=22	=22	=22	=22	=22	=22	=22
!	!	!LO:TX:a:t=5	!	!	!	!	!	!	!	!	!	!	!	!	!
00.r	.	00.r	2cc#\	2ee\	.	00.r	.	00.r	.	0.r	.	00.r	.	00.r	00.r
.	.	.	2a/	4aa\	.	.	.	.	.	.	.	.	.	.	.
.	.	.	.	4gg\	.	.	.	.	.	.	.	.	.	.	.
.	.	.	2cc#\	4ff#\	.	.	.	.	.	.	.	.	.	.	.
.	.	.	.	4ee\	.	.	.	.	.	.	.	.	.	.	.
=23	=23	=23	=23	=23	=23	=23	=23	=23	=23	=23	=23	=23	=23	=23	=23
.	.	.	2dd\	2ff#\	.	.	.	.	.	.	.	.	.	.	.
.	.	.	4ee\	4gg\	.	.	.	.	.	.	.	.	.	.	.
.	.	.	4dd\	4ff#\	.	.	.	.	.	.	.	.	.	.	.
.	.	.	4cc#\	4ee\	.	.	.	.	.	.	.	.	.	.	.
.	.	.	4b\	4dd\	.	.	.	.	.	.	.	.	.	.	.
=24	=24	=24	=24	=24	=24	=24	=24	=24	=24	=24	=24	=24	=24	=24	=24
.	.	.	2cc#\	2ee\	.	.	.	.	.	2r	.	.	.	.	.
.	.	.	2d/	2f#/	.	.	.	.	.	2f#\	Ple-	.	.	.	.
.	.	.	4e/	4g/	.	.	.	.	.	(4g\	-ni	.	.	.	.
.	.	.	4d/	4f#/	.	.	.	.	.	4f#\)	.	.	.	.	.
=25	=25	=25	=25	=25	=25	=25	=25	=25	=25	=25	=25	=25	=25	=25	=25
.	.	.	2c#/	2g/	.	.	.	.	.	2e\	ſunt	.	.	.	.
.	.	.	2A/	4a/	.	.	.	.	.	(4a\	Cae-	.	.	.	.
.	.	.	.	4g/	.	.	.	.	.	4g\)	.	.	.	.	.
.	.	.	2c#/	4f#/	.	.	.	.	.	(4f#\	-li	.	.	.	.
.	.	.	.	4e/	.	.	.	.	.	4e\)	.	.	.	.	.
=26	=26	=26	=26	=26	=26	=26	=26	=26	=26	=26	=26	=26	=26	=26	=26
1.r	.	1.r	2d/	2f#/	.	1.r	.	1.r	.	2f#\	ſunt	1.r	.	1.r	1.r
.	.	.	4e/	4g/	.	.	.	.	.	(4g\	[cae-	.	.	.	.
.	.	.	4d/	4f#/	.	.	.	.	.	4f#\)	.	.	.	.	.
.	.	.	4c#/	4e/	.	.	.	.	.	(4e\	-li]	.	.	.	.
.	.	.	4B/	4d/	.	.	.	.	.	4d\)	.	.	.	.	.
!	!	!	!	!	!	!	!	!	!	!LO:PB:g=original	!	!	!	!	!
=27	=27	=27	=27	=27	=27	=27	=27	=27	=27	=27	=27	=27	=27	=27	=27
2r	.	2r	2c#/	2e/	.	2r	.	2r	.	2e\	ter-	2r	.	2ra	2r
2A\	.	2A\	2cc#\	2ee\	.	2A\	Ple-	2c#\	Ple-	2e\	-ra	2cc#\	Pl-	2a/	2ee\
2A\	.	2A\	2cc#\	2ee\	.	2A\	-ni	2c#\	-ni	4e\	ple-	2cc#\	-eni	2a/	2ee\
.	.	.	.	.	.	.	.	.	.	4e\	-ni	.	.	.	.
!	!	!	!	!	!	!LO:LB:g=original	!	!	!	!	!	!	!	!	!
=28	=28	=28	=28	=28	=28	=28	=28	=28	=28	=28	=28	=28	=28	=28	=28
*	*	*	*	*	*	*	*ij	*	*	*	*	*	*ij	*	*
2A\	.	2A\	2cc#\	2ee\	.	2A\	Ple-	2B\	ſunt	2e\	ple-	2cc#\	ple-	2a/	2ee\
!	!	!LO:LB:g=original	!	!	!	!	!	!	!	!	!	!	!	!	!
=-	=-	=-	=-	=-	=-	=-	=-	=-	=-	=-	=-	=-	=-	=-	=-
!	!	!	!	!	!	!	!	!	!	!LO:SIC:v:l:s=-ni	!	!	!	!	!
2G\	4_ 2_	2G\	2cc#\	2ee\	.	2G\	-ni	2B\	cae-	2a\	-n	2cc#\	-ni	2a/	2ee\
*	*	*	*	*	*	*	*Xij	*	*	*	*	*	*Xij	*	*
2G\	x x	2G\	2cc#\	2ee\	.	2G\	ſunt	2B\	-li	2a\	ſunt	2cc#\	ſunt	2a/	2ee\
=29	=29	=29	=29	=29	=29	=29	=29	=29	=29	=29	=29	=29	=29	=29	=29
!	!	!	!	!	!	!	!	!	!	!LO:SIC:v:l:s=cae-	!	!	!	!	!
2F#\	.	2A\	2dd\	2ff#\	.	2F#\	Cae-	2A\	et	2a\	Ce-	2dd\	Cae-	2a/	2ff#\
2C#/	6	2C#/	4ee\	2ee\	.	2C#/	-li	2c#\	ter-	(4g\	-li	2ee\	-li	2dd\	2aa\
.	.	.	4dd\	.	.	.	.	.	.	4f#\)	.	.	.	.	.
2C#/	6	2C#/	4dd\	2ee\	.	2C#/	et	2c#\	-rae	4g\	et	2cc#\	et	2ee\	2aa\
.	.	.	4cc#\	.	.	.	.	.	.	4e\	.	.	.	.	.
=30	=30	=30	=30	=30	=30	=30	=30	=30	=30	=30	=30	=30	=30	=30	=30
2D\	.	2D/	2dd\	2ff#\	.	2D\	ter-	2A\	Glo-	2f#\	ter-	2dd\	ter-	2ee\	2ff#\
4D\	.	4D\	2a/	4ff#\	.	4D\	-ra	4A\	-ri-	4f#\	-rae	(8dd\L	-rae	2ra	2r
.	.	.	.	.	.	.	.	.	.	.	.	8cc#\J)	.	.	.
4E\	.	4E\	.	4gg\	.	4E\	glo-	4G/	-a	4g\	glo-	4cc#\	.	.	.
4F#\	.	4F#\	2dd\	4aa\	.	4F#\	-ri-	4F#/	Tu-	4a\	-ri-	4dd\	.	2dd\	2ff#\
4G\	.	4G\	.	4bb\	.	4G\	-a	4c#\	-a	4b\	-a	4ee\	.	.	.
=31	=31	=31	=31	=31	=31	=31	=31	=31	=31	=31	=31	=31	=31	=31	=31
*	*	*	*	*	*	*	*	*	*ij	*	*	*	*	*	*
2A\	.	2A\	2cc#\	2ee\	.	2A\	tu-	2A\	Tu-	2e\	tu-	2cc#\	ple-	2a/	2ee\
2A\	.	2A\	2a/	2cc#\	.	2A\	-a	2A\	-a	2e\	-a	2cc#\	-ni	2a/	2ee\
*	*	*	*	*	*	*	*	*	*Xij	*	*	*	*	*	*
2r	.	2r	4b/	4dd\	.	2r	.	2rF	.	2r	.	4cc#\	ſunt	2a/	2r
.	.	.	4a/	4cc#\	.	.	.	.	.	.	.	4cc#\	.	.	.
!	!	!	!	!	!	!	!	!	!	!	!	!	!	!	!LO:LB:g=original
=32	=32	=32	=32	=32	=32	=32	=32	=32	=32	=32	=32	=32	=32	=32	=32
!	!	!LO:TX:a:t=2	!	!	!	!	!	!	!	!	!	!	!	!	!
0.r	.	0.r	2g#X/	2b\	.	0.r	.	0.r	.	0.r	.	2b\	Cae-	00.r	00.r
.	.	.	2e/	4ee\	.	.	.	.	.	.	.	(4ee\	-li	.	.
.	.	.	.	4dd\	.	.	.	.	.	.	.	4dd\)	.	.	.
.	.	.	2g#/	4cc#\	.	.	.	.	.	.	.	(4cc#\	et	.	.
.	.	.	.	4b\	.	.	.	.	.	.	.	4b\)	.	.	.
!	!	!	!	!	!	!	!	!	!	!	!	!LO:LB:g=original	!	!	!
=33	=33	=33	=33	=33	=33	=33	=33	=33	=33	=33	=33	=33	=33	=33	=33
.	.	.	2a/	2cc#\	.	.	.	.	.	.	.	2cc#\	ter-	.	.
.	.	.	4b/	4dd\	.	.	.	.	.	.	.	(4dd\	.	.	.
.	.	.	4a/	4cc#\	.	.	.	.	.	.	.	4cc#\)	.	.	.
.	.	.	4g#X/	4b\	.	.	.	.	.	.	.	(4b\	.	.	.
.	.	.	4f#/	4a\	.	.	.	.	.	.	.	4a\)	.	.	.
!LO:LB:g=original	!	!	!LO:LB:g=original	!	!	!	!	!	!	!	!	!	!	!	!
=34	=34	=34	=34	=34	=34	=34	=34	=34	=34	=34	=34	=34	=34	=34	=34
2r	.	2r	2g#X/	2b\	.	2r	.	2r	.	2r	.	2g#X\	.	.	.
2A\	.	2A\	2cc#\	2ee\	.	2A\	Ple-	2c#\	Ple-	2e\	ple-	2e/	-ra	.	.
!	!	!	!	!	!	!	!	!	!	!	!	!LO:N:vis=4	!	!	!
2A\	.	2A\	2cc#\	2ee\	.	2A\	-ni	2c#\	-ni	2e\	-ni	2r	.	.	.
!	!	!	!	!	!	!	!	!LO:LB:g=original	!	!	!	!	!	!	!
=35	=35	=35	=35	=35	=35	=35	=35	=35	=35	=35	=35	=35	=35	=35	=35
*	*	*	*	*	*	*	*ij	*	*	*	*	*	*	*	*
!	!	!LO:SIC:v:s=2G#\	!	!	!	!	!	!	!	!	!	!	!	!	!
2G#X\	.	2G\	2b\	2ee\	.	2G#X\	Ple-	2B\	ſunt	2e\	ple-	2ee\	Ple-	.	.
2E\	.	2E\	2b\	2gg#X\	.	2E\	-ni	2B\	cae-	2g#X\	-ni	2b\	-ni	.	.
*	*	*	*	*	*	*	*Xij	*	*	*	*	*	*	*	*
!	!	!LO:SIC:v:s=2G#\	!	!	!	!	!	!	!	!	!	!	!	!	!
2G#\	.	2G\	2b\	2ee\	.	2G#\	ſunt	2B\	-li	2b\	ſunt	2ee\	ſunt	.	.
!	!	!	!	!LO:LB:g=original	!	!	!	!	!	!	!	!	!	!	!
=36	=36	=36	=36	=36	=36	=36	=36	=36	=36	=36	=36	=36	=36	=36	=36
2A\	.	2A\	2a/	2cc#\	.	2A\	Cae-	2e\	et	2a\	Cae-	2cc#\	cae-	0.r	0.r
4AA/	.	4AA/	4dd\	4ff#\	.	(4A\	-li	2d\	ter-	2a\	-li	(4ff#\	-li	.	.
4BB/	.	4BB/	4cc#\	4ee\	.	4B\)	.	.	.	.	.	4ee\)	.	.	.
!	!	!	!	!	!	!	!	!LO:SIC:v:l:s=-ae	!	!	!	!	!	!	!
4C#/	.	4C#/	4b\	4dd\	.	(4c#\	et	2e\	-ra	4b\	et	(4dd\	et	.	.
4D/	.	4D/	4a/	4cc#\	.	4d\)	.	.	.	4a\	.	4cc#\)	.	.	.
=37	=37	=37	=37	=37	=37	=37	=37	=37	=37	=37	=37	=37	=37	=37	=37
2E\	.	2E\	2g#X/	1.b	.	2e\	ter-	2e\	glo-	2g#X\	ter-	2b\	ter-	.	.
2G#X\	.	2G#X\	2e/	.	.	2E\	-ra	2e\	-ri-	2g#\	-ra	2b\	-ra	.	.
2E\	.	2E\	2b\	.	.	2G#X\	ſunt	2e\	-a	2b\	ſunt	2dd\	glo-	.	.
=38	=38	=38	=38	=38	=38	=38	=38	=38	=38	=38	=38	=38	=38	=38	=38
2A\	.	2A\	2a/	2cc#\	.	2A\	Cae-	2A\	tu-	2e\	cae-	4cc#\	-ri-	2ra	2r
.	.	.	.	.	.	.	.	.	.	.	.	4cc#\	-a	.	.
!	!	!LO:SIC:v:s=2AA/	!	!	!	!	!	!	!	!	!	!	!	!	!
2AA/	.	2BB/	2cc#\	4aa\	.	2AA/	-li	2A\	-a	2e\	-li	4cc#\	ſunt	2a/	2ee\
.	.	.	.	4gg\	.	.	.	.	.	.	.	4cc#\	.	.	.
!	!	!	!	!	!	!	!	!	!	!LO:N:acc=-	!	!	!	!	!
2C#/	-5	2C#/	2a/	4ff#\	.	2C#/	et	2A\	ſunt	2gn\	et	2ee\	cae-	2a/	2ee\
.	.	.	.	4ee\	.	.	.	.	.	.	.	.	.	.	.
!	!	!	!	!	!	!	!	!	!	!LO:LB:g=original	!	!	!	!	!
=39	=39	=39	=39	=39	=39	=39	=39	=39	=39	=39	=39	=39	=39	=39	=39
2D\	.	2D\	4dd\	4ff#\	.	2D\	ter-	2A\	cae-	2f#\	ter-	2ff#\	-li	2dd\	2dd\
.	.	.	4cc#\	4ee\	.	.	.	.	.	.	.	.	.	.	.
2F#\	.	2F#\	4dd\	4dd\	.	2F#\	-ra	2A\	-li	2a\	-ra	2dd\	.	2ff#\	2aa\
.	.	.	4ee\	4cc#\	.	.	.	.	.	.	.	.	.	.	.
!	!	!	!	!	!	!LO:LB:g=original	!	!	!	!	!	!	!	!	!
=-	=-	=-	=-	=-	=-	=-	=-	=-	=-	=-	=-	=-	=-	=-	=-
!	!	!LO:SIC:v:s=2D\	!	!	!	!	!	!	!	!	!	!	!	!	!
2D\	.	2E\	2ff#\	4b\	.	2D\	et	2d\	glo-	2a\	et	(4dd\	et	2ff#\	2aa\
.	.	.	.	4a\	.	.	.	.	.	.	.	4cc#\)	.	.	.
!	!	!LO:LB:g=original	!	!	!	!	!	!	!	!	!	!	!	!	!
=40	=40	=40	=40	=40	=40	=40	=40	=40	=40	=40	=40	=40	=40	=40	=40
2G\	.	2G\	2gg\	2b\	.	2G\	ter-	2d\	-ria	2d\	te-	2b\	ter-	1dd	1gg
2G\	.	2G\	2gg\	2bb\	.	2G\	-ra	2d\	tu-	2d\	-ra	2b\	-ra	.	.
2G\	.	2G\	2gg\	2bb\	.	2G\	glo-	2d\	-a	2g\	glo-	(4b\	glo-	2dd\	2gg\
.	.	.	.	.	.	.	.	.	.	.	.	4cc#\)	.	.	.
!	!	!	!	!	!	!	!	!	!	!	!	!LO:LB:g=original	!	!	!
=41	=41	=41	=41	=41	=41	=41	=41	=41	=41	=41	=41	=41	=41	=41	=41
2F#\	6	2F#\	2aa\	2dd\	.	4F#\	-ri-	4d\	glo-	4f#\	-ri-	4dd\	-ri-	2ff#\	2aa\
.	.	.	.	.	.	4F#\	-a	4d\	-ria	4a\	-a	4ee\	-a	.	.
1E	76	1E	4ee\	4gg\	.	1E	tu-	1A	tu-	1g	tu-	2dd\	tu-	2ee\	2aa\
.	.	.	4dd\	4ff#\	.	.	.	.	.	.	.	.	.	.	.
.	.	.	4ee\	4gg\	.	.	.	.	.	.	.	2cc#\	.	2ee\	2gg\
.	.	.	4cc#\	4ee\	.	.	.	.	.	.	.	.	.	.	.
!	!	!	!	!	!	!	!	!	!	!	!	!	!	!LO:LB:g=original	!
=42	=42	=42	=42	=42	=42	=42	=42	=42	=42	=42	=42	=42	=42	=42	=42
!	!	!LO:N:vis=1	!	!	!	!	!	!	!	!	!	!	!	!	!
1.D	.	1.D	1.dd	1.ff#	.	1.D	-a	1.A	-a	1.f#	-a	1.dd	-a	1.dd	1.ff#
!	!	!	!	!	!	!	!	!LO:LB:g=original	!	!	!	!	!	!	!
=43||	=43||	=43||	=43||	=43||	=43||	=43||	=43||	=43||	=43||	=43||	=43||	=43||	=43||	=43||	=43||
*M2/2	*	*M2/2	*M2/2	*M2/2	*	*M2/2	*	*M2/2	*	*M2/2	*	*M2/2	*	*M2/2	*M2/2
*met(c|)	*	*met(c)	*met(c|)	*met(c|)	*	*met(c|)	*	*met(c|)	*	*met(c|)	*	*met(c|)	*	*met(c|)	*met(c|)
!LO:TX:t=P:problem:oznaczenie metryczne alla breve z kropką	!	!LO:TX:t=P:problem:oznaczenie metryczne C	!	!	!	!	!	!	!	!	!	!	!	!	!
!LO:TX:a:B:i:t=Adagio	!	!LO:TX:a:i:t=Adagio	!LO:TX:a:i:B:t=Adagio.	!LO:TX:a:B:t=Adagio	!	!LO:TX:a:B:t=Adagio.	!	!LO:TX:t=P:problem:brak oznaczenia tempa	!	!LO:TX:t=P:problem:brak oznaczenia tempa	!	!LO:TX:t=P:problem:brak oznaczenia tempa	!	!LO:TX:a:B:i:t=Adagio	!LO:TX:a:B:i:t=Adagio
2AA#X/	.	2AA#X/	4.cc#\	4.ff#\	.	4A#X\	Glo-	4c#\	glo-	4f#\	glo-	4cc#\	Glo-	1r	1r
.	.	.	.	.	.	8A#\	-ri-	8c#\	-ri-	8f#\	-ri-	8cc#\	-ri-	.	.
.	.	.	8cc#\	8ff#\	.	8A#\	-a	8c#\	-a	8f#\	-a	8cc#\	-a	.	.
2BB/	.	2BB/	4dd\	4ff#\	.	4B\	tu-	4B\	tu-	4f#\	tu-	4dd\	tu-	.	.
.	.	.	4dd\	4ff#\	.	4B\	-ae	4B\	-a	4f#\	-a	4dd\	-a	.	.
=44	=44	=44	=44	=44	=44	=44	=44	=44	=44	=44	=44	=44	=44	=44	=44
2GG#X/	.	2GG#X/	4.b/	4.ee\	.	4G#X\	glo-	4B\	glo-	4e\	glo-	4dd\	glo-	2r	2r
.	.	.	.	.	.	8G#\	-ri-	8B\	-ri-	8e\	-ri-	8dd\	-ri-	.	.
.	.	.	8b/	8dd\	.	8G#\	-a	8B\	-a	8e\	-a	8dd\	-a	.	.
!	!	!	!	!	!	!	!	!LO:N:vis=8	!	!	!	!	!	!	!
4AA/	.	4AA/	4a/	4cc#\	.	4A\	glo-	4c#\	tua	4e\	glo-	4cc#\	glo-	4a/	4ee\
8F#\L	.	8F#\L	8dd\L	4ee\	.	8F#\	-ri-	8d\	glo-	8a\	-ri-	8dd\	-ri-	4dd\	8ff#\L
!	!	!	!	!	!	!LO:SIC:v:s=8Gn\	!	!	!	!	!	!	!	!	!
8G\J	.	8G\J	8b\J	.	.	8G#\	-a	8d\	-ria	16g\LL	-a	8ee\	-a	.	8ff#\J
.	.	.	.	.	.	.	.	.	.	16f#\JJ	.	.	.	.	.
!LO:LB:g=original	!	!	!	!	!	!	!	!	!	!	!	!	!	!	!
=45	=45	=45	=45	=45	=45	=45	=45	=45	=45	=45	=45	=45	=45	=45	=45
1A	.	2A\	2dd\	2ff#\	.	1A	tu-	1A	tu-	1e	tu-	(2dd\	tu-	1a	1ee
.	.	2AA/	2cc#\	2ee\	.	.	.	.	.	.	.	2cc#\)	.	.	.
=46	=46	=46	=46	=46	=46	=46	=46	=46	=46	=46	=46	=46	=46	=46	=46
!	!	!	!	!	!	!	!	!	!	!	!	!LO:TX:t=P:problem:kreska taktowa pojedyncza	!	!	!
1D	.	1D	1dd	1ff#	.	1D	-a.	1A	-a	1f#	-a	1dd	-a	1dd	1ff#
!	!	!	!LO:LB:g=original	!LO:LB:g=original	!	!	!	!	!	!	!	!LO:LB:g=original	!	!	!
=47||	=47||	=47||	=47||	=47||	=47||	=47||	=47||	=47||	=47||	=47||	=47||	=47|	=47||	=47||	=47||
*M2/4	*	*M2/4	*M2/4	*M2/4	*	*M2/4	*	*M2/4	*	*M2/4	*	*M2/4	*	*M2/4	*M2/4
!	!	!	!LO:TX:t=P:problem:brak oznaczenia tempa	!	!	!	!	!	!	!	!	!	!	!	!
!LO:TX:b:i:t=Oſanna	!	!LO:TX:b:t=Osanna	!LO:TX:a:i:t=ſolo	!	!	!	!	!	!	!	!	!	!	!	!
!LO:TX:a:B:t=Allegro.	!	!LO:TX:a:i:t=Allegro	!LO:TX:b:t=Oſanna	!LO:TX:a:B:t=Allegro	!	!	!	!LO:TX:t=P:problem:brak oznaczenia tempa	!	!LO:TX:t=P:problem:brak oznaczenia tempa	!	!LO:TX:t=P:problem:brak oznaczenia tempa	!	!LO:TX:a:B:i:t=Allegro	!LO:TX:a:B:i:t=Allegro
8D/	.	8D/	8f#/	16dd\LL	.	8r	.	8r	.	8r	.	8r	.	8r	8r
.	.	.	.	16cc#\JJ	.	.	.	.	.	.	.	.	.	.	.
=48	=48	=48	=48	=48	=48	=48	=48	=48	=48	=48	=48	=48	=48	=48	=48
!	!	!	!	!LO:TX:t=P:problem:mixed beam	!	!LO:TX:a:B:t=Allegro.	!	!	!	!	!	!	!	!LO:TX:b:t=Oſanna	!LO:TX:b:i:t=Oſanna
4D/	.	4D/	4f#/	8dd\L	.	0r	.	0r	.	0r	.	0r	.	0r	0r
.	.	.	.	8d/J	.	.	.	.	.	.	.	.	.	.	.
!	!	!	!	!LO:TX:t=P:problem:mixed beam	!	!	!	!	!	!	!	!	!	!	!
8r	.	8r	8r	16d/LL	.	.	.	.	.	.	.	.	.	.	.
.	.	.	.	16dd\	.	.	.	.	.	.	.	.	.	.	.
8D/	.	8D/	8f#/	16cc#\	.	.	.	.	.	.	.	.	.	.	.
.	.	.	.	16dd\JJ	.	.	.	.	.	.	.	.	.	.	.
=49	=49	=49	=49	=49	=49	=49	=49	=49	=49	=49	=49	=49	=49	=49	=49
8C#/L	.	8C#/L	4a/	8ee\L	.	.	.	.	.	.	.	.	.	.	.
16AA/L	.	16AA/L	.	8a\J	.	.	.	.	.	.	.	.	.	.	.
16BB/JJ	.	16BB/JJ	.	.	.	.	.	.	.	.	.	.	.	.	.
8C#/L	.	8C#/L	8r	8a\L	.	.	.	.	.	.	.	.	.	.	.
8AA/J	.	8AA/J	16dd\LL	16ff#\L	.	.	.	.	.	.	.	.	.	.	.
.	.	.	16cc#\JJ	16ee\JJ	.	.	.	.	.	.	.	.	.	.	.
=50	=50	=50	=50	=50	=50	=50	=50	=50	=50	=50	=50	=50	=50	=50	=50
!	!	!	!LO:TX:t=P:problem:mixed beam	!LO:TX:t=P:problem:mixed beam	!	!	!	!	!	!	!	!	!	!	!
4D/	.	4D/	8dd\L	8ff#\L	.	.	.	.	.	.	.	.	.	.	.
.	.	.	8d/J	8d/J	.	.	.	.	.	.	.	.	.	.	.
!	!	!	!LO:TX:t=P:problem:mixed beam	!LO:TX:t=P:problem:mixed beam	!	!	!	!	!	!	!	!	!	!	!
8r	.	8r	16d/LL	16d/LL	.	.	.	.	.	.	.	.	.	.	.
.	.	.	16dd\	16ff#\	.	.	.	.	.	.	.	.	.	.	.
8D/	.	8D/	16cc#\	16ee\	.	.	.	.	.	.	.	.	.	.	.
.	.	.	16dd\JJ	16ff#\JJ	.	.	.	.	.	.	.	.	.	.	.
!	!	!LO:LB:g=original	!	!	!	!	!	!	!	!	!	!	!	!	!
=51	=51	=51	=51	=51	=51	=51	=51	=51	=51	=51	=51	=51	=51	=51	=51
!	!	!	!	!LO:TX:t=P:problem:mixed beam	!	!	!	!	!	!	!	!	!	!	!
8C#/L	6	8C#/L	8ee\L	8gg\L	.	.	.	.	.	.	.	.	.	.	.
!LO:SIC:v:s=8BB/	!	!	!	!	!	!	!	!	!	!	!	!	!	!	!
8AA/	.	8BB/	8a\	8a/J	.	.	.	.	.	.	.	.	.	.	.
!	!	!	!	!LO:TX:t=P:problem:mixed beam	!	!	!	!	!	!	!	!	!	!	!
8C#/	6	8C#/	8a\	8a/L	.	.	.	.	.	.	.	.	.	.	.
8AA/J	.	8AA/J	8ee\J	16aa\L	.	.	.	.	.	.	.	.	.	.	.
.	.	.	.	16gg\JJ	.	.	.	.	.	.	.	.	.	.	.
=52	=52	=52	=52	=52	=52	=52	=52	=52	=52	=52	=52	=52	=52	=52	=52
!	!	!	!	!LO:TX:t=P:problem:mixed beam	!	!	!	!	!	!	!	!	!	!	!
4D\	.	4D/	4ff#\	8aa\L	.	0r	.	0r	.	0r	.	0r	.	0r	0r
.	.	.	.	16a/L	.	.	.	.	.	.	.	.	.	.	.
.	.	.	.	16b/JJ	.	.	.	.	.	.	.	.	.	.	.
8r	.	8r	8r	16cc#\LL	.	.	.	.	.	.	.	.	.	.	.
.	.	.	.	16dd\	.	.	.	.	.	.	.	.	.	.	.
8F#\	.	8F#\	8dd\	16ee\	.	.	.	.	.	.	.	.	.	.	.
.	.	.	.	16ff#\JJ	.	.	.	.	.	.	.	.	.	.	.
=53	=53	=53	=53	=53	=53	=53	=53	=53	=53	=53	=53	=53	=53	=53	=53
!	!	!	!	!LO:TX:t=P:problem:mixed beam	!	!	!	!	!	!	!	!	!	!	!
4E\	7	4E\	4ee\	8gg\L	.	.	.	.	.	.	.	.	.	.	.
.	.	.	.	16g/L	.	.	.	.	.	.	.	.	.	.	.
.	.	.	.	16a/JJ	.	.	.	.	.	.	.	.	.	.	.
8r	.	8r	8r	16b\LL	.	.	.	.	.	.	.	.	.	.	.
.	.	.	.	16cc#\	.	.	.	.	.	.	.	.	.	.	.
8AA/	7	8AA/	8a/	16dd\	.	.	.	.	.	.	.	.	.	.	.
.	.	.	.	16ee\JJ	.	.	.	.	.	.	.	.	.	.	.
=54	=54	=54	=54	=54	=54	=54	=54	=54	=54	=54	=54	=54	=54	=54	=54
!	!	!	!	!LO:TX:t=P:problem:mixed beam	!	!	!	!	!	!	!	!	!	!	!
4D/	.	4D/	4b/	8ff#\L	.	.	.	.	.	.	.	.	.	.	.
.	.	.	.	16f#/L	.	.	.	.	.	.	.	.	.	.	.
.	.	.	.	16g/JJ	.	.	.	.	.	.	.	.	.	.	.
8r	.	8r	8r	16a\LL	.	.	.	.	.	.	.	.	.	.	.
.	.	.	.	16b\	.	.	.	.	.	.	.	.	.	.	.
8BB/	.	8BB/	8g/	16cc#\	.	.	.	.	.	.	.	.	.	.	.
.	.	.	.	16dd\JJ	.	.	.	.	.	.	.	.	.	.	.
=55	=55	=55	=55	=55	=55	=55	=55	=55	=55	=55	=55	=55	=55	=55	=55
!	!	!	!	!LO:TX:t=P:problem:mixed beam	!	!	!	!	!	!	!	!	!	!	!
4C#/	.	4C#/	4a/	8ee\L	.	.	.	.	.	.	.	.	.	.	.
.	.	.	.	16e/L	.	.	.	.	.	.	.	.	.	.	.
.	.	.	.	16f#/JJ	.	.	.	.	.	.	.	.	.	.	.
8r	.	8r	8r	16g\LL	.	.	.	.	.	.	.	.	.	.	.
.	.	.	.	16a\	.	.	.	.	.	.	.	.	.	.	.
8AA/	.	8AA/	8b/	16b\	.	.	.	.	.	.	.	.	.	.	.
.	.	.	.	16cc#\JJ	.	.	.	.	.	.	.	.	.	.	.
=56	=56	=56	=56	=56	=56	=56	=56	=56	=56	=56	=56	=56	=56	=56	=56
!LO:TX:t=P:problem:mixed beam	!	!LO:TX:t=P:problem:mixed beam	!	!LO:TX:t=P:problem:mixed beam	!	!	!	!	!	!	!	!	!	!	!
8D\L	.	8D\L	8a/L	8dd\L	.	0r	.	0r	.	2r	.	0r	.	0r	0r
8G\	.	8G\	8b/	8f#/	.	.	.	.	.	.	.	.	.	.	.
8A\	.	8A\	8a/	8e/	.	.	.	.	.	.	.	.	.	.	.
8AA/J	.	8AA/J	8g/J	8cc#\J	.	.	.	.	.	.	.	.	.	.	.
=57	=57	=57	=57	=57	=57	=57	=57	=57	=57	=57	=57	=57	=57	=57	=57
!	!	!	!	!LO:TX:t=P:problem:mixed beam	!	!	!	!	!	!	!	!	!	!	!
8D\L	.	8D\L	4f#/	8dd\L	.	.	.	.	.	4r	.	.	.	.	.
8E\	.	8E\	.	8d/J	.	.	.	.	.	.	.	.	.	.	.
8F#\	.	8F#\	4r	4rg	.	.	.	.	.	8r	.	.	.	.	.
!LO:SIC:v:s=8C#\J	!	!	!	!	!	!	!	!	!	!	!	!	!	!	!
8D\J	.	8C#\J	.	.	.	.	.	.	.	8d\	O-	.	.	.	.
!	!	!	!	!	!	!	!	!	!	!LO:LB:g=original	!	!	!	!	!
=58	=58	=58	=58	=58	=58	=58	=58	=58	=58	=58	=58	=58	=58	=58	=58
8D\L	.	8D\L	2r	2r	.	.	.	.	.	8d\	-ſan-	.	.	.	.
8E\	.	8E\	.	.	.	.	.	.	.	8d\	-na	.	.	.	.
8F#\	.	8F#\	.	.	.	.	.	.	.	16d\LL	in	.	.	.	.
.	.	.	.	.	.	.	.	.	.	16c#\JJ	.	.	.	.	.
8D\J	.	8D\J	.	.	.	.	.	.	.	8d\	ex-	.	.	.	.
!LO:LB:g=original	!	!	!	!LO:LB:g=original	!	!	!	!	!	!	!	!	!	!	!
=59	=59	=59	=59	=59	=59	=59	=59	=59	=59	=59	=59	=59	=59	=59	=59
!	!	!	!	!	!	!	!	!	!	!LO:TX:t=P:problem:mixed beam	!	!	!	!	!
8C#/L	.	8C#/L	4r	4r	.	.	.	.	.	8e\L	-cel-	.	.	.	.
8BB/	.	8BB/	.	.	.	.	.	.	.	8A/J	.	.	.	.	.
8C#/	.	8C#/	8r	8r	.	.	.	.	.	8A/	-sis	.	.	.	.
8AA/J	.	8AA/J	8g/	8cc#\	.	.	.	.	.	8e\	o-	.	.	.	.
=60	=60	=60	=60	=60	=60	=60	=60	=60	=60	=60	=60	=60	=60	=60	=60
4D\	.	4D/	8f#/L	8dd\L	.	0r	.	0r	.	8f#\	-ſan-	0r	.	0r	0r
.	.	.	8r	8dd\J	.	.	.	.	.	8f#\	-na	.	.	.	.
8r	.	8r	8a/J	8dd\L	.	.	.	.	.	(16f#\LL	in	.	.	.	.
.	.	.	.	.	.	.	.	.	.	16e\JJ)	.	.	.	.	.
8D/	.	8D/	8r	16cc#\L	.	.	.	.	.	8f#\	ex-	.	.	.	.
.	.	.	.	16dd\JJ	.	.	.	.	.	.	.	.	.	.	.
=61	=61	=61	=61	=61	=61	=61	=61	=61	=61	=61	=61	=61	=61	=61	=61
4AA/	.	4AA/	4cc#\	8ee\L	.	.	.	.	.	(8g\L	-cel-	.	.	.	.
.	.	.	.	8a\	.	.	.	.	.	8e\J)	.	.	.	.	.
8r	.	8r	8r	8a\	.	.	.	.	.	8e\	-sis	.	.	.	.
8AA/	.	8AA/	8a/	8cc#\J	.	.	.	.	.	8a\	o-	.	.	.	.
!	!	!	!LO:PB:g=original	!	!	!	!	!	!	!	!	!	!	!	!
=62	=62	=62	=62	=62	=62	=62	=62	=62	=62	=62	=62	=62	=62	=62	=62
!	!	!	!	!LO:TX:t=P:problem:mixed beam	!	!	!	!	!	!	!	!	!	!	!
4D\	.	4D/	4f#/	8dd\L	.	.	.	.	.	16a\LL	-ſan-	.	.	.	.
.	.	.	.	.	.	.	.	.	.	16g\	.	.	.	.	.
.	.	.	.	8d/J	.	.	.	.	.	16f#\	.	.	.	.	.
.	.	.	.	.	.	.	.	.	.	16g\JJ	.	.	.	.	.
8r	.	8r	8r	8r	.	.	.	.	.	16a\LL	.	.	.	.	.
.	.	.	.	.	.	.	.	.	.	16b\	.	.	.	.	.
8F#\	.	8F#\	8a/	16dd\LL	.	.	.	.	.	16a\	.	.	.	.	.
.	.	.	.	16cc#\JJ	.	.	.	.	.	16b\JJ	.	.	.	.	.
!	!	!LO:LB:g=original	!	!	!	!	!	!	!	!	!	!	!	!	!
=63	=63	=63	=63	=63	=63	=63	=63	=63	=63	=63	=63	=63	=63	=63	=63
!	!	!	!	!LO:TX:t=P:problem:mixed beam	!	!	!	!	!	!	!	!	!	!	!
4E\	7	4E\	4a/	8dd\L	.	.	.	.	.	8g\L	.	.	.	.	.
.	.	.	.	8d/J	.	.	.	.	.	16e\L	.	.	.	.	.
.	.	.	.	.	.	.	.	.	.	16f#\JJ	.	.	.	.	.
8r	.	8r	8r	8r	.	.	.	.	.	16g\LL	.	.	.	.	.
.	.	.	.	.	.	.	.	.	.	16a\	.	.	.	.	.
8AA/	7	8AA/	8a/	8cc#\	.	.	.	.	.	16g\	.	.	.	.	.
.	.	.	.	.	.	.	.	.	.	16a\JJ	.	.	.	.	.
=64	=64	=64	=64	=64	=64	=64	=64	=64	=64	=64	=64	=64	=64	=64	=64
4D/	.	4D/	4a/	4dd\	.	1r	.	1r	.	8f#\L	.	1r	.	1r	1r
.	.	.	.	.	.	.	.	.	.	16d\L	.	.	.	.	.
.	.	.	.	.	.	.	.	.	.	16e\JJ	.	.	.	.	.
8r	.	8r	8r	8r	.	.	.	.	.	16f#\LL	.	.	.	.	.
.	.	.	.	.	.	.	.	.	.	16g\	.	.	.	.	.
8AA/	.	8AA/	8cc#\	8ee\	.	.	.	.	.	16a\	.	.	.	.	.
.	.	.	.	.	.	.	.	.	.	16b\JJ	.	.	.	.	.
=65	=65	=65	=65	=65	=65	=65	=65	=65	=65	=65	=65	=65	=65	=65	=65
8D\L	.	8D\L	8a/L	8ff#\	.	.	.	.	.	8a\	-na	.	.	.	.
8E\	.	8E\	8r	8r	.	.	.	.	.	8g\	.	.	.	.	.
8F#\	.	8F#\	8g/J	8b/	.	.	.	.	.	8f#\	in	.	.	.	.
8G\J	.	8G\J	8r	8r	.	.	.	.	.	8e\	ex-	.	.	.	.
=66	=66	=66	=66	=66	=66	=66	=66	=66	=66	=66	=66	=66	=66	=66	=66
!LO:TX:t=P:problem:mixed beam	!	!LO:TX:t=P:problem:mixed beam	!	!	!	!	!	!	!	!	!	!	!	!	!
8A\L	.	8A\L	8a/L	8cc#\L	.	4r	.	4r	.	8f#\L	-cel-	4r	.	4r	4r
8AA/	.	8AA/J	8g/J	16b\L	.	.	.	.	.	16e\L	.	.	.	.	.
.	.	.	.	16cc#\JJ	.	.	.	.	.	16d\JJ	.	.	.	.	.
!	!	!	!LO:TX:t=P:problem:mixed beam	!	!	!	!	!	!	!	!	!	!	!	!
8D\	.	8D/L	8f#/L	8dd\L	.	8rBB	.	8r	.	8d\	-sis	8r	.	8r	8r
!	!	!	!	!	!	!	!	!	!	!LO:LB:g=original	!	!	!	!	!
=-	=-	=-	=-	=-	=-	=-	=-	=-	=-	=-	=-	=-	=-	=-	=-
!	!	!	!	!	!	!	!	!	!	!	!	!	!	!LO:TX:a:t=Tutti	!
8DD/J	.	8DD/J	16dd\L	16dd\L	.	8D\	O-	8A/	o-	8f#\	o-	8dd\	O-	8ff#\	8aa\
.	.	.	16cc#\JJ	16cc#\JJ	.	.	.	.	.	.	.	.	.	.	.
!	!	!	!	!	!	!	!	!LO:LB:g=original	!	!	!	!	!	!	!
!	!	!	!	!	!	!LO:LB:g=original	!	!	!	!	!	!	!	!	!
=67	=67	=67	=67	=67	=67	=67	=67	=67	=67	=67	=67	=67	=67	=67	=67
!	!	!	!LO:TX:t=P:problem:mixed beam	!LO:TX:t=P:problem:mixed beam	!	!	!	!	!	!	!	!	!	!	!
8D\L	.	8D\L	8dd\L	8dd\L	.	8D\	-ſan-	8A\	-san-	8f#\	-ſan-	8dd\	-ſan-	8ff#\L	8aa\L
8E\	.	8E\	8d/J	8d/J	.	8E\	-na	8A\	-na	8f#\	-na	8cc#\	-na	8ee\	8gg\
!	!	!	!LO:TX:t=P:problem:mixed beam	!LO:TX:t=P:problem:mixed beam	!	!	!	!	!	!	!	!	!	!	!
8F#\	.	8F#\	16d/LL	16d/LL	.	8F#\	in	8A\	in	8f#\	in	8dd\	in	8dd\	8ff#\
.	.	.	16dd\	16dd\	.	.	.	.	.	.	.	.	.	.	.
8D\J	.	8D\J	16cc#\	16cc#\	.	8D/	ex-	8A\	ex-	8f#\	ex-	8dd\	ex-	8ff#\J	8aa\J
.	.	.	16dd\JJ	16dd\JJ	.	.	.	.	.	.	.	.	.	.	.
=68	=68	=68	=68	=68	=68	=68	=68	=68	=68	=68	=68	=68	=68	=68	=68
8C#/L	.	8C#/L	8ee\L	8ee\L	.	8C#/	-cel-	4A\	-cel-	4e\	-cel-	(8ee\L	-cel-	4ee\	4aa\
8BB/	.	8BB/	8a\J	8a\J	.	8BB/	.	.	.	.	.	8cc#\J)	.	.	.
8C#/	.	8C#/	8a\L	8a\L	.	8C#/	-sis	8A\	-sis	8e\	-sis	8cc#\	-sis	8r	8r
8AA/J	.	8AA/J	16ff#\L	16ff#\L	.	8AA/	o-	8A\	o-	16a\LL	o-	8cc#\	O-	8a/	8ee\
.	.	.	16ee\JJ	16ee\JJ	.	.	.	.	.	16g\JJ	.	.	.	.	.
!	!	!	!	!	!	!	!	!	!	!	!	!	!	!	!LO:LB:g=original
=69	=69	=69	=69	=69	=69	=69	=69	=69	=69	=69	=69	=69	=69	=69	=69
!	!	!	!LO:TX:t=P:problem:mixed beam	!LO:TX:t=P:problem:mixed beam	!	!LO:SIC:v:l:s=-ſan-	!	!	!	!	!	!	!	!	!
8D\L	.	8D\L	8ff#\L	8ff#\L	.	8D\	-ſa-	8A\	-san-	8f#\	-ſan-	8dd\	-ſan-	8ff#\L	8aa\L
8E\	.	8E\	8d/J	8d/J	.	8E\	-na	8A\	-na	8f#\	-na	8cc#\	-na	8dd\	8gg\
!	!	!	!LO:TX:t=P:problem:mixed beam	!LO:TX:t=P:problem:mixed beam	!	!	!	!	!	!	!	!	!	!	!
8F#\	.	8F#\	16d/LL	16d/LL	.	8F#\	in	8A\	in	8f#\	in	8dd\	in	8dd\	8ff#\
.	.	.	16ff#\	16ff#\	.	.	.	.	.	.	.	.	.	.	.
8D\J	.	8D\J	16ee\	16ee\	.	8D\	ex-	8A\	ex-	16f#\LL	ex-	8ee\	ex-	8ff#\J	8aa\J
.	.	.	16ff#\JJ	16ff#\JJ	.	.	.	.	.	16g\JJ	.	.	.	.	.
=70	=70	=70	=70	=70	=70	=70	=70	=70	=70	=70	=70	=70	=70	=70	=70
!	!	!	!LO:TX:t=P:problem:mixed beam	!LO:TX:t=P:problem:mixed beam	!	!	!	!	!	!	!	!	!	!	!
8C#/L	.	8C#/L	8gg\L	8gg\L	.	8C#/L	-cel-	4A\	-celsis	4a\	-cel-	8ee\L	-cel-	4a/	4ee\
8BB/	.	8BB/	8a/J	8a/J	.	8BB/J	.	.	.	.	.	8dd\J	.	.	.
!	!	!	!LO:TX:t=P:problem:mixed beam	!LO:TX:t=P:problem:mixed beam	!	!	!	!	!	!	!	!	!	!	!
8C#/	.	8C#/	8a/L	8a/L	.	8C#/	-sis	8r	.	8a\	-sis	8ee\	-sis	8r	8r
8AA/J	.	8AA/J	16aa\L	16aa\L	.	8AA/	o-	8A\	o-	8a\	o-	8cc#\	o-	8a/	8ee\
.	.	.	16gg\JJ	16gg\JJ	.	.	.	.	.	.	.	.	.	.	.
=71	=71	=71	=71	=71	=71	=71	=71	=71	=71	=71	=71	=71	=71	=71	=71
!	!	!	!LO:TX:t=P:problem:mixed beam	!LO:TX:t=P:problem:mixed beam	!	!	!	!	!	!	!	!	!	!	!
4D\	.	8D\L	8aa\L	8aa\L	.	8D\	-ſan-	8A\	-san-	8f#\	-ſan-	8dd\	-ſan-	4dd\	4ff#\
.	.	8D\J	16a/L	16a/L	.	8D\	-na	8A\	-na	8f#\	-na	8dd\	-na	.	.
.	.	.	16b/JJ	16b/JJ	.	.	.	.	.	.	.	.	.	.	.
8r	.	8r	16cc#\LL	16cc#\LL	.	8r	.	8r	.	8r	.	8r	.	8r	8r
.	.	.	16dd\	16dd\	.	.	.	.	.	.	.	.	.	.	.
*	*	*	*	*	*	*	*ij	*	*	*	*	*	*ij	*	*
8F#\	.	8F#\	16ee\	16ee\	.	8D\	o-	8A\	o-	8d\	o-	8dd\	o-	8dd\	8ff#\
.	.	.	16ff#\JJ	16ff#\JJ	.	.	.	.	.	.	.	.	.	.	.
!	!	!	!	!LO:LB:g=original	!	!	!	!	!	!	!	!LO:LB:g=original	!	!	!
=72	=72	=72	=72	=72	=72	=72	=72	=72	=72	=72	=72	=72	=72	=72	=72
!	!	!	!LO:TX:t=P:problem:mixed beam	!LO:TX:t=P:problem:mixed beam	!	!	!	!	!	!	!	!	!	!	!
4E\	7	4E\	8gg\L	8gg\L	.	8E\	-ſan-	8G/	-san-	8g\	-ſan-	8dd\	-ſan-	4ee\	4gg\
.	.	.	16g/L	16g/L	.	8E\	-na	8G/	-na	8g\	-na	8dd\	-na	.	.
.	.	.	16a/JJ	16a/JJ	.	.	.	.	.	.	.	.	.	.	.
8r	.	8r	16b\LL	16b\LL	.	8r	.	8r	.	8r	.	8r	.	8r	8r
.	.	.	16cc#\	16cc#\	.	.	.	.	.	.	.	.	.	.	.
*	*	*	*	*	*	*	*	*	*ij	*	*	*	*	*	*
8AA/	7	8AA/	16dd\	16dd\	.	8C#/	o-	8c#\	o-	8e\	o-	8dd\	o-	8a/	8ee\
.	.	.	16ee\JJ	16ee\JJ	.	.	.	.	.	.	.	.	.	.	.
!LO:LB:g=original	!	!	!	!	!	!	!	!	!	!	!	!	!	!LO:LB:g=original	!
=73	=73	=73	=73	=73	=73	=73	=73	=73	=73	=73	=73	=73	=73	=73	=73
!	!	!	!LO:TX:t=P:problem:mixed beam	!LO:TX:t=P:problem:mixed beam	!	!	!	!	!	!	!	!	!	!	!
4D/	.	4D/	8ff#\L	8ff#\L	.	8D\	-ſan-	8A\	-san-	8f#\	-ſan-	8dd\	-ſan-	4dd\	4ff#\
.	.	.	16f#/L	16f#/L	.	8D\	-na	8A\	-na	8f#\	-na	8dd\	-na	.	.
.	.	.	16g/JJ	16g/JJ	.	.	.	.	.	.	.	.	.	.	.
8r	.	8r	16a\LL	16a\LL	.	8r	.	8r	.	8r	.	8r	.	8r	8r
.	.	.	16b\	16b\	.	.	.	.	.	.	.	.	.	.	.
!	!	!LO:LB:g=original	!	!	!	!	!	!	!	!	!	!	!	!	!
=-	=-	=-	=-	=-	=-	=-	=-	=-	=-	=-	=-	=-	=-	=-	=-
*	*	*	*	*	*	*	*	*	*	*	*ij	*	*	*	*
8BB/	.	8BB/	16cc#\	16cc#\	.	8BB/	o-	8d\	o-	16g\LL	o-	8dd\	o-	8dd\	16gg\LL
.	.	.	16dd\JJ	16dd\JJ	.	.	.	.	.	16f#\JJ	.	.	.	.	16ff#\JJ
!	!	!	!LO:LB:g=original	!	!	!	!	!LO:LB:g=original	!	!	!	!	!	!	!
=74	=74	=74	=74	=74	=74	=74	=74	=74	=74	=74	=74	=74	=74	=74	=74
!	!	!	!LO:TX:t=P:problem:mixed beam	!LO:TX:t=P:problem:mixed beam	!	!	!	!	!	!	!	!	!	!	!
4C#/	.	4C#/	8ee\L	8ee\L	.	8C#/	-ſan-	8A\	-san-	8e\	-ſan-	8ee\	-ſan-	4a/	4ee\
.	.	.	16e/L	16e/L	.	8C#/	-na	8A\	-na	8e\	-na	8ee\	-na	.	.
*	*	*	*	*	*	*	*Xij	*	*	*	*Xij	*	*Xij	*	*
.	.	.	16f#/JJ	16f#/JJ	.	.	.	.	.	.	.	.	.	.	.
8r	.	8r	16g/LL	16g\LL	.	8r	.	8r	.	8r	.	8r	.	8r	8r
.	.	.	16a/	16a\	.	.	.	.	.	.	.	.	.	.	.
8AA/	.	8AA/	16b/	16b\	.	8AA/	o-	8c#\	o-	8e\	o-	8cc#\	O-	8a/	16aa\LL
.	.	.	16cc#/JJ	16cc#\JJ	.	.	.	.	.	.	.	.	.	.	16gg\JJ
=75	=75	=75	=75	=75	=75	=75	=75	=75	=75	=75	=75	=75	=75	=75	=75
!	!	!	!LO:TX:t=P:problem:mixed beam	!	!	!LO:SIC:v:l:s=-ſan-	!	!	!	!	!	!	!	!	!
16D\LL	.	16D\LL	8dd\L	8dd\L	.	8D\	-ſa-	8A\	-san-	8f#\	-ſan-	8dd\	-ſan-	8dd\L	16ff#\LL
16E\	.	16E\	.	.	.	.	.	.	.	.	.	.	.	.	16gg\
16F#\	.	16F#\	8f#/	16gg\L	.	8G\	-na	8B\	-na	16a\LL	-na	8b\	-na	16ee\L	16aa\
16G\JJ	.	16G\JJ	.	16ff#\JJ	.	.	.	.	.	16g\JJ	.	.	.	16dd\JJ	16bb\JJ
!	!	!	!	!	!	!LO:LB:g=original	!	!	!	!	!	!	!	!	!
=-	=-	=-	=-	=-	=-	=-	=-	=-	=-	=-	=-	=-	=-	=-	=-
!LO:TX:t=P:problem:mixed beam	!	!LO:TX:t=P:problem:mixed beam	!	!	!	!	!	!	!	!	!	!	!	!	!
8A\L	.	8A\L	8e/	16ee\LL	.	8A\	in	8A\	in	8f#\	in	8cc#\	in	8a/L	8.ee\L
.	.	.	.	16gg\	.	.	.	.	.	.	.	.	.	.	.
8AA/J	.	8AA/J	8cc#\J	16gg\	.	8AA/	ex-	8A\	ex-	8e\	ex-	(16b\LL	ex-	8a/J	.
.	.	.	.	16gg\JJ	.	.	.	.	.	.	.	16cc#\JJ)	.	.	16ee\Jk
!	!	!	!	!	!	!	!	!	!	!LO:LB:g=original	!	!	!	!	!
=76	=76	=76	=76	=76	=76	=76	=76	=76	=76	=76	=76	=76	=76	=76	=76
4D/	.	4D/	8dd\L	8ff#\L	.	8D\	-cel-	8A\	-cel-	8f#\	-cel-	4dd\	-cel-	4f#/	4dd\
.	.	.	8a\J	8dd\J	.	8D\	-sis	8A\	-sis	8f#\	-sis	.	.	.	.
*	*	*	*	*	*	*	*	*	*Xij	*	*	*	*	*	*
!	!	!	!LO:TX:t=P:problem:mixed beam	!LO:TX:t=P:problem:mixed beam	!	!	!	!	!	!	!	!	!	!	!
8r	.	8r	8d/L	8a/L	.	8r	.	8r	.	8r	.	8dd\	-sis	8r	8r
*	*	*	*	*	*	*	*ij	*	*	*	*ij	*	*	*	*
8D/	.	8D/	16aa\L	16aa\L	.	8D\	o-	8A\	o-	8f#\	o-	8ff#\	O-	8dd\	8ff#\
.	.	.	16gg\JJ	16gg\JJ	.	.	.	.	.	.	.	.	.	.	.
=77	=77	=77	=77	=77	=77	=77	=77	=77	=77	=77	=77	=77	=77	=77	=77
!	!	!	!LO:TX:t=P:problem:mixed beam	!LO:TX:t=P:problem:mixed beam	!	!	!	!	!	!	!	!	!	!	!
4D/	.	4D/	8aa\L	8aa\L	.	8D\	-ſan-	8G/	-san-	8f#\	-ſan-	8dd\	-ſan-	4dd\	4ff#\
.	.	.	16a/L	16a/L	.	8D\	-na	8G/	-na	8f#\	-na	8dd\	-na	.	.
.	.	.	16b/JJ	16b/JJ	.	.	.	.	.	.	.	.	.	.	.
8r	.	8r	16cc#\LL	16cc#\LL	.	8r	.	8r	.	8r	.	8r	.	8r	8r
.	.	.	16dd\	16dd\	.	.	.	.	.	.	.	.	.	.	.
*	*	*	*	*	*	*	*	*	*	*	*	*	*ij	*	*
8F#\	.	8F#\	16ee\	16ee\	.	8F#\	o-	8c#\	o-	8d\	o-	8dd\	O-	8dd\	8ff#\
.	.	.	16ff#\JJ	16ff#\JJ	.	.	.	.	.	.	.	.	.	.	.
=78	=78	=78	=78	=78	=78	=78	=78	=78	=78	=78	=78	=78	=78	=78	=78
!	!	!	!LO:TX:t=P:problem:mixed beam	!LO:TX:t=P:problem:mixed beam	!	!	!	!	!	!	!	!	!	!	!
4E\	.	4E\	8gg\L	8gg\L	.	8E\	-ſan-	8A\	-san-	8g\	-ſan-	8dd\	-ſan-	4ee\	4gg\
.	.	.	16g/L	16g/L	.	8E\	-na	8A\	-na	8g\	-na	8dd\	-na	.	.
.	.	.	16a/JJ	16a/JJ	.	.	.	.	.	.	.	.	.	.	.
8r	.	8r	16b\LL	16b\LL	.	8r	.	8r	.	8r	.	8r	.	8r	8r
.	.	.	16cc#\	16cc#\	.	.	.	.	.	.	.	.	.	.	.
*	*	*	*	*	*	*	*	*	*ij	*	*	*	*	*	*
8AA/	.	8AA/	16dd\	16dd\	.	8C#/	o-	8B\	o-	8a\	o-	8dd\	O-	8a/	8ee\
.	.	.	16ee\JJ	16ee\JJ	.	.	.	.	.	.	.	.	.	.	.
=79	=79	=79	=79	=79	=79	=79	=79	=79	=79	=79	=79	=79	=79	=79	=79
!	!	!	!LO:TX:t=P:problem:mixed beam	!LO:TX:t=P:problem:mixed beam	!	!	!	!LO:TX:t=P:problem:brak taktu nr 79	!	!	!	!	!	!	!
4D/	.	4D/	8ff#\L	8ff#\L	.	8D/	-ſan-	2ryy	.	8a\	-ſan-	8dd\	-ſan-	4dd\	4ff#\
.	.	.	16f#/L	16f#/L	.	8D/	-na	.	.	8a\	-na	8dd\	-na	.	.
.	.	.	16g/JJ	16g/JJ	.	.	.	.	.	.	.	.	.	.	.
8r	.	8r	16a\LL	16a\LL	.	8r	.	.	.	8r	.	8r	.	8r	8r
.	.	.	16b\	16b\	.	.	.	.	.	.	.	.	.	.	.
8BB/	.	8BB/	16cc#\	16cc#\	.	8BB/	o-	.	.	16g\LL	o-	8dd\	O-	8dd\	16gg\LL
.	.	.	16dd\JJ	16dd\JJ	.	.	.	.	.	16f#\JJ	.	.	.	.	16ff#\JJ
!	!	!	!	!	!	!	!	!	!	!	!	!LO:LB:g=original	!	!	!
=80	=80	=80	=80	=80	=80	=80	=80	=80	=80	=80	=80	=80	=80	=80	=80
!	!	!	!LO:TX:t=P:problem:mixed beam	!LO:TX:t=P:problem:mixed beam	!	!	!	!	!	!	!	!	!	!	!
4C#/	.	4C#/	8ee\L	8ee\L	.	8C#/	-ſan-	8A\	-san-	8e\	-ſan-	8ee\	-ſan-	4a/	4ee\
.	.	.	16e/L	16e/L	.	8C#/	-na	8A\	-na	8e\	-na	8ee\	-na	.	.
*	*	*	*	*	*	*	*Xij	*	*	*	*Xij	*	*	*	*
.	.	.	16f#/JJ	16f#/JJ	.	.	.	.	.	.	.	.	.	.	.
8r	.	8r	16g/LL	16g\LL	.	8r	.	8r	.	8r	.	8r	.	8r	8r
.	.	.	16a/	16a\	.	.	.	.	.	.	.	.	.	.	.
8AA/	.	8AA/	16b/	16b\	.	8AA/	o-	8c#\	o-	8a\	o-	8cc#\	O-	8a/	16aa\LL
.	.	.	16cc#/JJ	16cc#\JJ	.	.	.	.	.	.	.	.	.	.	16gg\JJ
!	!	!	!	!	!	!	!	!LO:LB:g=original	!	!	!	!	!	!	!
=81	=81	=81	=81	=81	=81	=81	=81	=81	=81	=81	=81	=81	=81	=81	=81
!	!	!	!LO:TX:t=P:problem:mixed beam	!LO:TX:t=P:problem:mixed beam	!	!LO:SIC:v:l:s=-ſan-	!	!	!	!	!	!	!	!	!
16D\LL	.	16D\LL	8dd\L	8dd\L	.	8D\	-ſa-	8A\	-san-	8f#\	-ſan-	8dd\	-ſan-	8dd\L	16ff#\LL
16E\	.	16E\	.	.	.	.	.	.	.	.	.	.	.	.	16gg\
16F#\	.	16F#\	8f#/	8f#/	.	8G\	-na	8B\	-na	(16g\LL	-na	8b\	-na	16ee\L	16aa\
*	*	*	*	*	*	*	*	*	*Xij	*	*	*	*Xij	*	*
16G\JJ	.	16G\JJ	.	.	.	.	.	.	.	16f#\JJ)	.	.	.	16dd\JJ	16bb\JJ
!LO:TX:t=P:problem:mixed beam	!	!LO:TX:t=P:problem:mixed beam	!	!	!	!	!	!	!	!	!	!	!	!	!
8A\L	.	8A\L	8e/	8e/	.	8A\	in	8A\	.	8e\	in	8cc#\	In	8.a/L	8.ee\L
8AA/J	.	8AA/J	8cc#\J	8cc#\J	.	8AA/	ex-	8A\	o-	8g\	ex-	16b\LL	ex-	.	.
.	.	.	.	.	.	.	.	.	.	.	.	16cc#\JJ	.	16a/Jk	16ee\Jk
=82	=82	=82	=82	=82	=82	=82	=82	=82	=82	=82	=82	=82	=82	=82	=82
!	!	!	!LO:TX:t=P:problem:mixed beam	!LO:TX:t=P:problem:mixed beam	!	!	!	!	!	!	!	!	!	!	!
4D/	.	4D/	8dd\L	8dd\L	.	8D\	-cel-	8A\	-san-	8f#\	-cel-	8dd\	-cel-	4f#/	4dd\
.	.	.	8d/J	8d/J	.	8D\	-sis	8A\	-na	8f#\	-sis	8dd\	-sis	.	.
4r	.	4r	8r	8r	.	4r	.	4r	.	4r	.	8r	.	4ra	4r
.	.	.	8d/	8d/	.	.	.	.	.	.	.	8d/	O-	.	.
!	!	!	!	!LO:LB:g=original	!	!	!	!	!	!	!	!	!	!	!LO:LB:g=original
=83	=83	=83	=83	=83	=83	=83	=83	=83	=83	=83	=83	=83	=83	=83	=83
!	!	!LO:TX:a:t=3	!	!	!	!	!	!	!	!	!	!	!	!	!
1r	.	1r	8B/L	8g/L	.	1r	.	1r	.	1r	.	8g\	-ſan-	0r	0r
.	.	.	8A/	8a/	.	.	.	.	.	.	.	8a\	-na	.	.
.	.	.	8G/	8b/	.	.	.	.	.	.	.	8b\	in	.	.
!	!	!	!	!LO:N:acc=-	!	!	!	!	!	!	!	!LO:N:acc=-	!	!	!
.	.	.	8A/J	8ccn/J	.	.	.	.	.	.	.	8ccn\	ex-	.	.
=84	=84	=84	=84	=84	=84	=84	=84	=84	=84	=84	=84	=84	=84	=84	=84
.	.	.	8B/L	8dd\L	.	.	.	.	.	.	.	8dd\L	-cel-	.	.
!	!	!	!	!LO:N:acc=-	!	!	!	!	!	!	!	!LO:N:acc=-	!	!	!
.	.	.	8A/	16ccn\L	.	.	.	.	.	.	.	16ccn\L	.	.	.
.	.	.	.	16dd\JJ	.	.	.	.	.	.	.	16dd\JJ	.	.	.
.	.	.	8G/	8b\L	.	.	.	.	.	.	.	8b\	-sis	.	.
!	!	!	!	!	!	!	!	!	!	!	!	!LO:N:acc=-	!	!	!
.	.	.	8A/J	8cc\J	.	.	.	.	.	.	.	8ccn\	o-	.	.
=85	=85	=85	=85	=85	=85	=85	=85	=85	=85	=85	=85	=85	=85	=85	=85
2r	.	2r	8B/L	8dd\L	.	2r	.	2r	.	2r	.	8dd\	-ſan-	.	.
!	!	!	!	!LO:N:acc=-	!	!	!	!	!	!	!	!LO:N:acc=-	!	!	!
.	.	.	8A/	8ccn\	.	.	.	.	.	.	.	8ccn\	-na	.	.
.	.	.	8G/	8b\	.	.	.	.	.	.	.	8b\	in	.	.
!	!	!	!LO:SIC:v:s=8d/J	!	!	!	!	!	!	!	!	!	!	!	!
.	.	.	8B/J	8a\J	.	.	.	.	.	.	.	8a\	ex-	.	.
!	!	!	!LO:LB:g=original	!	!	!	!	!	!	!	!	!	!	!	!
=86	=86	=86	=86	=86	=86	=86	=86	=86	=86	=86	=86	=86	=86	=86	=86
4r	.	4r	8g/L	8b\L	.	4r	.	4r	.	4r	.	8b\L	-cel-	.	.
.	.	.	8f#/	16a\L	.	.	.	.	.	.	.	16a\L	.	.	.
.	.	.	.	16b\JJ	.	.	.	.	.	.	.	16b\JJ	.	.	.
!	!	!LO:TX:t=P:problem:pusty system	!	!LO:TX:t=P:problem:mixed beam	!	!	!	!	!	!	!	!	!	!	!
8r	.	8r	8B/	8g/L	.	8r	.	8r	.	8r	.	8g\	-sis	.	.
!	!	!LO:LB:g=original	!	!	!	!	!	!	!	!	!	!	!	!	!
=-	=-	=-	=-	=-	=-	=-	=-	=-	=-	=-	=-	=-	=-	=-	=-
*	*	*	*	*	*	*	*	*	*	*	*	*	*ij	*	*
!	!	!	!	!	!	!	!	!	!	!	!	!LO:SIC:v:s=8d/	!	!	!
8D/	.	8D/	8f#/J	8gg\J	.	8D/	o-	8d\	o-	8f#\	o-	8e/	o-	.	.
!	!	!	!	!	!	!LO:LB:g=original	!	!	!	!	!	!LO:LB:g=original	!	!	!
=87	=87	=87	=87	=87	=87	=87	=87	=87	=87	=87	=87	=87	=87	=87	=87
8BB/L	6	8BB/L	8g/L	8dd\L	.	8BB/	-ſan-	8d\	-san-	8d\	-ſan-	8g\	-ſan-	0r	0r
8AA/	-	8AA/	8a/	8ff#\	.	8AA/	-na	8A\	-na	8cn/	-na	8a\	-na	.	.
8GG/	.	8GG/	8b/	8gg\	.	8GG/	in	8d\	in	8B/	in	8b\	in	.	.
!	!	!	!LO:N:acc=-	!	!	!	!	!LO:N:acc=-	!	!	!	!LO:N:acc=-	!	!	!
8AA/J	-	8AA/J	8ccn/J	8ff#\J	.	8AA/	ex-	8cn\	ex-	8f#\	ex-	8ccn\	ex-	.	.
!LO:LB:g=original	!	!	!	!	!	!	!	!	!	!LO:LB:g=original	!	!	!	!	!
=88	=88	=88	=88	=88	=88	=88	=88	=88	=88	=88	=88	=88	=88	=88	=88
8BB/L	6	8BB/L	8dd\L	8gg\L	.	8BB/L	-cel-	8B\	-celsis	4g\	-cel-	8dd\L	-cel-	.	.
!	!	!	!LO:N:acc=-	!	!	!	!	!LO:SIC:v:s=8cn\	!	!	!	!	!	!	!
!	!	!	!	!	!	!	!	!	!	!	!	!LO:SIC:v:s=16ccn\L	!	!	!
8AA/	.	8AA/	8ccn\	16b\L	.	8AA/J	.	8c#\	in	.	.	16cc#\L	.	.	.
!	!	!	!	!LO:SIC:v:s=16ccn\JJ	!	!	!	!	!	!	!	!	!	!	!
.	.	.	.	16cc#\JJ	.	.	.	.	.	.	.	16dd\JJ	.	.	.
8GG/	.	8GG/	8b\	8dd\L	.	8GG/	-sis	8d\	ex-	8g\	-sis	8b\	-sis	.	.
!	!	!	!	!	!	!	!	!LO:N:acc=-	!	!	!	!	!	!	!
8AA/J	.	8AA/J	8cc\J	8ff#\J	.	8AA/	o-	8cn\	-cel-	8f#\	o-	8ccn\	o-	.	.
=89	=89	=89	=89	=89	=89	=89	=89	=89	=89	=89	=89	=89	=89	=89	=89
8BB/L	.	8BB/L	8dd\L	8dd\L	.	8BB/	-ſan-	8B\	-sis	8g\	-ſan-	8dd\	-ſan-	.	.
!	!	!	!LO:N:acc=-	!	!	!	!	!LO:SIC:v:s=8cn\	!	!	!	!	!	!	!
8AA/	.	8AA/	8ccn\	16gg\L	.	8AA/	-na	8c#\	o-	8f#\	-na	8ccn\	-na	.	.
.	.	.	.	16ff#\JJ	.	.	.	.	.	.	.	.	.	.	.
8GG/	.	8GG/	8b\	8gg\L	.	8GG/	in	8d\	-san-	8g\	in	8b\	in	.	.
8D/J	.	8D/J	8a\J	8ff#\J	.	8D\	ex-	8d\	-na	8f#\	ex-	8a\	ex-	.	.
!	!	!	!	!	!	!	!	!LO:LB:g=original	!	!	!	!	!	!	!
=90	=90	=90	=90	=90	=90	=90	=90	=90	=90	=90	=90	=90	=90	=90	=90
!LO:TX:t=P:problem:mixed beam	!	!LO:TX:t=P:problem:mixed beam	!	!	!	!	!	!	!	!	!	!	!	!	!
8G\L	.	8G\L	8b/L	8gg\L	.	8G\L	-cel-	8B\	in	8g\L	-cel-	8b\L	-cel-	.	.
8D\	.	8D\	16a/L	16aa\L	.	8D\J	.	8d\	ex-	8f#\J	.	16a\L	.	.	.
.	.	.	16b/JJ	16gg\JJ	.	.	.	.	.	.	.	16b\JJ	.	.	.
!	!	!	!LO:TX:t=P:problem:mixed beam	!	!	!	!	!	!	!	!	!	!	!	!
8GG/	.	8GG/	8g/L	8gg\L	.	8GG/	-sis	8B\	-cel-	8g\	-sis	8g\	-sis	.	.
8BB/J	6	8BB/J	8dd\J	8dd\J	.	8D/	o-	8B\	-sis	8g\	o-	8dd\	o-	.	.
=91	=91	=91	=91	=91	=91	=91	=91	=91	=91	=91	=91	=91	=91	=91	=91
8Cn/L	.	8Cn/L	16ccn\LL	16ee\LL	.	8Cn/	-ſan-	8A\	in	8g\	-ſan-	8ee\	-ſan-	0r	0r
.	.	.	16cc\	16gg\	.	.	.	.	.	.	.	.	.	.	.
!	!	!	!	!	!	!	!	!LO:N:acc=-	!	!	!	!LO:SIC:v:s=8ccn\	!	!	!
8AA/	.	8AA/	16cc\	16gg\	.	8AA/	-na	8cn\	ex-	8a\	-na	8cc#\	-na	.	.
.	.	.	16cc\JJ	16gg\JJ	.	.	.	.	.	.	.	.	.	.	.
8D/	4	8D/	16a\LL	16ff#\LL	.	8D\	in	8A\	-cel-	8f#\	in	16dd\LL	in	.	.
!	!	!	!	!	!	!	!	!	!	!	!	!LO:SIC:v:s=16ccn\JJ	!	!	!
.	.	.	16ff#\	16aa\	.	.	.	.	.	.	.	16cc#\JJ	.	.	.
8DD/J	3	8DD/J	16ff#\	16aa\	.	8D\	ex-	8d\	-sis	8f#\	ex-	8a\	ex-	.	.
.	.	.	16ff#\JJ	16aa\JJ	.	.	.	.	.	.	.	.	.	.	.
=92	=92	=92	=92	=92	=92	=92	=92	=92	=92	=92	=92	=92	=92	=92	=92
!	!	!	!LO:TX:t=P:problem:mixed beam	!LO:TX:t=P:problem:mixed beam	!	!	!	!	!	!	!	!	!	!	!
4GG/	.	4GG/	8gg\L	8gg\L	.	8G\	-cel-	8d\	.	8g\	-cel-	8b\	-cel-	.	.
.	.	.	8g/J	8g/J	.	8G\	-sis	8d\	.	8g\	-sis	8b\	-sis	.	.
*	*	*	*	*	*	*	*	*	*	*	*	*	*Xij	*	*
4rBB	.	4rBB	8r	8r	.	4r	.	4r	.	4r	.	8r	.	.	.
.	.	.	8e/	8e/	.	.	.	.	.	.	.	8e/	O-	.	.
=93	=93	=93	=93	=93	=93	=93	=93	=93	=93	=93	=93	=93	=93	=93	=93
1r	.	1r	8c#X/L	8a/L	.	1r	.	1r	.	1r	.	8a\	-ſan-	.	.
.	.	.	8B/	8b/	.	.	.	.	.	.	.	8b\	-na	.	.
.	.	.	8A/	8cc#X/	.	.	.	.	.	.	.	8cc#X\	in	.	.
.	.	.	8B/J	8dd/J	.	.	.	.	.	.	.	8dd\	ex-	.	.
!	!	!	!	!	!	!	!	!	!	!	!	!LO:LB:g=original	!	!	!
=94	=94	=94	=94	=94	=94	=94	=94	=94	=94	=94	=94	=94	=94	=94	=94
.	.	.	8c#/L	8ee\L	.	.	.	.	.	.	.	8ee\L	-cel-	.	.
.	.	.	8B/	16dd\L	.	.	.	.	.	.	.	16dd\L	.	.	.
.	.	.	.	16ee\JJ	.	.	.	.	.	.	.	16ee\JJ	.	.	.
.	.	.	8A/	8cc#\L	.	.	.	.	.	.	.	8cc#\	-sis	.	.
.	.	.	8B/J	8dd\J	.	.	.	.	.	.	.	8dd\	o-	.	.
=95	=95	=95	=95	=95	=95	=95	=95	=95	=95	=95	=95	=95	=95	=95	=95
2r	.	2r	8c#/L	8ee\L	.	2r	.	2r	.	2r	.	8ee\	-ſan-	0r	0r
.	.	.	8B/	8dd\	.	.	.	.	.	.	.	8dd\	-na	.	.
.	.	.	8A/	8cc#\	.	.	.	.	.	.	.	8cc#\	in	.	.
.	.	.	8e/J	8b\J	.	.	.	.	.	.	.	8b\	ex-	.	.
=96	=96	=96	=96	=96	=96	=96	=96	=96	=96	=96	=96	=96	=96	=96	=96
4r	.	4r	8a/L	8cc#\L	.	4r	.	4r	.	4r	.	8cc#\L	-cel-	.	.
.	.	.	8e/	16b\L	.	.	.	.	.	.	.	16b\L	.	.	.
.	.	.	.	16cc#\JJ	.	.	.	.	.	.	.	16cc#\JJ	.	.	.
8r	.	8r	8c#/	8a\L	.	8r	.	8r	.	8r	.	8a\	-sis	.	.
*	*	*	*	*	*	*	*	*	*	*	*	*	*ij	*	*
8E\	#	8E\	8e/J	8gg#X\J	.	8E\	o-	8B\	o-	8g#X\	o-	8e/	o-	.	.
!	!	!	!	!LO:LB:g=original	!	!	!	!	!	!	!	!	!	!	!
=97	=97	=97	=97	=97	=97	=97	=97	=97	=97	=97	=97	=97	=97	=97	=97
8C#X/L	6	8C#/L	8a\L	8ee\L	.	8C#X/	-ſan-	8A\	-ſan-	8e\	-ſan-	8a\	-ſan-	.	.
8BB/	6\	8BB/	8b\	8gg#X\	.	8BB/	-na	16f#\LL	-na	8d\	-na	8b\	-na	.	.
.	.	.	.	.	.	.	.	16B\JJ	.	.	.	.	.	.	.
8AA/	.	8AA/	8cc#X\	8aa\	.	8AA/	in	8c#X\	in	8c#\	in	8cc#X\	in	.	.
8BB/J	.	8BB/J	8dd\J	8gg#\J	.	8BB/	ex-	8B\	ex-	8g#X\	ex-	8dd\	ex-	.	.
!	!	!	!	!	!	!LO:LB:g=original	!	!	!	!	!	!	!	!	!
=98	=98	=98	=98	=98	=98	=98	=98	=98	=98	=98	=98	=98	=98	=98	=98
8C#/L	.	8C#/L	8ee\L	8aa\L	.	8C#/L	-cel-	8A\L	-cel-	4a\	-cel-	8ee\L	-cel-	.	.
8BB/	.	8BB/	8dd\	16cc#\L	.	8BB/J	.	8B\J	.	.	.	16dd\L	.	.	.
.	.	.	.	16dd\JJ	.	.	.	.	.	.	.	16ee\JJ	.	.	.
8AA/	.	8AA/	8cc#\	8ee\L	.	8AA/	-sis	8c#\	-sis	8a\	-sis	8cc#\	-sis	.	.
8BB/J	.	8BB/J	8dd\J	8gg#X\J	.	8BB/	o-	8B\	o-	8g#X\	o-	8dd\	o-	.	.
!	!	!	!	!	!	!	!	!LO:LB:g=original	!	!	!	!	!	!	!
=99	=99	=99	=99	=99	=99	=99	=99	=99	=99	=99	=99	=99	=99	=99	=99
!	!	!	!	!	!	!	!	!LO:TX:t=P:problem:defekt źródła [przyjęto zgodnie z t. 98]	!	!	!	!	!	!	!
8C#/L	.	8C#/L	8ee\L	8ee\L	.	8C#/	-ſan-	8A\Lyy	-san-	8a\	-ſan-	8ee\	-ſan-	1r	1r
!	!	!	!	!	!	!	!	!	!	!LO:LB:g=original	!	!	!	!	!
=-	=-	=-	=-	=-	=-	=-	=-	=-	=-	=-	=-	=-	=-	=-	=-
8BB/	.	8BB/	8dd\	16aa\L	.	8BB/	-na	8B\J	-na	8g#X\	-na	8dd\	-na	.	.
!	!	!	!	!LO:SIC:v:s=16gg#\JJ	!	!	!	!	!	!	!	!	!	!	!
.	.	.	.	16gg\JJ	.	.	.	.	.	.	.	.	.	.	.
8AA/	.	8AA/	8cc#\	8aa\L	.	8AA/	in	8c#\	.	8a\	in	8cc#\	in	.	.
8E/J	#	8E/J	8b\J	8gg#X\J	.	8E\	ex-	8B\	o-	8g#X\	ex-	8b\	ex-	.	.
!	!	!LO:LB:g=original	!LO:LB:g=original	!	!	!	!	!	!	!	!	!	!	!	!
=100	=100	=100	=100	=100	=100	=100	=100	=100	=100	=100	=100	=100	=100	=100	=100
!LO:TX:t=P:problem:mixed beam	!	!	!	!	!	!	!	!	!	!	!	!	!	!	!
8A\L	.	8A\L	8cc#\L	8aa\L	.	(8A\L	-cel-	8d\L	-ſan-	8a\L	-cel-	8cc#\L	-cel-	.	.
!	!	!	!	!	!	!	!	!	!	!LO:SIC:v:s=8g#\J	!	!	!	!	!
8E\	.	8E\	16b\L	16bb\L	.	8E\J)	.	8e\J	.	8g\J	.	16b\L	.	.	.
.	.	.	16cc#\JJ	16gg#X\JJ	.	.	.	.	.	.	.	16cc#\JJ	.	.	.
8AA/	.	8C#\	8a\L	8aa\L	.	8AA/	-sis	8c#\	-na	8a\	-sis	8a\	-sis	.	.
*	*	*	*	*	*	*	*	*	*	*	*	*	*Xij	*	*
8C#/J	6	8AA\J	8ee\J	8ee\J	.	8E\	o-	8B\	o-	8a\	o-	8ee\	O-	.	.
=101	=101	=101	=101	=101	=101	=101	=101	=101	=101	=101	=101	=101	=101	=101	=101
!LO:TX:t=P:problem:mixed beam	!	!LO:TX:t=P:problem:mixed beam	!	!	!	!	!	!	!	!	!	!	!	!	!
8D\L	6	8D\L	16dd\LL	16ff#\LL	.	8D/	-ſan-	8B\	-ſan-	8a\	-ſan-	8dd\	-ſan-	2r	2r
.	.	.	16dd\	16aa\	.	.	.	.	.	.	.	.	.	.	.
8BB\	.	8BB\	16dd\	16aa\	.	8BB/	-na	16B\LL	-na	8b\	-na	8dd\	-na	.	.
.	.	.	16dd\JJ	16aa\JJ	.	.	.	16A\JJ	.	.	.	.	.	.	.
8E\	4	8E\	16b\LL	16gg#X\LL	.	8E\	in	8G#X/	in	8g#X\	in	(16dd\LL	in	.	.
.	.	.	16gg#X\	16bb\	.	.	.	.	.	.	.	16cc#\JJ)	.	.	.
8EE/J	3	8EE/J	16gg#\	16bb\	.	8E\	ex-	8B/	ex-	8g#\	ex-	(16dd\LL	ex-	.	.
.	.	.	16gg#\JJ	16bb\JJ	.	.	.	.	.	.	.	16b\JJ)	.	.	.
!	!	!	!	!	!	!	!	!	!	!	!	!LO:LB:g=original	!	!	!
=102	=102	=102	=102	=102	=102	=102	=102	=102	=102	=102	=102	=102	=102	=102	=102
!	!	!	!LO:TX:t=P:problem:mixed beam	!LO:TX:t=P:problem:mixed beam	!	!	!	!	!	!	!	!	!	!	!
4AA/	.	4AA/	8aa\L	8aa\L	.	8AA/	-cel-	8c#\	-cel-	8a\	-cel-	8cc#\	-cel-	4r	4r
.	.	.	8a/J	8a/J	.	8AA/	-sis	8c#\	-sis	8a\	-sis	8cc#\	-sis	.	.
8rBB	.	8rBB	8r	8r	.	8r	.	8r	.	8r	.	8r	.	8r	8r
8AA#X/	6	8AA#X/	8cc#\	8ff#\	.	8AA#X/	o-	8c#\	o-	8f#\	o-	8cc#\	O-	8f#/	8f#/
!LO:LB:g=original	!	!	!	!	!	!	!	!	!	!	!	!	!	!	!
=103	=103	=103	=103	=103	=103	=103	=103	=103	=103	=103	=103	=103	=103	=103	=103
!LO:TX:t=P:problem:mixed beam	!	!LO:TX:t=P:problem:mixed beam	!LO:TX:t=P:problem:mixed beam	!	!	!	!	!	!	!	!	!	!	!	!
8BB/L	.	8BB/L	8b\L	16dd\LL	.	8BB/	-ſan-	8B\	-ſan-	8f#\	-ſan-	8dd\	-ſan-	8f#/L	8f#/L
.	.	.	.	16cc#\	.	.	.	.	.	.	.	.	.	.	.
8B\	.	8B\	8b\	16dd\	.	8BB/	-na	16d\LL	-na	8f#\	-na	8dd\	-na	8f#/	8f#/
.	.	.	.	16b\JJ	.	.	.	16B\JJ	.	.	.	.	.	.	.
!	!	!	!	!LO:TX:t=P:problem:mixed beam	!	!	!	!	!	!	!	!	!	!	!
8A#X\	6	8A#X\	8cc#\	8cc#\L	.	8AA#X/	in	8c#\	in_ex-	8f#\	in	8cc#\	in	8f#/	8f#/
8F#\J	.	8F#\J	8f#/J	8f#/J	.	8AA#/	ex-	8A#X\	-cel-	8f#\	ex-	16ff#\LL	ex-	8f#/J	8f#/J
.	.	.	.	.	.	.	.	.	.	.	.	16cc#\JJ	.	.	.
!	!	!	!	!	!	!	!	!	!	!	!	!	!	!LO:LB:g=original	!
=104	=104	=104	=104	=104	=104	=104	=104	=104	=104	=104	=104	=104	=104	=104	=104
!LO:TX:t=P:problem:mixed beam	!	!LO:TX:t=P:problem:mixed beam	!LO:TX:t=P:problem:mixed beam	!LO:TX:t=P:problem:mixed beam	!	!	!	!	!	!	!	!	!	!	!
8B\L	.	8B\L	8d/L	8d/L	.	16BB/LL	-cel-	8F#/L	-sis	4f#\	-cel-	8dd\	-cel-	4f#/	4f#/
.	.	.	.	.	.	16C#/	.	.	.	.	.	.	.	.	.
8BB/	.	8BB/	8B/	8B/	.	16D/	.	8B/J	o-	.	.	8dd\	-sis	.	.
.	.	.	.	.	.	16E/JJ	.	.	.	.	.	.	.	.	.
8D/	.	8BB/	8f#/	8f#/	.	8F#\	-sis	8B/	-san-	8f#\	-sis	8dd\	in	8r	8r
8AA#X/J	6	8AA#X/J	8ff#\J	8ff#\J	.	8A#X\	o-	8B/	-na	8f#\	o-	8cc#\	ex-	8f#/	8f#/
!	!	!	!	!	!	!	!	!LO:LB:g=original	!	!	!	!	!	!	!
=105	=105	=105	=105	=105	=105	=105	=105	=105	=105	=105	=105	=105	=105	=105	=105
8BB/L	.	8BB/L	16dd\LL	16dd\LL	.	8B\	-ſan-	8B\	-cel-	8f#\	-ſan-	8dd\	-cel-	8f#/L	8f#/L
.	.	.	16cc#\	16cc#\	.	.	.	.	.	.	.	.	.	.	.
!LO:TX:t=P:problem:mixed beam	!	!LO:TX:t=P:problem:mixed beam	!	!	!	!	!	!	!	!	!	!	!	!	!
8B\	.	8B\	16dd\	16dd\	.	8B\	-na	8B\	-sis	8f#\	-na	8dd\	.	8f#/	8f#/
.	.	.	16b\JJ	16b\JJ	.	.	.	.	.	.	.	.	.	.	.
!	!	!	!	!	!	!LO:LB:g=original	!	!	!	!	!	!	!	!	!
=-	=-	=-	=-	=-	=-	=-	=-	=-	=-	=-	=-	=-	=-	=-	=-
!	!	!	!LO:TX:t=P:problem:mixed beam	!LO:TX:t=P:problem:mixed beam	!	!	!	!	!	!	!	!	!	!	!
8A#X\	6	8A#X\	8cc#\L	8cc#\L	.	8A#X\	in	8c#\	o-	8f#\	in	8cc#\	-sis	8f#/	8f#/
8F#\J	.	8F#\J	8f#/J	8f#/J	.	8A#\	ex-	16A#X\LL	-san-	8f#\	ex-	(16ff#\LL	o-	8f#/J	8f#/J
.	.	.	.	.	.	.	.	16c#\JJ	.	.	.	16cc#\JJ)	.	.	.
=106	=106	=106	=106	=106	=106	=106	=106	=106	=106	=106	=106	=106	=106	=106	=106
!LO:TX:t=P:problem:mixed beam	!	!LO:TX:t=P:problem:mixed beam	!LO:TX:t=P:problem:mixed beam	!LO:TX:t=P:problem:mixed beam	!	!	!	!	!	!	!	!	!	!	!
8B\L	.	8B\L	8d/L	8d/L	.	8B\L	-cel-	4B\	-na	4f#\	-cel-	4dd\	-ſan-	8f#/L	4f#/
8BB/	.	8BB/	8B/	8B/	.	8F#\J	.	.	.	.	.	.	.	16f#/L	.
.	.	.	.	.	.	.	.	.	.	.	.	.	.	16f#/JJ	.
8D/	6	8D/	8f#/	8f#/	.	8BB/	-sis	8B\	o-	8f#\	-sis	8dd\	-na	16f#/LL	8r
.	.	.	.	.	.	.	.	.	.	.	.	.	.	16f#/	.
8C#/J	65	8C#/J	8aa\J	8aa\J	.	8C#/	o-	8B\	-ſan-	8a\	o-	8ee\	o-	16f#/	8a/
.	.	.	.	.	.	.	.	.	.	.	.	.	.	16f#/JJ	.
=107	=107	=107	=107	=107	=107	=107	=107	=107	=107	=107	=107	=107	=107	=107	=107
8BB/L	.	8BB/L	16ff#\LL	16ff#\LL	.	8D/	-ſan-	8A\	-na	8a\	-ſan-	8ff#\	-ſan-	8f#/L	8a/L
.	.	.	16ee\	16ee\	.	.	.	.	.	.	.	.	.	.	.
*	*	*	*	*	*	*	*	*	*ij	*	*	*	*	*	*
!LO:TX:t=P:problem:mixed beam	!	!LO:TX:t=P:problem:mixed beam	!	!	!	!	!	!	!	!	!	!	!	!	!
8d\	.	8d\	16ff#\	16ff#\	.	8D/	-na	8A\	o-	8a\	-na	8ff#\	-na	8a/	8a/
.	.	.	16dd\JJ	16dd\JJ	.	.	.	.	.	.	.	.	.	.	.
!	!	!	!	!	!	!	!	!	!	!LO:LB:g=original	!	!	!	!	!
=-	=-	=-	=-	=-	=-	=-	=-	=-	=-	=-	=-	=-	=-	=-	=-
!	!	!	!LO:TX:t=P:problem:mixed beam	!	!	!	!	!	!	!	!	!	!	!	!
8c#\	6	8c#\	8ee\L	8ee\L	.	8C#/	in	8c#\	-ſan-	8a\	in	8ee\	in	8a/	8a/
8A\J	.	8A\J	8a/J	8a\J	.	8C#/	ex-	8e\	-na	8a\	ex-	16aa\LL	ex-	8a/J	8a/J
!	!	!	!	!	!	!	!	!	!	!	!	!LO:SIC:v:s=16ee\JJ	!	!	!
.	.	.	.	.	.	.	.	.	.	.	.	16ff#\JJ	.	.	.
=108	=108	=108	=108	=108	=108	=108	=108	=108	=108	=108	=108	=108	=108	=108	=108
!LO:TX:t=P:problem:mixed beam	!	!	!LO:TX:t=P:problem:mixed beam	!	!	!	!	!	!	!	!	!	!	!	!
8d\L	.	8d\L	8f#/L	8f#/L	.	16D\LL	-cel-	4A\	in	4a\	-cel-	4ff#\	-cel-	8a/L	4a/
.	.	.	.	.	.	16E\	.	.	.	.	.	.	.	.	.
8D/	.	8A\	8d/	8d/J	.	16F#\	.	.	.	.	.	.	.	16a/L	.
.	.	.	.	.	.	16G\JJ	.	.	.	.	.	.	.	16a/JJ	.
!	!	!	!	!LO:TX:t=P:problem:mixed beam	!	!	!	!	!	!	!	!	!	!	!
8c#\	6	8c#\	8f#/	8a/L	.	8A\	-sis	8A\	ex-	8a\	-sis	8ff#\	-sis	16a/LL	8r
.	.	.	.	.	.	.	.	.	.	.	.	.	.	16a/	.
8A\J	.	8A\J	8aa\J	16aa\L	.	8AA/	o-	8e\	-cel-	8a\	o-	8ee\	o-	16a/	8a/
.	.	.	.	16gg\JJ	.	.	.	.	.	.	.	.	.	16a/JJ	.
!	!	!LO:LB:g=original	!	!	!	!	!	!	!	!	!	!	!	!	!
=109	=109	=109	=109	=109	=109	=109	=109	=109	=109	=109	=109	=109	=109	=109	=109
!LO:TX:t=P:problem:mixed beam	!	!	!	!LO:TX:t=P:problem:powtórzenie tt. 107-108 oznaczone znakiem repetycji	!	!	!	!	!	!	!	!	!	!	!
8d\L	.	8BB/L	16ff#\LL	16ff#\LLyy	.	8D/	-ſan-	8d\	-sis	8a\	-ſan-	8ff#\	-ſan-	4a/	8a/L
.	.	.	16ee\	16ee\yy	.	.	.	.	.	.	.	.	.	.	.
!	!	!LO:TX:t=P:problem:mixed beam	!	!	!	!	!	!	!	!	!	!	!	!	!
8D/	.	8d\	16ff#\	16ff#\yy	.	8D/	-na	8d\	o-	8a\	-na	8ff#\	-na	.	8a/
.	.	.	16dd\JJ	16dd\JJyy	.	.	.	.	.	.	.	.	.	.	.
!LO:SIC:v:s=8c#/	!	!	!	!	!	!	!	!	!	!	!	!	!	!	!
8F#/	.	8c#\	8ee\L	8ee\Lyy	.	8C#/	in	8c#\	-ſan-	8a\	in	8ee\	in	8r	8a/
!LO:SIC:v:s=8A/J	!	!	!	!	!	!	!	!	!	!	!	!	!	!	!
8D/J	.	8A\J	8a\J	8a\Jyy	.	8C#/	ex-	8e\	-na	8a\	ex-	16aa\LL	ex-	8a/	8a/J
.	.	.	.	.	.	.	.	.	.	.	.	16ee\JJ	.	.	.
=110	=110	=110	=110	=110	=110	=110	=110	=110	=110	=110	=110	=110	=110	=110	=110
!LO:TX:t=P:problem:brak taktu nr 110	!	!	!	!	!	!	!	!	!	!	!	!	!	!	!
2ryy	.	8d\L	8f#/L	8f#/Lyy	.	8D\	-cel-	4A\	in	4a\	-cel-	4ff#\	-cel-	8a/L	4a/
.	.	8A\	8d/J	8d/Jyy	.	8D\	-sis	.	.	.	.	.	.	8dd/J	.
!	!	!	!LO:TX:t=P:problem:mixed beam	!LO:TX:t=P:problem:mixed beam	!	!	!	!	!	!	!	!	!	!	!
.	.	8c#\	8a/L	8a/Lyy	.	8r	.	8A\	ex-	8a\	-sis	8ff#\	-sis	8r	8r
*	*	*	*	*	*	*	*ij	*	*	*	*ij	*	*	*	*
.	.	8A\J	16aa\L	16aa\Lyy	.	8D\	o-	8A\	-cel-	8f#\	o-	8dd\	o-	8dd\	8ff#\
.	.	.	16gg\JJ	16gg\JJyy	.	.	.	.	.	.	.	.	.	.	.
!	!	!	!	!	!	!	!	!	!	!	!	!LO:LB:g=original	!	!	!
=111	=111	=111	=111	=111	=111	=111	=111	=111	=111	=111	=111	=111	=111	=111	=111
!	!	!	!LO:TX:t=P:problem:mixed beam	!LO:TX:t=P:problem:mixed beam	!	!	!	!	!	!	!	!	!	!	!
4D/	.	4D\	8aa\L	8aa\L	.	8D\	-ſan-	8A\	-sis	8f#\	-ſan-	8dd\	-ſan-	4dd\	4ff#\
*	*	*	*	*	*	*	*	*	*Xij	*	*	*	*	*	*
.	.	.	16a/L	16a/L	.	8D\	-na	8A\	.	8f#\	-na	8dd\	-na	.	.
.	.	.	16b/JJ	16b/JJ	.	.	.	.	.	.	.	.	.	.	.
!	!	!	!	!LO:LB:g=original	!	!	!	!LO:LB:g=original	!	!	!	!	!	!	!
=-	=-	=-	=-	=-	=-	=-	=-	=-	=-	=-	=-	=-	=-	=-	=-
8r	.	8r	16cc#\LL	16cc#\LL	.	8r	.	8r	.	8r	.	8r	.	8r	8r
.	.	.	16dd\	16dd\	.	.	.	.	.	.	.	.	.	.	.
*	*	*	*	*	*	*	*	*	*	*	*	*	*ij	*	*
8D/	.	8D\	16ee\	16ee\	.	8F#\	o-	8A\	o-	8f#\	o-	8dd\	o-	8dd\	8ff#\
.	.	.	16ff#\JJ	16ff#\JJ	.	.	.	.	.	.	.	.	.	.	.
!	!	!	!LO:LB:g=original	!	!	!	!	!	!	!	!	!	!	!	!
=112	=112	=112	=112	=112	=112	=112	=112	=112	=112	=112	=112	=112	=112	=112	=112
!	!	!	!LO:TX:t=P:problem:mixed beam	!LO:TX:t=P:problem:mixed beam	!	!	!	!	!	!	!	!	!	!	!
4E\	-	4E\	8gg\L	8gg\L	.	8E\	-ſan-	8G/	-ſan-	8g\	-ſan-	8dd\	-ſan-	4dd\	4gg\
.	.	.	16g/L	16g/L	.	8E\	-na	8G/	-na	8g\	-na	8dd\	-na	.	.
.	.	.	16a/JJ	16a/JJ	.	.	.	.	.	.	.	.	.	.	.
8r	.	8r	16b\LL	16b\LL	.	8r	.	8r	.	8r	.	8r	.	8r	8r
.	.	.	16cc#\	16cc#\	.	.	.	.	.	.	.	.	.	.	.
*	*	*	*	*	*	*	*	*	*ij	*	*	*	*	*	*
8AA/	.	8AA/	16dd\	16dd\	.	8AA/	o-	8c#\	o-	8g\	o-	8dd\	o-	8a/	8ee\
.	.	.	16ee\JJ	16ee\JJ	.	.	.	.	.	.	.	.	.	.	.
!	!	!	!	!	!	!LO:LB:g=original	!	!	!	!	!	!	!	!	!
=113	=113	=113	=113	=113	=113	=113	=113	=113	=113	=113	=113	=113	=113	=113	=113
!	!	!	!LO:TX:t=P:problem:mixed beam	!LO:TX:t=P:problem:mixed beam	!	!	!	!	!	!	!	!	!	!	!
4D/	.	4D/	8ff#\L	8ff#\L	.	8D/	-ſan-	8A\	-ſan-	8a\	-ſan-	8dd\	-ſan-	4dd\	4ff#\
.	.	.	16f#/L	16f#/L	.	8D/	-na	8A\	-na	8a\	-na	8dd\	-na	.	.
.	.	.	16g/JJ	16g/JJ	.	.	.	.	.	.	.	.	.	.	.
8r	.	8r	16a\LL	16a\LL	.	8r	.	8r	.	8r	.	8r	.	8r	8r
.	.	.	16b\	16b\	.	.	.	.	.	.	.	.	.	.	.
8BB/	.	8BB/	16cc#\	16cc#\	.	8BB/	o-	8B\	o-	8b\	o-	8dd\	o-	8dd\	16gg\LL
.	.	.	16dd\JJ	16dd\JJ	.	.	.	.	.	.	.	.	.	.	16ff#\JJ
=114	=114	=114	=114	=114	=114	=114	=114	=114	=114	=114	=114	=114	=114	=114	=114
!	!	!	!LO:TX:t=P:problem:mixed beam	!LO:TX:t=P:problem:mixed beam	!	!	!	!	!	!	!	!	!	!	!
4C#/	.	4C#/	8ee\L	8ee\L	.	8C#/	-ſan-	8A\	-ſan-	8a\	-ſan-	8ee\	-ſan-	4a/	4ee\
.	.	.	16e/L	16e/L	.	8C#/	-na	8A\	-na	8a\	-na	8ee\	-na	.	.
*	*	*	*	*	*	*	*Xij	*	*	*	*Xij	*	*Xij	*	*
.	.	.	16f#/JJ	16f#/JJ	.	.	.	.	.	.	.	.	.	.	.
8r	.	8r	16g/LL	16g\LL	.	8r	.	8r	.	8r	.	8r	.	8r	8r
.	.	.	16a/	16a\	.	.	.	.	.	.	.	.	.	.	.
8AA/	.	8AA/	16b/	16b\	.	8AA/	o-	8c#\	o-	8e\	o-	8cc#\	O-	8a/	8ee\
.	.	.	16cc#/JJ	16cc#\JJ	.	.	.	.	.	.	.	.	.	.	.
=115	=115	=115	=115	=115	=115	=115	=115	=115	=115	=115	=115	=115	=115	=115	=115
!	!	!	!LO:TX:t=P:problem:mixed beam	!	!	!	!	!	!	!	!	!	!	!	!
16D\LL	.	16D\LL	8dd\L	16dd\LL	.	8D\	-ſan-	8A\	-ſan-	8f#\	-ſan-	8dd\	-ſan-	8dd\L	16ff#\LL
16E\	.	16E\	.	16bb\	.	.	.	.	.	.	.	.	.	.	16gg\
16F#\	.	16F#\	8f#/	16bb\	.	8G\	-na	8B\	-na	16g\LL	-na	8b\	-na	16ee\L	16aa\
16G\JJ	.	16G\JJ	.	16bb\JJ	.	.	.	.	.	16f#\JJ	.	.	.	16dd\JJ	16bb\JJ
!	!	!	!	!	!	!	!	!	!	!	!	!	!	!	!LO:LB:g=original
=-	=-	=-	=-	=-	=-	=-	=-	=-	=-	=-	=-	=-	=-	=-	=-
!LO:TX:t=P:problem:mixed beam	!	!LO:TX:t=P:problem:mixed beam	!	!	!	!LO:TX:t=P:problem:mixed beam	!	!	!	!	!	!	!	!	!
8A\L	.	8A\L	8e/	16aa\LL	.	8A\L	in	8A\	in	8e\	in	8cc#\	in	8.a/L	8.ee\L
.	.	.	.	16gg\	.	.	.	.	.	.	.	.	.	.	.
!	!	!	!	!	!	!	!	!	!	!LO:LB:g=original	!	!	!	!	!
=-	=-	=-	=-	=-	=-	=-	=-	=-	=-	=-	=-	=-	=-	=-	=-
8AA/J	.	8AA/J	8cc#\J	16ff#\	.	8AA/J	ex-	8A\	ex-	8g\	ex-	(16b\LL	ex-	.	.
.	.	.	.	16ee\JJ	.	.	.	.	.	.	.	16cc#\JJ)	.	16a/Jk	16ee\Jk
!LO:LB:g=original	!	!	!	!	!	!	!	!	!	!	!	!	!	!	!
=116	=116	=116	=116	=116	=116	=116	=116	=116	=116	=116	=116	=116	=116	=116	=116
4D/	.	4D\	8dd\L	8ff#\L	.	8D/	-cel-	8A\	-cel-	8f#\	-cel-	8dd\	-cel-	4f#/	4dd\
.	.	.	8ff#\J	8dd\J	.	8D/	-sis	8A\	-sis	8f#\	-sis	8dd\	-sis	.	.
!	!	!	!LO:TX:t=P:problem:mixed beam	!LO:TX:t=P:problem:mixed beam	!	!	!	!	!	!	!	!	!	!	!
8r	.	8r	8a/L	8a/L	.	8r	.	8r	.	8r	.	8r	.	8r	8r
!	!	!	!	!	!	!	!	!	!	!	!	!	!	!LO:LB:g=original	!
=-	=-	=-	=-	=-	=-	=-	=-	=-	=-	=-	=-	=-	=-	=-	=-
*	*	*	*	*	*	*	*ij	*	*	*	*ij	*	*	*	*
8D/	.	8D\	16aa\L	16aa\L	.	8D\	o-	8A\	o-	8f#\	o-	8dd\	O-	8dd\	8ff#\
.	.	.	16gg\JJ	16gg\JJ	.	.	.	.	.	.	.	.	.	.	.
=117	=117	=117	=117	=117	=117	=117	=117	=117	=117	=117	=117	=117	=117	=117	=117
!	!	!	!LO:TX:t=P:problem:mixed beam	!LO:TX:t=P:problem:mixed beam	!	!	!	!	!	!	!	!	!	!	!
4D/	.	4D\	8aa\L	8aa\L	.	8D\	-ſan-	8A\	-ſan-	8f#\	-ſan-	8dd\	-ſan-	4dd\	4ff#\
.	.	.	16a/L	16a/L	.	8D\	-na	8A\	-na	8f#\	-na	8dd\	-na	.	.
.	.	.	16b/JJ	16b/JJ	.	.	.	.	.	.	.	.	.	.	.
8r	.	8r	16cc#\LL	16cc#\LL	.	8r	.	8r	.	8r	.	8r	.	8r	8r
.	.	.	16dd\	16dd\	.	.	.	.	.	.	.	.	.	.	.
*	*	*	*	*	*	*	*	*	*	*	*	*	*ij	*	*
8F#\	6	8D/	16ee\	16ee\	.	8F#\	o-	8A\	o-	8f#\	o-	8cc#\	o-	8dd\	8ff#\
.	.	.	16ff#\JJ	16ff#\JJ	.	.	.	.	.	.	.	.	.	.	.
!	!	!	!	!	!	!	!	!LO:LB:g=original	!	!	!	!	!	!	!
=118	=118	=118	=118	=118	=118	=118	=118	=118	=118	=118	=118	=118	=118	=118	=118
!	!	!	!LO:TX:t=P:problem:mixed beam	!LO:TX:t=P:problem:mixed beam	!	!	!	!	!	!	!	!	!	!	!
4E\	7	4E/	8gg\L	8gg\L	.	8E\	-ſan-	8G/	-ſan-	8g\	-ſan-	8dd\	-ſan-	4dd\	4gg\
.	.	.	16g/L	16g/L	.	8E\	-na	8G/	-na	8g\	-na	8dd\	-na	.	.
.	.	.	16a/JJ	16a/JJ	.	.	.	.	.	.	.	.	.	.	.
8r	.	8r	16b\LL	16b\LL	.	8r	.	8r	.	8r	.	8r	.	8r	8r
.	.	.	16cc#\	16cc#\	.	.	.	.	.	.	.	.	.	.	.
8AA/	.	8AA/	16dd\	16dd\	.	8AA/	o-	8c#\	o-	8e\	o-	8cc#\	o-	8a/	8ee\
.	.	.	16ee\JJ	16ee\JJ	.	.	.	.	.	.	.	.	.	.	.
=119	=119	=119	=119	=119	=119	=119	=119	=119	=119	=119	=119	=119	=119	=119	=119
!	!	!	!LO:TX:t=P:problem:mixed beam	!LO:TX:t=P:problem:mixed beam	!	!	!	!	!	!	!	!	!	!	!
4D/	.	4D/	8ff#\L	8ff#\L	.	8D\	-ſan-	8A\	-ſan-	8f#\	-ſan-	8dd\	-ſan-	4dd\	4ff#\
.	.	.	16f#/L	16f#/L	.	8D\	-na	8A\	-na	8f#\	-na	8dd\	-na	.	.
.	.	.	16g/JJ	16g/JJ	.	.	.	.	.	.	.	.	.	.	.
8r	.	8r	16a\LL	16a\LL	.	8r	.	8r	.	8r	.	8r	.	8r	8r
.	.	.	16b\	16b\	.	.	.	.	.	.	.	.	.	.	.
8BB/	.	8BB/	16cc#\	16cc#\	.	8BB/	o-	8c#\	o-	8b\	o-	8dd\	o-	8dd\	16gg\LL
.	.	.	16dd\JJ	16dd\JJ	.	.	.	.	.	.	.	.	.	.	16ff#\JJ
!	!	!LO:LB:g=original	!	!	!	!	!	!	!	!	!	!	!	!	!
=120	=120	=120	=120	=120	=120	=120	=120	=120	=120	=120	=120	=120	=120	=120	=120
!	!	!	!LO:TX:t=P:problem:mixed beam	!LO:TX:t=P:problem:mixed beam	!	!	!	!	!	!	!	!	!	!	!
4C#/	.	4C#/	8ee\L	8ee\L	.	8C#/	-ſan-	8A\	-ſan-	8a\	-ſan-	8ee\	-ſan-	4a/	4ee\
.	.	.	16e/L	16e/L	.	8C#/	-na	8A\	-na	8a\	-na	8ee\	-na	.	.
*	*	*	*	*	*	*	*Xij	*	*Xij	*	*Xij	*	*Xij	*	*
.	.	.	16f#/JJ	16f#/JJ	.	.	.	.	.	.	.	.	.	.	.
8r	.	8r	16g/LL	16g\LL	.	8r	.	8r	.	8r	.	8r	.	8r	8r
.	.	.	16a/	16a\	.	.	.	.	.	.	.	.	.	.	.
8AA/	.	8AA/	16b/	16b\	.	8AA/	o-	8c#\	o-	8e\	o-	8cc#\	o-	8a/	8ee\
.	.	.	16cc#/JJ	16cc#\JJ	.	.	.	.	.	.	.	.	.	.	.
!	!	!	!	!	!	!LO:LB:g=original	!	!	!	!	!	!	!	!	!
=121	=121	=121	=121	=121	=121	=121	=121	=121	=121	=121	=121	=121	=121	=121	=121
!	!	!	!LO:TX:t=P:problem:mixed beam	!	!	!	!	!	!	!	!	!	!	!	!
16D\LL	.	16D\LL	8dd\L	16dd\LL	.	8D\	-ſan-	8A\	-ſan-	8f#\	-ſan-	8dd\	-ſan-	8dd\L	16ff#\LL
16E\	.	16E\	.	16bb\	.	.	.	.	.	.	.	.	.	.	16gg\
16F#\	.	16F#\	8f#/	16bb\	.	8G\	-na	8B\	-na	16g\LL	-na	8b\	-na	16ee\L	16aa\
16G\JJ	.	16G\JJ	.	16bb\JJ	.	.	.	.	.	16f#\JJ	.	.	.	16dd\JJ	16bb\JJ
!LO:TX:t=P:problem:mixed beam	!	!LO:TX:t=P:problem:mixed beam	!	!	!	!	!	!	!	!	!	!	!	!	!
8A\L	.	8A\L	8e/	16aa\LL	.	8A\	in	8A\	in	8e\	in	8cc#\L	in	8.a/L	8.ee\L
.	.	.	.	16gg\	.	.	.	.	.	.	.	.	.	.	.
8AA/J	.	8AA/J	8cc#\J	16ff#\	.	8AA/	ex-	8A\	ex-	8g\	ex-	(16b\L	ex-	.	.
.	.	.	.	16ee\JJ	.	.	.	.	.	.	.	16cc#\JJ)	.	16a/Jk	16ee\Jk
!	!	!	!	!LO:LB:g=original	!	!	!	!	!	!	!	!LO:LB:g=original	!	!	!
=122	=122	=122	=122	=122	=122	=122	=122	=122	=122	=122	=122	=122	=122	=122	=122
!	!	!	!LO:TX:t=P:problem:mixed beam	!LO:TX:t=P:problem:mixed beam	!	!	!	!	!	!	!	!	!	!	!
8D\L	.	4D/	8dd\L	8ff#\L	.	8D\	-cel-	8A\	-cel-	8f#\	-cel-	8dd\	-cel-	8dd\L	8ff#\L
8D\J	.	.	8d/J	8f#/J	.	8D\	-sis	8A\	-sis	8f#\	-sis	8dd\	-sis	8dd\J	8ff#\J
!	!	!	!	!LO:TX:b:t=Volti Subito	!	!	!	!	!	!	!	!	!	!	!
4r	.	4r	4r	4r	.	4r	.	4r	.	4r	.	4r	.	4r	4r
!	!	!	!LO:LB:g=original	!LO:PB:g=original	!	!	!	!LO:LB:g=original	!	!LO:LB:g=original	!	!LO:PB:g=original	!	!	!
=123||	=123||	=123||	=123||	=123||	=123||	=123||	=123||	=123||	=123||	=123||	=123||	=123||	=123||	=123||	=123||
*ok[g#]	*	*	*	*	*	*	*	*	*	*	*	*ok[c#f#]	*	*	*
*k[f#c#g#]	*	*k[f#c#]	*k[f#c#g#]	*k[f#c#g#]	*	*k[f#c#g#]	*	*k[f#c#g#]	*	*k[f#c#g#]	*	*k[f#c#]	*	*k[f#c#g#]	*k[f#c#g#]
*M3/4	*	*M3/4	*M3/4	*M3/4	*	*M3/4	*	*M3/4	*	*M3/4	*	*M3/4	*	*M3/4	*M3/4
!	!	!LO:TX:t=P:problem:na str. 53 fragment Benedictus; wg RISM "Additional unidentified string part (9 x 21 cm) from another mass (Benedictus and the other movement)"	!	!	!	!	!	!	!	!	!	!	!	!	!
!	!	!LO:TX:t=P:problem:przy kluczu błędnie [F# C#]	!	!LO:TX:b:t=Benedictus	!	!	!	!	!	!	!	!	!	!	!
!LO:TX:t=P:problem:przy metrum dopisany G# [w kolejnych systemach przy kluczu F# G# C#]	!	!LO:TX:t=P:problem:brak oznaczenia tempa	!LO:TX:t=P:problem:brak oznaczenia tempa	!	!	!	!	!	!	!	!	!LO:TX:t=P:problem:przy kluczu błędnie [cc# f#]	!	!	!
!LO:TX:b:t=Benedictus	!	!LO:TX:a:i:t=ſolo	!LO:TX:b:t=Benedictus	!LO:TX:t=P:problem:brak oznaczenia tempa	!	!	!	!	!	!	!	!LO:TX:a:t=ſolo.	!	!	!
!LO:TX:a:B:i:t=Adagio	!	!LO:TX:b:t=Benedyctus	!LO:TX:a:i:t=ſolo	!LO:TX:a:i:t=ſolo	!	!LO:TX:a:B:t=Benedictus\nTacet.	!	!LO:TX:t=P:problem:brak informacji o części "Benedictus"	!	!LO:TX:a:B:t=Benedictus\nTaceti	!	!LO:TX:a:B:t=Adagio	!	!LO:TX:a:B:t=Benedictus\nTacet	!LO:TX:a:B:t=Benedictus\nTacet
4AA/	.	4AA/	1.r	4r	.	2.ryy	.	2.ryy	.	2.ryy	.	0.r	.	2.ryy	2.ryy
4C#/	.	4C#/	.	4e/	.	.	.	.	.	.	.	.	.	.	.
4D/	.	4D/	.	8a/L	.	.	.	.	.	.	.	.	.	.	.
.	.	.	.	8b/J	.	.	.	.	.	.	.	.	.	.	.
=124	=124	=124	=124	=124	=124	=124	=124	=124	=124	=124	=124	=124	=124	=124	=124
!LO:TX:a:i:t=ſolo	!	!	!	!	!	!	!	!	!	!	!	!	!	!	!
4E\	.	4E\	.	4.g#/	.	2.ryy	.	2.ryy	.	2.ryy	.	.	.	2.ryy	2.ryy
4D\	.	4D\	.	.	.	.	.	.	.	.	.	.	.	.	.
.	.	.	.	8g#/	.	.	.	.	.	.	.	.	.	.	.
4C#/	.	4C#/	.	4a/	.	.	.	.	.	.	.	.	.	.	.
=125	=125	=125	=125	=125	=125	=125	=125	=125	=125	=125	=125	=125	=125	=125	=125
*	*	*	*	*Xtuplet	*	*	*	*	*	*	*	*	*	*	*
!	!	!	!	!LO:TUP:problem:klamra łukowa:global	!	!	!	!	!	!	!	!	!	!	!
4BB/	.	4BB/	2.r	12b\L	.	2.ryy	.	2.ryy	.	2.ryy	.	.	.	2.ryy	2.ryy
.	.	.	.	12cc#\	.	.	.	.	.	.	.	.	.	.	.
.	.	.	.	12dd\J	.	.	.	.	.	.	.	.	.	.	.
4r	.	4r	.	12dd\L	.	.	.	.	.	.	.	.	.	.	.
.	.	.	.	12cc#\	.	.	.	.	.	.	.	.	.	.	.
.	.	.	.	12b\J	.	.	.	.	.	.	.	.	.	.	.
8r	.	8r	.	12b/L	.	.	.	.	.	.	.	.	.	.	.
.	.	.	.	12a/	.	.	.	.	.	.	.	.	.	.	.
8E\	.	8E\	.	.	.	.	.	.	.	.	.	.	.	.	.
.	.	.	.	12g#/J	.	.	.	.	.	.	.	.	.	.	.
=126	=126	=126	=126	=126	=126	=126	=126	=126	=126	=126	=126	=126	=126	=126	=126
4AA/	.	4AA/	4r	4a/	.	2.ryy	.	2.ryy	.	2.ryy	.	.	.	2.ryy	2.ryy
4C#/	.	4C#/	4e/	4A/	.	.	.	.	.	.	.	.	.	.	.
4D/	65	4D/	8a/L	4r	.	.	.	.	.	.	.	.	.	.	.
.	.	.	8b/J	.	.	.	.	.	.	.	.	.	.	.	.
=127	=127	=127	=127	=127	=127	=127	=127	=127	=127	=127	=127	=127	=127	=127	=127
4E\	.	4E\	4.g#/	4.B/	.	2.ryy	.	2.ryy	.	2.ryy	.	0.r	.	2.ryy	2.ryy
4D\	.	4D\	.	.	.	.	.	.	.	.	.	.	.	.	.
.	.	.	8g#/	8B/	.	.	.	.	.	.	.	.	.	.	.
4C#/	.	4C#/	4a/	4c#/	.	.	.	.	.	.	.	.	.	.	.
!LO:LB:g=original	!	!	!	!	!	!	!	!	!	!	!	!	!	!	!
=128	=128	=128	=128	=128	=128	=128	=128	=128	=128	=128	=128	=128	=128	=128	=128
*	*	*	*Xtuplet	*	*	*	*	*	*	*	*	*	*	*	*
!	!	!	!LO:TUP:problem:klamra łukowa:global	!LO:TX:t=P:problem:mixed beam	!	!	!	!	!	!	!	!	!	!	!
4BB/	.	4BB/	12b\L	8B/L	.	2.ryy	.	2.ryy	.	2.ryy	.	.	.	2.ryy	2.ryy
.	.	.	12cc#\	.	.	.	.	.	.	.	.	.	.	.	.
.	.	.	.	8b\J	.	.	.	.	.	.	.	.	.	.	.
.	.	.	12dd\J	.	.	.	.	.	.	.	.	.	.	.	.
4r	.	4r	12dd\L	8g#/L	.	.	.	.	.	.	.	.	.	.	.
.	.	.	12cc#\	.	.	.	.	.	.	.	.	.	.	.	.
.	.	.	.	8e/	.	.	.	.	.	.	.	.	.	.	.
.	.	.	12b\J	.	.	.	.	.	.	.	.	.	.	.	.
4E\	.	4E\	12b\L	8g#/	.	.	.	.	.	.	.	.	.	.	.
.	.	.	12a\	.	.	.	.	.	.	.	.	.	.	.	.
.	.	.	.	8b/J	.	.	.	.	.	.	.	.	.	.	.
.	.	.	12g#\J	.	.	.	.	.	.	.	.	.	.	.	.
=129	=129	=129	=129	=129	=129	=129	=129	=129	=129	=129	=129	=129	=129	=129	=129
4AA/	.	4AA/	4a/	8cc#/L	.	2.ryy	.	2.ryy	.	2.ryy	.	.	.	2.ryy	2.ryy
.	.	.	.	16e/L	.	.	.	.	.	.	.	.	.	.	.
.	.	.	.	16f#/JJ	.	.	.	.	.	.	.	.	.	.	.
4r	.	4r	4e/	16g#/LL	.	.	.	.	.	.	.	.	.	.	.
.	.	.	.	16a/	.	.	.	.	.	.	.	.	.	.	.
.	.	.	.	16b/	.	.	.	.	.	.	.	.	.	.	.
.	.	.	.	16cc#/JJ	.	.	.	.	.	.	.	.	.	.	.
4r	.	4r	4e/	8dd\L	.	.	.	.	.	.	.	.	.	.	.
.	.	.	.	8b\J	.	.	.	.	.	.	.	.	.	.	.
!	!	!LO:LB:g=original	!	!	!	!	!	!	!	!	!	!	!	!	!
=130	=130	=130	=130	=130	=130	=130	=130	=130	=130	=130	=130	=130	=130	=130	=130
0.r	.	0.r	8a/L	8cc#\L	.	2.ryy	.	2.ryy	.	2.ryy	.	.	.	2.ryy	2.ryy
.	.	.	8g#/	8b\	.	.	.	.	.	.	.	.	.	.	.
.	.	.	8g#/	8b\	.	.	.	.	.	.	.	.	.	.	.
.	.	.	8g#/	8b\	.	.	.	.	.	.	.	.	.	.	.
.	.	.	8g#/	8b\	.	.	.	.	.	.	.	.	.	.	.
.	.	.	8a/J	8cc#\J	.	.	.	.	.	.	.	.	.	.	.
=131	=131	=131	=131	=131	=131	=131	=131	=131	=131	=131	=131	=131	=131	=131	=131
.	.	.	8b/L	(8dd\L	.	2.ryy	.	2.ryy	.	2.ryy	.	0.r	.	2.ryy	2.ryy
.	.	.	8a/	8cc#\)	.	.	.	.	.	.	.	.	.	.	.
.	.	.	8a/	(8cc#\	.	.	.	.	.	.	.	.	.	.	.
.	.	.	8g#/J	8b\J)	.	.	.	.	.	.	.	.	.	.	.
.	.	.	4g#/	4b\	.	.	.	.	.	.	.	.	.	.	.
=132	=132	=132	=132	=132	=132	=132	=132	=132	=132	=132	=132	=132	=132	=132	=132
.	.	.	8a/L	(8cc#\L	.	2.ryy	.	2.ryy	.	2.ryy	.	.	.	2.ryy	2.ryy
.	.	.	8g#/	8b\)	.	.	.	.	.	.	.	.	.	.	.
!	!	!	!	!LO:TX:t=P:problem:przyjęto łuk zamiast ligatury	!	!	!	!	!	!	!	!	!	!	!
.	.	.	8g#/	(8b\	.	.	.	.	.	.	.	.	.	.	.
.	.	.	8g#/	8b\)	.	.	.	.	.	.	.	.	.	.	.
.	.	.	8g#/	(8b\	.	.	.	.	.	.	.	.	.	.	.
.	.	.	8a/J	8cc#\J)	.	.	.	.	.	.	.	.	.	.	.
=133	=133	=133	=133	=133	=133	=133	=133	=133	=133	=133	=133	=133	=133	=133	=133
.	.	.	8b/L	(8dd\L	.	2.ryy	.	2.ryy	.	2.ryy	.	.	.	2.ryy	2.ryy
.	.	.	8a/	8cc#\)	.	.	.	.	.	.	.	.	.	.	.
.	.	.	8a/	(8cc#\	.	.	.	.	.	.	.	.	.	.	.
.	.	.	8g#/J	8b\J)	.	.	.	.	.	.	.	.	.	.	.
.	.	.	4g#/	4b\	.	.	.	.	.	.	.	.	.	.	.
!	!	!	!	!LO:LB:g=original	!	!	!	!	!	!	!	!	!	!	!
=134	=134	=134	=134	=134	=134	=134	=134	=134	=134	=134	=134	=134	=134	=134	=134
0.r	.	0.r	4a\	8cc#\L	.	2.ryy	.	2.ryy	.	2.ryy	.	.	.	2.ryy	2.ryy
.	.	.	.	16a\L	.	.	.	.	.	.	.	.	.	.	.
.	.	.	.	16b\JJ	.	.	.	.	.	.	.	.	.	.	.
.	.	.	4cc#\	16cc#\LL	.	.	.	.	.	.	.	.	.	.	.
.	.	.	.	16dd\	.	.	.	.	.	.	.	.	.	.	.
.	.	.	.	16ee\	.	.	.	.	.	.	.	.	.	.	.
.	.	.	.	16ff#\JJ	.	.	.	.	.	.	.	.	.	.	.
.	.	.	4ee\	8ggn\L	.	.	.	.	.	.	.	.	.	.	.
.	.	.	.	8ee\J	.	.	.	.	.	.	.	.	.	.	.
=135	=135	=135	=135	=135	=135	=135	=135	=135	=135	=135	=135	=135	=135	=135	=135
.	.	.	8dd\L	8ff#\L	.	2.ryy	.	2.ryy	.	2.ryy	.	0.r	.	2.ryy	2.ryy
.	.	.	8cc#\	8ee\	.	.	.	.	.	.	.	.	.	.	.
.	.	.	8cc#\	8ee\	.	.	.	.	.	.	.	.	.	.	.
.	.	.	8cc#\	8ee\	.	.	.	.	.	.	.	.	.	.	.
.	.	.	8cc#\	8ee\	.	.	.	.	.	.	.	.	.	.	.
.	.	.	8dd\J	8ff#\J	.	.	.	.	.	.	.	.	.	.	.
=136	=136	=136	=136	=136	=136	=136	=136	=136	=136	=136	=136	=136	=136	=136	=136
.	.	.	8ee\L	(8ggn\L	.	2.ryy	.	2.ryy	.	2.ryy	.	.	.	2.ryy	2.ryy
.	.	.	8dd\	8ff#\)	.	.	.	.	.	.	.	.	.	.	.
.	.	.	8dd\	(8ff#\	.	.	.	.	.	.	.	.	.	.	.
.	.	.	8cc#\J	8ee\J)	.	.	.	.	.	.	.	.	.	.	.
.	.	.	4cc#\	4ee\	.	.	.	.	.	.	.	.	.	.	.
!	!	!	!LO:LB:g=original	!	!	!	!	!	!	!	!	!	!	!	!
=137	=137	=137	=137	=137	=137	=137	=137	=137	=137	=137	=137	=137	=137	=137	=137
!	!	!	!LO:TX:t=P:problem:kolejność znaków ff# g# cc#	!	!	!	!	!	!	!	!	!	!	!	!
.	.	.	8dd\L	8ff#\L	.	2.ryy	.	2.ryy	.	2.ryy	.	.	.	2.ryy	2.ryy
.	.	.	8cc#\	8ee\	.	.	.	.	.	.	.	.	.	.	.
.	.	.	8cc#\	8ee\	.	.	.	.	.	.	.	.	.	.	.
.	.	.	8cc#\	8ee\	.	.	.	.	.	.	.	.	.	.	.
.	.	.	8cc#\	8ee\	.	.	.	.	.	.	.	.	.	.	.
.	.	.	8dd\J	8ff#\J	.	.	.	.	.	.	.	.	.	.	.
=138	=138	=138	=138	=138	=138	=138	=138	=138	=138	=138	=138	=138	=138	=138	=138
0.r	.	0.r	8ee\L	(8ggn\L	.	2.ryy	.	2.ryy	.	2.ryy	.	.	.	2.ryy	2.ryy
.	.	.	8dd\	8ff#\)	.	.	.	.	.	.	.	.	.	.	.
.	.	.	8dd\	(8ff#\	.	.	.	.	.	.	.	.	.	.	.
.	.	.	8cc#\J	8ee\J)	.	.	.	.	.	.	.	.	.	.	.
.	.	.	4cc#\	4ee\	.	.	.	.	.	.	.	.	.	.	.
=139	=139	=139	=139	=139	=139	=139	=139	=139	=139	=139	=139	=139	=139	=139	=139
.	.	.	4b\	8ff#\L	.	2.ryy	.	2.ryy	.	2.ryy	.	0.r	.	2.ryy	2.ryy
.	.	.	.	16b\L	.	.	.	.	.	.	.	.	.	.	.
.	.	.	.	16cc#\JJ	.	.	.	.	.	.	.	.	.	.	.
.	.	.	4dd#X\	16dd#X\LL	.	.	.	.	.	.	.	.	.	.	.
.	.	.	.	16ee\	.	.	.	.	.	.	.	.	.	.	.
.	.	.	.	16ff#\	.	.	.	.	.	.	.	.	.	.	.
.	.	.	.	16gg#X\JJ	.	.	.	.	.	.	.	.	.	.	.
.	.	.	4ff#\	8aa\L	.	.	.	.	.	.	.	.	.	.	.
.	.	.	.	8ff#\J	.	.	.	.	.	.	.	.	.	.	.
=140	=140	=140	=140	=140	=140	=140	=140	=140	=140	=140	=140	=140	=140	=140	=140
.	.	.	8ee\L	8gg#\L	.	2.ryy	.	2.ryy	.	2.ryy	.	.	.	2.ryy	2.ryy
.	.	.	8dd#X\	8ff#\	.	.	.	.	.	.	.	.	.	.	.
.	.	.	8dd#\	8ff#\	.	.	.	.	.	.	.	.	.	.	.
.	.	.	8dd#\	8ff#\	.	.	.	.	.	.	.	.	.	.	.
.	.	.	8dd#\	8ff#\	.	.	.	.	.	.	.	.	.	.	.
.	.	.	8ee\J	8gg#\J	.	.	.	.	.	.	.	.	.	.	.
=141	=141	=141	=141	=141	=141	=141	=141	=141	=141	=141	=141	=141	=141	=141	=141
.	.	.	8ff#\L	(8aa\L	.	2.ryy	.	2.ryy	.	2.ryy	.	.	.	2.ryy	2.ryy
.	.	.	8ee\	8gg#\)	.	.	.	.	.	.	.	.	.	.	.
.	.	.	8ee\	(8gg#\	.	.	.	.	.	.	.	.	.	.	.
!	!	!	!LO:SIC:v:s=8dd#\J	!	!	!	!	!	!	!	!	!	!	!	!
.	.	.	8dd\J	8ff#\J)	.	.	.	.	.	.	.	.	.	.	.
!	!	!	!LO:SIC:v:s=4dd#\	!	!	!	!	!	!	!	!	!	!	!	!
.	.	.	4dd\	4ff#\	.	.	.	.	.	.	.	.	.	.	.
=142	=142	=142	=142	=142	=142	=142	=142	=142	=142	=142	=142	=142	=142	=142	=142
0.r	.	0.r	8ee\L	8gg#\L	.	2.ryy	.	2.ryy	.	2.ryy	.	.	.	2.ryy	2.ryy
.	.	.	8dd#X\	8ff#\	.	.	.	.	.	.	.	.	.	.	.
.	.	.	8dd#\	8ff#\	.	.	.	.	.	.	.	.	.	.	.
.	.	.	8dd#\	8ff#\	.	.	.	.	.	.	.	.	.	.	.
.	.	.	8dd#\	8ff#\	.	.	.	.	.	.	.	.	.	.	.
.	.	.	8ee\J	8gg#\J	.	.	.	.	.	.	.	.	.	.	.
=143	=143	=143	=143	=143	=143	=143	=143	=143	=143	=143	=143	=143	=143	=143	=143
.	.	.	8ff#\L	8aa\L	.	2.ryy	.	2.ryy	.	2.ryy	.	0.r	.	2.ryy	2.ryy
.	.	.	8ee\	8gg#\	.	.	.	.	.	.	.	.	.	.	.
.	.	.	8ee\	8gg#\	.	.	.	.	.	.	.	.	.	.	.
!	!	!	!LO:SIC:v:s=8dd#\J	!	!	!	!	!	!	!	!	!	!	!	!
.	.	.	8dd\J	8ff#\	.	.	.	.	.	.	.	.	.	.	.
!	!	!	!LO:SIC:v:s=4dd#\	!	!	!	!	!	!	!	!	!	!	!	!
.	.	.	4dd\	8ff#\	.	.	.	.	.	.	.	.	.	.	.
.	.	.	.	8bb\J	.	.	.	.	.	.	.	.	.	.	.
=144	=144	=144	=144	=144	=144	=144	=144	=144	=144	=144	=144	=144	=144	=144	=144
.	.	.	4ee\	8aa\L	.	2.ryy	.	2.ryy	.	2.ryy	.	.	.	2.ryy	2.ryy
.	.	.	.	8gg#\J	.	.	.	.	.	.	.	.	.	.	.
.	.	.	4.b/	4.ff#\	.	.	.	.	.	.	.	.	.	.	.
.	.	.	8a/	8ee\	.	.	.	.	.	.	.	.	.	.	.
=145	=145	=145	=145	=145	=145	=145	=145	=145	=145	=145	=145	=145	=145	=145	=145
!	!	!	!	!LO:TX:t=P:problem:mixed beam	!	!	!	!	!	!	!	!	!	!	!
.	.	.	4g#/	8ee\L	.	2.ryy	.	2.ryy	.	2.ryy	.	.	.	2.ryy	2.ryy
.	.	.	.	16e/L	.	.	.	.	.	.	.	.	.	.	.
.	.	.	.	16f#/JJ	.	.	.	.	.	.	.	.	.	.	.
!	!	!	!	!LO:LB:g=original	!	!	!	!	!	!	!	!	!	!	!
=-	=-	=-	=-	=-	=-	=-	=-	=-	=-	=-	=-	=-	=-	=-	=-
.	.	.	4r	16g#/LL	.	.	.	.	.	.	.	.	.	.	.
.	.	.	.	16a/	.	.	.	.	.	.	.	.	.	.	.
.	.	.	.	16b/	.	.	.	.	.	.	.	.	.	.	.
.	.	.	.	16cc#/JJ	.	.	.	.	.	.	.	.	.	.	.
.	.	.	4r	8dd\L	.	.	.	.	.	.	.	.	.	.	.
.	.	.	.	8b\J	.	.	.	.	.	.	.	.	.	.	.
=146	=146	=146	=146	=146	=146	=146	=146	=146	=146	=146	=146	=146	=146	=146	=146
0.r	.	0.r	8a/L	8cc#\L	.	2.ryy	.	2.ryy	.	2.ryy	.	.	.	2.ryy	2.ryy
.	.	.	8g#/	8b\	.	.	.	.	.	.	.	.	.	.	.
.	.	.	8g#/	8b\	.	.	.	.	.	.	.	.	.	.	.
.	.	.	8g#/	8b\	.	.	.	.	.	.	.	.	.	.	.
.	.	.	8g#/	8b\	.	.	.	.	.	.	.	.	.	.	.
.	.	.	8a/J	8cc#\J	.	.	.	.	.	.	.	.	.	.	.
=147	=147	=147	=147	=147	=147	=147	=147	=147	=147	=147	=147	=147	=147	=147	=147
.	.	.	8b/L	(8dd\L	.	2.ryy	.	2.ryy	.	2.ryy	.	0.r	.	2.ryy	2.ryy
.	.	.	8a/	8cc#\)	.	.	.	.	.	.	.	.	.	.	.
.	.	.	8a/	(8cc#\	.	.	.	.	.	.	.	.	.	.	.
.	.	.	8g#/J	8b\J)	.	.	.	.	.	.	.	.	.	.	.
.	.	.	4g#/	4b\	.	.	.	.	.	.	.	.	.	.	.
=148	=148	=148	=148	=148	=148	=148	=148	=148	=148	=148	=148	=148	=148	=148	=148
.	.	.	8a/L	8cc#\L	.	2.ryy	.	2.ryy	.	2.ryy	.	.	.	2.ryy	2.ryy
.	.	.	8g#/	8b\	.	.	.	.	.	.	.	.	.	.	.
.	.	.	8g#/	8b\	.	.	.	.	.	.	.	.	.	.	.
.	.	.	8g#/	8b\	.	.	.	.	.	.	.	.	.	.	.
.	.	.	8g#/	8b\	.	.	.	.	.	.	.	.	.	.	.
.	.	.	8a/J	8cc#\J	.	.	.	.	.	.	.	.	.	.	.
=149	=149	=149	=149	=149	=149	=149	=149	=149	=149	=149	=149	=149	=149	=149	=149
.	.	.	8b/L	(8dd\L	.	2.ryy	.	2.ryy	.	2.ryy	.	.	.	2.ryy	2.ryy
.	.	.	8a/	8cc#\)	.	.	.	.	.	.	.	.	.	.	.
.	.	.	8a/	(8cc#\	.	.	.	.	.	.	.	.	.	.	.
.	.	.	8g#/J	8b\)	.	.	.	.	.	.	.	.	.	.	.
.	.	.	4g#/	(8b\	.	.	.	.	.	.	.	.	.	.	.
.	.	.	.	8ee\J)	.	.	.	.	.	.	.	.	.	.	.
!	!	!	!LO:LB:g=original	!	!	!	!	!	!	!	!	!	!	!	!
=150	=150	=150	=150	=150	=150	=150	=150	=150	=150	=150	=150	=150	=150	=150	=150
2.r	.	2.r	4a/	8aa\L	.	2.ryy	.	2.ryy	.	2.ryy	.	.	.	2.ryy	2.ryy
.	.	.	.	8b\J	.	.	.	.	.	.	.	.	.	.	.
.	.	.	4e/	4cc#\	.	.	.	.	.	.	.	.	.	.	.
.	.	.	4d/	8b\L	.	.	.	.	.	.	.	.	.	.	.
.	.	.	.	8a\J	.	.	.	.	.	.	.	.	.	.	.
=151	=151	=151	=151	=151	=151	=151	=151	=151	=151	=151	=151	=151	=151	=151	=151
4AA/	.	4AA/	4c#/	4a/	.	2.ryy	.	2.ryy	.	2.ryy	.	4r	.	2.ryy	2.ryy
4C#/	.	4C#/	4rg	4r	.	.	.	.	.	.	.	4e/	Be-	.	.
4D/	.	4D/	4rg	4r	.	.	.	.	.	.	.	8a\L	-ne-	.	.
.	.	.	.	.	.	.	.	.	.	.	.	8b\J	.	.	.
=152	=152	=152	=152	=152	=152	=152	=152	=152	=152	=152	=152	=152	=152	=152	=152
!	!	!	!	!	!	!	!	!	!	!	!	!LO:SIC:v:s=2g#\	!	!	!
4E\	.	4E\	2d/	4.B/	.	2.ryy	.	2.ryy	.	2.ryy	.	2g\	-di-	2.ryy	2.ryy
4D\	.	4D\	.	.	.	.	.	.	.	.	.	.	.	.	.
.	.	.	.	8B/	.	.	.	.	.	.	.	.	.	.	.
4C#\	.	4C#/	4c#/	4c#/	.	.	.	.	.	.	.	4a\	-ctus	.	.
=153	=153	=153	=153	=153	=153	=153	=153	=153	=153	=153	=153	=153	=153	=153	=153
!	!	!	!	!LO:TX:t=P:problem:mixed beam	!	!	!	!	!	!	!	!	!	!	!
4BB/	.	4BB/	4f#/	8B/L	.	2.ryy	.	2.ryy	.	2.ryy	.	4r	.	2.ryy	2.ryy
.	.	.	.	8b\J	.	.	.	.	.	.	.	.	.	.	.
4r	.	4r	4r	8g#/L	.	.	.	.	.	.	.	4dd\	be-	.	.
.	.	.	.	8e/	.	.	.	.	.	.	.	.	.	.	.
4E\	.	4E\	4d/	8f#/	.	.	.	.	.	.	.	(8cc#\L	-ne-	.	.
.	.	.	.	8g#/J	.	.	.	.	.	.	.	8b\J)	.	.	.
=154	=154	=154	=154	=154	=154	=154	=154	=154	=154	=154	=154	=154	=154	=154	=154
4AA/	.	4AA/	4c#/	8a/L	.	2.ryy	.	2.ryy	.	2.ryy	.	4cc#\	-di-	2.ryy	2.ryy
.	.	.	.	16e/L	.	.	.	.	.	.	.	.	.	.	.
.	.	.	.	16f#/JJ	.	.	.	.	.	.	.	.	.	.	.
4r	.	4r	4e/	16g#\LL	.	.	.	.	.	.	.	4a\	-ctus	.	.
.	.	.	.	16a\	.	.	.	.	.	.	.	.	.	.	.
.	.	.	.	16b\	.	.	.	.	.	.	.	.	.	.	.
.	.	.	.	16cc#\JJ	.	.	.	.	.	.	.	.	.	.	.
4r	.	4r	4g#/	8dd\L	.	.	.	.	.	.	.	4r	.	.	.
.	.	.	.	8b\J	.	.	.	.	.	.	.	.	.	.	.
=155	=155	=155	=155	=155	=155	=155	=155	=155	=155	=155	=155	=155	=155	=155	=155
0.r	.	0.r	8a/L	8cc#\L	.	2.ryy	.	2.ryy	.	2.ryy	.	0.r	.	2.ryy	2.ryy
.	.	.	8g#/	8b\	.	.	.	.	.	.	.	.	.	.	.
.	.	.	8g#/	8b\	.	.	.	.	.	.	.	.	.	.	.
.	.	.	8g#/	8b\	.	.	.	.	.	.	.	.	.	.	.
.	.	.	8g#/	8b\	.	.	.	.	.	.	.	.	.	.	.
.	.	.	8a/J	8cc#\J	.	.	.	.	.	.	.	.	.	.	.
=156	=156	=156	=156	=156	=156	=156	=156	=156	=156	=156	=156	=156	=156	=156	=156
.	.	.	8b/L	8dd\L	.	2.ryy	.	2.ryy	.	2.ryy	.	.	.	2.ryy	2.ryy
.	.	.	8a/	8cc#\	.	.	.	.	.	.	.	.	.	.	.
.	.	.	8a/	8cc#\	.	.	.	.	.	.	.	.	.	.	.
.	.	.	8g#/J	8b\J	.	.	.	.	.	.	.	.	.	.	.
.	.	.	4g#/	4b\	.	.	.	.	.	.	.	.	.	.	.
!	!	!	!	!LO:LB:g=original	!	!	!	!	!	!	!	!	!	!	!
=157	=157	=157	=157	=157	=157	=157	=157	=157	=157	=157	=157	=157	=157	=157	=157
.	.	.	8a/L	8cc#\L	.	2.ryy	.	2.ryy	.	2.ryy	.	.	.	2.ryy	2.ryy
.	.	.	8g#/	8b\	.	.	.	.	.	.	.	.	.	.	.
.	.	.	8g#/	8b\	.	.	.	.	.	.	.	.	.	.	.
.	.	.	8g#/	8b\	.	.	.	.	.	.	.	.	.	.	.
.	.	.	8g#/	8b\	.	.	.	.	.	.	.	.	.	.	.
.	.	.	8a/J	8cc#\J	.	.	.	.	.	.	.	.	.	.	.
=158	=158	=158	=158	=158	=158	=158	=158	=158	=158	=158	=158	=158	=158	=158	=158
.	.	.	8b/L	8dd\L	.	2.ryy	.	2.ryy	.	2.ryy	.	.	.	2.ryy	2.ryy
.	.	.	8a/	8cc#\	.	.	.	.	.	.	.	.	.	.	.
.	.	.	8a/	8cc#\	.	.	.	.	.	.	.	.	.	.	.
.	.	.	8g#/J	8b\	.	.	.	.	.	.	.	.	.	.	.
.	.	.	4g#/	8b\	.	.	.	.	.	.	.	.	.	.	.
.	.	.	.	8ee\J	.	.	.	.	.	.	.	.	.	.	.
=159	=159	=159	=159	=159	=159	=159	=159	=159	=159	=159	=159	=159	=159	=159	=159
2.r	.	2.r	4a/	8aa\L	.	2.ryy	.	2.ryy	.	2.ryy	.	2.r	.	2.ryy	2.ryy
.	.	.	.	8b\J	.	.	.	.	.	.	.	.	.	.	.
.	.	.	4e/	4.cc#\	.	.	.	.	.	.	.	.	.	.	.
.	.	.	4d/	.	.	.	.	.	.	.	.	.	.	.	.
.	.	.	.	16b/LL	.	.	.	.	.	.	.	.	.	.	.
.	.	.	.	16a/JJ	.	.	.	.	.	.	.	.	.	.	.
=160	=160	=160	=160	=160	=160	=160	=160	=160	=160	=160	=160	=160	=160	=160	=160
4AA/	.	4AA/	4c#/	4a/	.	2.ryy	.	2.ryy	.	2.ryy	.	4r	.	2.ryy	2.ryy
4C#/	6	4C#/	4rg	4r	.	.	.	.	.	.	.	4e/	Be-	.	.
4D/	.	4D/	4rg	4r	.	.	.	.	.	.	.	8a\L	-ne-	.	.
.	.	.	.	.	.	.	.	.	.	.	.	8b\J	.	.	.
=161	=161	=161	=161	=161	=161	=161	=161	=161	=161	=161	=161	=161	=161	=161	=161
!	!	!	!	!	!	!	!	!	!	!	!	!LO:SIC:v:s=2g#\	!	!	!
4E\	#	4E\	2f#/	4.B/	.	2.ryy	.	2.ryy	.	2.ryy	.	2g\	-di-	2.ryy	2.ryy
4D\	.	4D\	.	.	.	.	.	.	.	.	.	.	.	.	.
.	.	.	.	8B/	.	.	.	.	.	.	.	.	.	.	.
4C#/	6	4C#/	4c#/	4c#/	.	.	.	.	.	.	.	4a\	-ct(us)	.	.
=162	=162	=162	=162	=162	=162	=162	=162	=162	=162	=162	=162	=162	=162	=162	=162
!	!	!	!	!LO:TX:t=P:problem:mixed beam	!	!	!	!	!	!	!	!	!	!	!
4BB/	7	4BB/	4f#/	8B/L	.	2.ryy	.	2.ryy	.	2.ryy	.	4r	.	2.ryy	2.ryy
.	.	.	.	8b\J	.	.	.	.	.	.	.	.	.	.	.
4r	.	4r	4rg	8g#/L	.	.	.	.	.	.	.	4dd\	be-	.	.
.	.	.	.	8e/	.	.	.	.	.	.	.	.	.	.	.
4E\	7	4E\	4d/	8f#/	.	.	.	.	.	.	.	(8cc#\L	-ne-	.	.
.	.	.	.	8g#/J	.	.	.	.	.	.	.	8b\J)	.	.	.
=163	=163	=163	=163	=163	=163	=163	=163	=163	=163	=163	=163	=163	=163	=163	=163
4AA/	.	4AA/	4c#/	4a/	.	2.ryy	.	2.ryy	.	2.ryy	.	4cc#\	-di-	2.ryy	2.ryy
4r	.	4r	4rg	4r	.	.	.	.	.	.	.	4a\	-ct(us)	.	.
4r	.	4r	4e/	4a/	.	.	.	.	.	.	.	4cc#\	qui	.	.
!	!	!	!	!	!	!	!	!	!	!	!	!LO:LB:g=original	!	!	!
=164	=164	=164	=164	=164	=164	=164	=164	=164	=164	=164	=164	=164	=164	=164	=164
0.r	.	0.r	4e/	4g#/	.	2.ryy	.	2.ryy	.	2.ryy	.	8cc#\L	ve-	2.ryy	2.ryy
.	.	.	.	.	.	.	.	.	.	.	.	8b\J	.	.	.
.	.	.	4rg	4e/	.	.	.	.	.	.	.	4b\	-nit	.	.
.	.	.	4e/	4ee\	.	.	.	.	.	.	.	4ee\	In	.	.
!	!	!	!LO:LB:g=original	!	!	!	!	!	!	!	!	!	!	!	!
=165	=165	=165	=165	=165	=165	=165	=165	=165	=165	=165	=165	=165	=165	=165	=165
*	*	*	*	*	*	*	*	*	*	*	*	*Xtuplet	*	*	*
!	!	!	!	!	!	!	!	!	!	!	!	!LO:TUP:problem:klamra łukowa:global	!	!	!
.	.	.	12cc#\L	12ee\L	.	2.ryy	.	2.ryy	.	2.ryy	.	12ee\L	no-	2.ryy	2.ryy
.	.	.	12b\	12dd\	.	.	.	.	.	.	.	12dd\	.	.	.
.	.	.	12a\J	12cc#\J	.	.	.	.	.	.	.	12cc#\J	.	.	.
.	.	.	12a\L	12cc#\L	.	.	.	.	.	.	.	12cc#\L	.	.	.
.	.	.	12b\	12dd\	.	.	.	.	.	.	.	12dd\	.	.	.
.	.	.	12cc#\J	12ee\J	.	.	.	.	.	.	.	12ee\J	.	.	.
!	!	!	!	!	!	!	!	!	!	!	!	!LO:TUP:problem:triola bez liczby i łuku	!	!	!
.	.	.	12cc#\L	12ee\L	.	.	.	.	.	.	.	12ee\L	.	.	.
.	.	.	12b\	12dd\	.	.	.	.	.	.	.	12dd\	.	.	.
.	.	.	12a\J	12cc#\J	.	.	.	.	.	.	.	12cc#\J	.	.	.
=166	=166	=166	=166	=166	=166	=166	=166	=166	=166	=166	=166	=166	=166	=166	=166
.	.	.	12b/L	12dd\L	.	2.ryy	.	2.ryy	.	2.ryy	.	12dd\L	.	2.ryy	2.ryy
.	.	.	12a/	12cc#\	.	.	.	.	.	.	.	12cc#\	.	.	.
.	.	.	12g#/J	12b\J	.	.	.	.	.	.	.	12b\J	.	.	.
.	.	.	12g#/L	12b\L	.	.	.	.	.	.	.	12b\L	.	.	.
.	.	.	12a/	12cc#\	.	.	.	.	.	.	.	12cc#\	.	.	.
.	.	.	12b/J	12dd\J	.	.	.	.	.	.	.	12dd\J	.	.	.
.	.	.	12b/L	12dd\L	.	.	.	.	.	.	.	12dd\L	.	.	.
.	.	.	12a/	12cc#\	.	.	.	.	.	.	.	12cc#\	.	.	.
.	.	.	12g#/J	12b\J	.	.	.	.	.	.	.	12b\J	.	.	.
=167	=167	=167	=167	=167	=167	=167	=167	=167	=167	=167	=167	=167	=167	=167	=167
.	.	.	12ee\L	12cc#\L	.	2.ryy	.	2.ryy	.	2.ryy	.	12cc#\L	.	2.ryy	2.ryy
.	.	.	12dd\	12b\	.	.	.	.	.	.	.	12b\	.	.	.
.	.	.	12cc#\J	12a\J	.	.	.	.	.	.	.	12a\J	.	.	.
.	.	.	12cc#\L	12a\L	.	.	.	.	.	.	.	12a\L	.	.	.
.	.	.	12dd\	12b\	.	.	.	.	.	.	.	12b\	.	.	.
.	.	.	12ee\J	12cc#\J	.	.	.	.	.	.	.	12cc#\J	.	.	.
.	.	.	12ee\L	12cc#\L	.	.	.	.	.	.	.	12cc#\L	.	.	.
.	.	.	12dd\	12b\	.	.	.	.	.	.	.	12b\	.	.	.
.	.	.	12cc#\J	12a\J	.	.	.	.	.	.	.	12a\J	.	.	.
=168	=168	=168	=168	=168	=168	=168	=168	=168	=168	=168	=168	=168	=168	=168	=168
2.r	.	2.r	12dd\L	12b/L	.	2.ryy	.	2.ryy	.	2.ryy	.	12b\L	.	2.ryy	2.ryy
.	.	.	12cc#\	12a/	.	.	.	.	.	.	.	12a\	.	.	.
!	!	!	!	!	!	!	!	!	!	!	!	!LO:SIC:v:s=12g#\J	!	!	!
.	.	.	12b\J	12g#/J	.	.	.	.	.	.	.	12g\J	.	.	.
!	!	!	!	!LO:LB:g=original	!	!	!	!	!	!	!	!	!	!	!
=-	=-	=-	=-	=-	=-	=-	=-	=-	=-	=-	=-	=-	=-	=-	=-
!	!	!	!	!	!	!	!	!	!	!	!	!LO:SIC:v:s=12g#\L	!	!	!
.	.	.	12b\L	12g#/L	.	.	.	.	.	.	.	12g\L	.	.	.
.	.	.	12cc#\	12a/	.	.	.	.	.	.	.	12a\	.	.	.
.	.	.	12dd\J	12b/J	.	.	.	.	.	.	.	12b\J	.	.	.
.	.	.	12dd\L	12b/L	.	.	.	.	.	.	.	12b\L	.	.	.
.	.	.	12cc#\	12a/	.	.	.	.	.	.	.	12a\	.	.	.
!	!	!	!	!	!	!	!	!	!	!	!	!LO:SIC:v:s=12g#\J	!	!	!
.	.	.	12b\J	12g#/J	.	.	.	.	.	.	.	12g\J	.	.	.
!LO:LB:g=original	!	!	!	!	!	!	!	!	!	!	!	!	!	!	!
=169	=169	=169	=169	=169	=169	=169	=169	=169	=169	=169	=169	=169	=169	=169	=169
4AA/	.	4AA/	4cc#\	12a\L	.	2.ryy	.	2.ryy	.	2.ryy	.	8a\L	.	2.ryy	2.ryy
.	.	.	.	12b\	.	.	.	.	.	.	.	.	.	.	.
.	.	.	.	.	.	.	.	.	.	.	.	8b\	.	.	.
.	.	.	.	12cc#\J	.	.	.	.	.	.	.	.	.	.	.
4BB/	.	4BB/	4r	8cc#\L	.	.	.	.	.	.	.	8cc#\	.	.	.
.	.	.	.	8dd\J	.	.	.	.	.	.	.	8dd\J	.	.	.
4C#/	.	4C#/	4cc#\	4ee\	.	.	.	.	.	.	.	4ee\	.	.	.
!	!	!	!	!	!	!	!	!	!	!	!	!LO:LB:g=original	!	!	!
=170	=170	=170	=170	=170	=170	=170	=170	=170	=170	=170	=170	=170	=170	=170	=170
4D/	6	4D\	4a/	4ff#\	.	2.ryy	.	2.ryy	.	2.ryy	.	8ee\	-mi-	2.ryy	2.ryy
.	.	.	.	.	.	.	.	.	.	.	.	8ff#\	-ne	.	.
4E\	3	4E\	4e/	4.b/	.	.	.	.	.	.	.	4.b\	Do-	.	.
4EE/	.	4EE/	4g#/	.	.	.	.	.	.	.	.	.	.	.	.
.	.	.	.	8a/	.	.	.	.	.	.	.	8a\	-mi-	.	.
!	!	!LO:LB:g=original	!	!	!	!	!	!	!	!	!	!	!	!	!
=171	=171	=171	=171	=171	=171	=171	=171	=171	=171	=171	=171	=171	=171	=171	=171
!	!	!LO:TX:t=P:problem:defekt źródła [przyjęto zgodnie z bc]	!	!	!	!	!	!	!	!	!	!	!	!	!
4AA/	.	4AA/yy	4a/	4a/	.	2.ryy	.	2.ryy	.	2.ryy	.	4a\	-ni	2.ryy	2.ryy
4r	.	4r	4r	4cc#\	.	.	.	.	.	.	.	4r	.	.	.
4rBB	.	4r	4cc#\	4ee\	.	.	.	.	.	.	.	4ee\	In	.	.
=172	=172	=172	=172	=172	=172	=172	=172	=172	=172	=172	=172	=172	=172	=172	=172
0.r	.	0.r	12cc#\L	12ee\L	.	2.ryy	.	2.ryy	.	2.ryy	.	12ee\L	no-	2.ryy	2.ryy
.	.	.	12b\	12dd\	.	.	.	.	.	.	.	12dd\	.	.	.
.	.	.	12a\J	12cc#\J	.	.	.	.	.	.	.	12cc#\J	.	.	.
.	.	.	12a\L	12cc#\L	.	.	.	.	.	.	.	12cc#\L	.	.	.
.	.	.	12b\	12dd\	.	.	.	.	.	.	.	12dd\	.	.	.
.	.	.	12cc#\J	12ee\J	.	.	.	.	.	.	.	12ee\J	.	.	.
.	.	.	12cc#\L	12ee\L	.	.	.	.	.	.	.	12ee\L	.	.	.
.	.	.	12b\	12dd\	.	.	.	.	.	.	.	12dd\	.	.	.
.	.	.	12a\J	12cc#\J	.	.	.	.	.	.	.	12cc#\J	.	.	.
=173	=173	=173	=173	=173	=173	=173	=173	=173	=173	=173	=173	=173	=173	=173	=173
.	.	.	12b/L	12dd\L	.	2.ryy	.	2.ryy	.	2.ryy	.	12dd\L	.	2.ryy	2.ryy
.	.	.	12a/	12cc#\	.	.	.	.	.	.	.	12cc#\	.	.	.
.	.	.	12g#/J	12b\J	.	.	.	.	.	.	.	12b\J	.	.	.
.	.	.	12g#/L	12b\L	.	.	.	.	.	.	.	12b\L	.	.	.
.	.	.	12a/	12cc#\	.	.	.	.	.	.	.	12cc#\	.	.	.
.	.	.	12b/J	12dd\J	.	.	.	.	.	.	.	12dd\J	.	.	.
.	.	.	12b/L	12dd\L	.	.	.	.	.	.	.	12dd\L	.	.	.
.	.	.	12a/	12cc#\	.	.	.	.	.	.	.	12cc#\	.	.	.
.	.	.	12g#/J	12b\J	.	.	.	.	.	.	.	12b\J	.	.	.
!	!	!	!LO:LB:g=original	!	!	!	!	!	!	!	!	!	!	!	!
=174	=174	=174	=174	=174	=174	=174	=174	=174	=174	=174	=174	=174	=174	=174	=174
.	.	.	12e/L	12cc#\L	.	2.ryy	.	2.ryy	.	2.ryy	.	12cc#\L	.	2.ryy	2.ryy
.	.	.	12d/	12b\	.	.	.	.	.	.	.	12b\	.	.	.
.	.	.	12c#/J	12a\J	.	.	.	.	.	.	.	12a\J	.	.	.
.	.	.	12c#/L	12a\L	.	.	.	.	.	.	.	12a\L	.	.	.
.	.	.	12d/	12b\	.	.	.	.	.	.	.	12b\	.	.	.
.	.	.	12e/J	12cc#\J	.	.	.	.	.	.	.	12cc#\J	.	.	.
.	.	.	12e/L	12cc#\L	.	.	.	.	.	.	.	12cc#\L	.	.	.
.	.	.	12d/	12b\	.	.	.	.	.	.	.	12b\	.	.	.
.	.	.	12c#/J	12a\J	.	.	.	.	.	.	.	12a\J	.	.	.
=175	=175	=175	=175	=175	=175	=175	=175	=175	=175	=175	=175	=175	=175	=175	=175
.	.	.	12d/L	12b/L	.	2.ryy	.	2.ryy	.	2.ryy	.	12b\L	.	2.ryy	2.ryy
.	.	.	12c#/	12a/	.	.	.	.	.	.	.	12a\	.	.	.
!	!	!	!	!	!	!	!	!	!	!	!	!LO:SIC:v:s=12g#\J	!	!	!
.	.	.	12B/J	12g#/J	.	.	.	.	.	.	.	12g\J	.	.	.
!	!	!	!	!	!	!	!	!	!	!	!	!LO:SIC:v:s=12g#\L	!	!	!
.	.	.	12B/L	12g#/L	.	.	.	.	.	.	.	12g\L	.	.	.
.	.	.	12c#/	12a/	.	.	.	.	.	.	.	12a\	.	.	.
.	.	.	12d/J	12b/J	.	.	.	.	.	.	.	12b\J	.	.	.
.	.	.	12d/L	12b/L	.	.	.	.	.	.	.	12b\L	.	.	.
.	.	.	12c#/	12a/	.	.	.	.	.	.	.	12a\	.	.	.
!	!	!	!	!	!	!	!	!	!	!	!	!LO:SIC:v:s=12g#\J	!	!	!
.	.	.	12B/J	12g#/J	.	.	.	.	.	.	.	12g\J	.	.	.
!	!	!	!	!	!	!	!	!	!	!	!	!LO:LB:g=original	!	!	!
=176	=176	=176	=176	=176	=176	=176	=176	=176	=176	=176	=176	=176	=176	=176	=176
4AA/	.	4AA/	4c#/	8a\L	.	2.ryy	.	2.ryy	.	2.ryy	.	8a\L	.	2.ryy	2.ryy
.	.	.	.	8b\	.	.	.	.	.	.	.	8b\J	.	.	.
4BB/	.	4BB/	4r	8cc#\	.	.	.	.	.	.	.	8cc#\L	-mi-	.	.
.	.	.	.	8dd\J	.	.	.	.	.	.	.	8dd\J	.	.	.
4C#/	.	4C#/	4cc#\	4ee\	.	.	.	.	.	.	.	4ee\	-ne	.	.
=177	=177	=177	=177	=177	=177	=177	=177	=177	=177	=177	=177	=177	=177	=177	=177
4D\	.	4D\	4a/	4ff#\	.	2.ryy	.	2.ryy	.	2.ryy	.	8ee\	Do-	2.ryy	2.ryy
.	.	.	.	.	.	.	.	.	.	.	.	8ff#\	.	.	.
4E\	.	4E\	4e/	4.b/	.	.	.	.	.	.	.	4.b\	.	.	.
4EE/	.	4EE/	4g#/	.	.	.	.	.	.	.	.	.	.	.	.
.	.	.	.	8a/	.	.	.	.	.	.	.	8a\	-mi-	.	.
=178	=178	=178	=178	=178	=178	=178	=178	=178	=178	=178	=178	=178	=178	=178	=178
!	!	!LO:TX:t=P:problem:defekt źródła [przyjęto zgodnie z bc]	!	!	!LO:DY:a	!	!	!	!	!	!	!LO:SIC:v:s=4a\	!	!	!
!	!	!	!	!	!LO:DY:a:t=forte	!	!	!	!	!	!	!	!	!	!
4AA/	.	4AA/yy	4a/	4a/	f	2.ryy	.	2.ryy	.	2.ryy	.	4b\	-ni	2.ryy	2.ryy
4C#/	.	4C#/	4r	4e/	.	.	.	.	.	.	.	4r	.	.	.
!	!	!	!	!	!	!	!	!	!	!	!	!LO:TX:t=P:problem:kreska taktowa podwójna	!	!	!
4D/	.	4D/	4r	8a/L	.	.	.	.	.	.	.	4r	.	.	.
.	.	.	.	8b/J	.	.	.	.	.	.	.	.	.	.	.
!	!	!	!	!LO:LB:g=original	!	!	!	!	!	!	!	!	!	!	!
=179	=179	=179	=179	=179	=179	=179	=179	=179	=179	=179	=179	=179||	=179	=179	=179
4E\	.	4E\	1.r	4.g#/	.	2.ryy	.	2.ryy	.	2.ryy	.	0.r	.	2.ryy	2.ryy
4D\	.	4D\	.	.	.	.	.	.	.	.	.	.	.	.	.
.	.	.	.	8g#/	.	.	.	.	.	.	.	.	.	.	.
4C#/	.	4C#\	.	4a/	.	.	.	.	.	.	.	.	.	.	.
=180	=180	=180	=180	=180	=180	=180	=180	=180	=180	=180	=180	=180	=180	=180	=180
4BB/	.	4BB/	.	12b\L	.	2.ryy	.	2.ryy	.	2.ryy	.	.	.	2.ryy	2.ryy
.	.	.	.	12cc#\	.	.	.	.	.	.	.	.	.	.	.
.	.	.	.	12dd\J	.	.	.	.	.	.	.	.	.	.	.
4r	.	4r	.	12dd\L	.	.	.	.	.	.	.	.	.	.	.
.	.	.	.	12cc#\	.	.	.	.	.	.	.	.	.	.	.
.	.	.	.	12b\J	.	.	.	.	.	.	.	.	.	.	.
8r	.	4BB/	.	12b/L	.	.	.	.	.	.	.	.	.	.	.
.	.	.	.	12a/	.	.	.	.	.	.	.	.	.	.	.
8E\	.	.	.	.	.	.	.	.	.	.	.	.	.	.	.
.	.	.	.	12g#/J	.	.	.	.	.	.	.	.	.	.	.
=181	=181	=181	=181	=181	=181	=181	=181	=181	=181	=181	=181	=181	=181	=181	=181
4AA/	.	4AA/	4r	4a/	.	2.ryy	.	2.ryy	.	2.ryy	.	.	.	2.ryy	2.ryy
4C#/	.	4C#/	4e/	4A/	.	.	.	.	.	.	.	.	.	.	.
4D/	.	4D/	8a/L	4r	.	.	.	.	.	.	.	.	.	.	.
.	.	.	8b/J	.	.	.	.	.	.	.	.	.	.	.	.
=182	=182	=182	=182	=182	=182	=182	=182	=182	=182	=182	=182	=182	=182	=182	=182
4E\	.	4E\	4.g#/	4.B/	.	2.ryy	.	2.ryy	.	2.ryy	.	.	.	2.ryy	2.ryy
4D\	.	4D\	.	.	.	.	.	.	.	.	.	.	.	.	.
.	.	.	8g#/	8B/	.	.	.	.	.	.	.	.	.	.	.
4C#/	.	4C#/	4a/	4c#/	.	.	.	.	.	.	.	.	.	.	.
=183	=183	=183	=183	=183	=183	=183	=183	=183	=183	=183	=183	=183	=183	=183	=183
!	!	!	!	!LO:TX:t=P:problem:mixed beam	!	!	!	!	!	!	!	!	!	!	!
4BB/	.	4BB/	12b\L	8B/L	.	2.ryy	.	2.ryy	.	2.ryy	.	0.r	.	2.ryy	2.ryy
.	.	.	12cc#\	.	.	.	.	.	.	.	.	.	.	.	.
.	.	.	.	8b\J	.	.	.	.	.	.	.	.	.	.	.
.	.	.	12dd\J	.	.	.	.	.	.	.	.	.	.	.	.
4r	.	4r	12dd\L	8g#/L	.	.	.	.	.	.	.	.	.	.	.
.	.	.	12cc#\	.	.	.	.	.	.	.	.	.	.	.	.
.	.	.	.	8e/	.	.	.	.	.	.	.	.	.	.	.
.	.	.	12b\J	.	.	.	.	.	.	.	.	.	.	.	.
4E\	.	4E\	12b/L	8g#/	.	.	.	.	.	.	.	.	.	.	.
.	.	.	12a/	.	.	.	.	.	.	.	.	.	.	.	.
.	.	.	.	8b/J	.	.	.	.	.	.	.	.	.	.	.
.	.	.	12g#/J	.	.	.	.	.	.	.	.	.	.	.	.
=184	=184	=184	=184	=184	=184	=184	=184	=184	=184	=184	=184	=184	=184	=184	=184
4AA/	.	4AA/	8a/L	8cc#/L	.	2.ryy	.	2.ryy	.	2.ryy	.	.	.	2.ryy	2.ryy
.	.	.	8e/J	16e/L	.	.	.	.	.	.	.	.	.	.	.
.	.	.	.	16f#/JJ	.	.	.	.	.	.	.	.	.	.	.
4r	.	4r	4B/	16g#\LL	.	.	.	.	.	.	.	.	.	.	.
.	.	.	.	16a\	.	.	.	.	.	.	.	.	.	.	.
.	.	.	.	16b\	.	.	.	.	.	.	.	.	.	.	.
.	.	.	.	16cc#\JJ	.	.	.	.	.	.	.	.	.	.	.
4r	.	4r	4e/	8dd\L	.	.	.	.	.	.	.	.	.	.	.
.	.	.	.	8b\J	.	.	.	.	.	.	.	.	.	.	.
=185	=185	=185	=185	=185	=185	=185	=185	=185	=185	=185	=185	=185	=185	=185	=185
0.r	.	0.r	8a/L	8cc#\L	.	2.ryy	.	2.ryy	.	2.ryy	.	.	.	2.ryy	2.ryy
.	.	.	8g#/	8b\	.	.	.	.	.	.	.	.	.	.	.
.	.	.	8g#/	8b\	.	.	.	.	.	.	.	.	.	.	.
.	.	.	8g#/	8b\	.	.	.	.	.	.	.	.	.	.	.
.	.	.	8g#/	8b\	.	.	.	.	.	.	.	.	.	.	.
.	.	.	8a/J	8cc#\J	.	.	.	.	.	.	.	.	.	.	.
=186	=186	=186	=186	=186	=186	=186	=186	=186	=186	=186	=186	=186	=186	=186	=186
.	.	.	8b/L	(8dd\L	.	2.ryy	.	2.ryy	.	2.ryy	.	.	.	2.ryy	2.ryy
.	.	.	8a/	8cc#\)	.	.	.	.	.	.	.	.	.	.	.
.	.	.	8a/	(8cc#\	.	.	.	.	.	.	.	.	.	.	.
.	.	.	8g#/J	8b\J)	.	.	.	.	.	.	.	.	.	.	.
.	.	.	4g#/	4b\	.	.	.	.	.	.	.	.	.	.	.
!	!	!	!LO:LB:g=original	!	!	!	!	!	!	!	!	!	!	!	!
=187	=187	=187	=187	=187	=187	=187	=187	=187	=187	=187	=187	=187	=187	=187	=187
.	.	.	8a/L	8cc#\L	.	2.ryy	.	2.ryy	.	2.ryy	.	0.r	.	2.ryy	2.ryy
.	.	.	8g#/	8b\	.	.	.	.	.	.	.	.	.	.	.
.	.	.	8g#/	8b\	.	.	.	.	.	.	.	.	.	.	.
.	.	.	8g#/	8b\	.	.	.	.	.	.	.	.	.	.	.
.	.	.	8g#/	8b\	.	.	.	.	.	.	.	.	.	.	.
.	.	.	8a/J	8cc#\J	.	.	.	.	.	.	.	.	.	.	.
=188	=188	=188	=188	=188	=188	=188	=188	=188	=188	=188	=188	=188	=188	=188	=188
!	!	!LO:TX:t=P:problem:partia kończy się w t. 188	!	!	!	!	!	!	!	!	!	!	!	!	!
!	!	!LO:TX:a:t=Oſanna Da Capo	!	!	!	!	!	!	!	!	!	!	!	!	!
.	.	.	8b/L	(8dd\L	.	2.ryy	.	2.ryy	.	2.ryy	.	.	.	2.ryy	2.ryy
.	.	.	8a/	8cc#\)	.	.	.	.	.	.	.	.	.	.	.
.	.	.	8a/	(8cc#\	.	.	.	.	.	.	.	.	.	.	.
.	.	.	8g#/J	8b\J)	.	.	.	.	.	.	.	.	.	.	.
.	.	.	4g#/	4b\	.	.	.	.	.	.	.	.	.	.	.
=189	=189	=189	=189	=189	=189	=189	=189	=189	=189	=189	=189	=189	=189	=189	=189
0.r	.	2.ryy	4a\	8cc#\L	.	2.ryy	.	2.ryy	.	2.ryy	.	.	.	2.ryy	2.ryy
.	.	.	.	16a\L	.	.	.	.	.	.	.	.	.	.	.
.	.	.	.	16b\JJ	.	.	.	.	.	.	.	.	.	.	.
.	.	.	4cc#\	16cc#\LL	.	.	.	.	.	.	.	.	.	.	.
.	.	.	.	16dd\	.	.	.	.	.	.	.	.	.	.	.
.	.	.	.	16ee\	.	.	.	.	.	.	.	.	.	.	.
.	.	.	.	16ff#\JJ	.	.	.	.	.	.	.	.	.	.	.
.	.	.	4ee\	8ggn\L	.	.	.	.	.	.	.	.	.	.	.
.	.	.	.	8ee\J	.	.	.	.	.	.	.	.	.	.	.
!	!	!	!	!LO:LB:g=original	!	!	!	!	!	!	!	!	!	!	!
=190	=190	=190	=190	=190	=190	=190	=190	=190	=190	=190	=190	=190	=190	=190	=190
.	.	2.ryy	8dd\L	8ff#\L	.	2.ryy	.	2.ryy	.	2.ryy	.	.	.	2.ryy	2.ryy
.	.	.	8cc#\	8ee\	.	.	.	.	.	.	.	.	.	.	.
.	.	.	8cc#\	8ee\	.	.	.	.	.	.	.	.	.	.	.
.	.	.	8cc#\	8ee\	.	.	.	.	.	.	.	.	.	.	.
.	.	.	8cc#\	8ee\	.	.	.	.	.	.	.	.	.	.	.
.	.	.	8dd\J	8ff#\J	.	.	.	.	.	.	.	.	.	.	.
=191	=191	=191	=191	=191	=191	=191	=191	=191	=191	=191	=191	=191	=191	=191	=191
.	.	2.ryy	8ee\L	(8ggn\L	.	2.ryy	.	2.ryy	.	2.ryy	.	0.r	.	2.ryy	2.ryy
.	.	.	8dd\	8ff#\)	.	.	.	.	.	.	.	.	.	.	.
.	.	.	8dd\	(8ff#\	.	.	.	.	.	.	.	.	.	.	.
.	.	.	8cc#\J	8ee\J)	.	.	.	.	.	.	.	.	.	.	.
.	.	.	4cc#\	4ee\	.	.	.	.	.	.	.	.	.	.	.
=192	=192	=192	=192	=192	=192	=192	=192	=192	=192	=192	=192	=192	=192	=192	=192
.	.	2.ryy	8dd\L	8ff#\L	.	2.ryy	.	2.ryy	.	2.ryy	.	.	.	2.ryy	2.ryy
.	.	.	8cc#\	8ee\	.	.	.	.	.	.	.	.	.	.	.
.	.	.	8cc#\	8ee\	.	.	.	.	.	.	.	.	.	.	.
.	.	.	8cc#\	8ee\	.	.	.	.	.	.	.	.	.	.	.
.	.	.	8cc#\	8ee\	.	.	.	.	.	.	.	.	.	.	.
.	.	.	8dd\J	8ff#\J	.	.	.	.	.	.	.	.	.	.	.
=193	=193	=193	=193	=193	=193	=193	=193	=193	=193	=193	=193	=193	=193	=193	=193
!	!	!	!	!LO:SIC:v:s=(8ggn\L	!	!	!	!	!	!	!	!	!	!	!
0.r	.	2.ryy	8ee\L	(8gg#\L	.	2.ryy	.	2.ryy	.	2.ryy	.	.	.	2.ryy	2.ryy
.	.	.	8dd\	8ff#\)	.	.	.	.	.	.	.	.	.	.	.
.	.	.	8dd\	(8ff#\	.	.	.	.	.	.	.	.	.	.	.
.	.	.	8cc#\J	8ee\J)	.	.	.	.	.	.	.	.	.	.	.
.	.	.	4cc#\	4ee\	.	.	.	.	.	.	.	.	.	.	.
=194	=194	=194	=194	=194	=194	=194	=194	=194	=194	=194	=194	=194	=194	=194	=194
.	.	2.ryy	4b\	8ff#\L	.	2.ryy	.	2.ryy	.	2.ryy	.	.	.	2.ryy	2.ryy
.	.	.	.	16b\L	.	.	.	.	.	.	.	.	.	.	.
.	.	.	.	16cc#\JJ	.	.	.	.	.	.	.	.	.	.	.
.	.	.	4dd#X\	16dd#X\LL	.	.	.	.	.	.	.	.	.	.	.
.	.	.	.	16ee\	.	.	.	.	.	.	.	.	.	.	.
.	.	.	.	16ff#\	.	.	.	.	.	.	.	.	.	.	.
.	.	.	.	16gg#X\JJ	.	.	.	.	.	.	.	.	.	.	.
.	.	.	4ff#\	8aa\L	.	.	.	.	.	.	.	.	.	.	.
.	.	.	.	8ff#\J	.	.	.	.	.	.	.	.	.	.	.
=195	=195	=195	=195	=195	=195	=195	=195	=195	=195	=195	=195	=195	=195	=195	=195
.	.	2.ryy	8ee\L	8gg#\L	.	2.ryy	.	2.ryy	.	2.ryy	.	0.r	.	2.ryy	2.ryy
.	.	.	8dd#X\	8ff#\	.	.	.	.	.	.	.	.	.	.	.
.	.	.	8dd#\	8ff#\	.	.	.	.	.	.	.	.	.	.	.
.	.	.	8dd#\	8ff#\	.	.	.	.	.	.	.	.	.	.	.
.	.	.	8dd#\	8ff#\	.	.	.	.	.	.	.	.	.	.	.
.	.	.	8ee\J	8gg#\J	.	.	.	.	.	.	.	.	.	.	.
=196	=196	=196	=196	=196	=196	=196	=196	=196	=196	=196	=196	=196	=196	=196	=196
.	.	2.ryy	8ff#\L	8aa\L	.	2.ryy	.	2.ryy	.	2.ryy	.	.	.	2.ryy	2.ryy
.	.	.	8ee\	8gg#\	.	.	.	.	.	.	.	.	.	.	.
.	.	.	8ee\	8gg#\	.	.	.	.	.	.	.	.	.	.	.
!	!	!	!LO:SIC:v:s=8dd#\J	!	!	!	!	!	!	!	!	!	!	!	!
.	.	.	8dd\J	8ff#\J	.	.	.	.	.	.	.	.	.	.	.
!	!	!	!LO:SIC:v:s=4dd#\	!	!	!	!	!	!	!	!	!	!	!	!
.	.	.	4dd\	4ff#\	.	.	.	.	.	.	.	.	.	.	.
=197	=197	=197	=197	=197	=197	=197	=197	=197	=197	=197	=197	=197	=197	=197	=197
0.r	.	2.ryy	8ee\L	8gg#\L	.	2.ryy	.	2.ryy	.	2.ryy	.	.	.	2.ryy	2.ryy
.	.	.	8dd#X\	8ff#\	.	.	.	.	.	.	.	.	.	.	.
.	.	.	8dd#\	8ff#\	.	.	.	.	.	.	.	.	.	.	.
.	.	.	8dd#\	8ff#\	.	.	.	.	.	.	.	.	.	.	.
.	.	.	8dd#\	8ff#\	.	.	.	.	.	.	.	.	.	.	.
.	.	.	8ee\J	8gg#\J	.	.	.	.	.	.	.	.	.	.	.
=198	=198	=198	=198	=198	=198	=198	=198	=198	=198	=198	=198	=198	=198	=198	=198
.	.	2.ryy	8ff#\L	(8aa\L	.	2.ryy	.	2.ryy	.	2.ryy	.	.	.	2.ryy	2.ryy
.	.	.	8ee\	8gg#\)	.	.	.	.	.	.	.	.	.	.	.
.	.	.	8ee\	(8gg#\	.	.	.	.	.	.	.	.	.	.	.
!	!	!	!LO:SIC:v:s=8dd#\J	!	!	!	!	!	!	!	!	!	!	!	!
.	.	.	8dd\J	8ff#\J)	.	.	.	.	.	.	.	.	.	.	.
!	!	!	!LO:SIC:v:s=4dd#\	!	!	!	!	!	!	!	!	!	!	!	!
.	.	.	4dd\	8ff#\L	.	.	.	.	.	.	.	.	.	.	.
.	.	.	.	8bb\J	.	.	.	.	.	.	.	.	.	.	.
=199	=199	=199	=199	=199	=199	=199	=199	=199	=199	=199	=199	=199	=199	=199	=199
.	.	2.ryy	4ee\	8aa\L	.	2.ryy	.	2.ryy	.	2.ryy	.	0.r	.	2.ryy	2.ryy
.	.	.	.	8gg#\J	.	.	.	.	.	.	.	.	.	.	.
.	.	.	4b/	4.ff#\	.	.	.	.	.	.	.	.	.	.	.
.	.	.	4a/	.	.	.	.	.	.	.	.	.	.	.	.
.	.	.	.	8ee\	.	.	.	.	.	.	.	.	.	.	.
=200	=200	=200	=200	=200	=200	=200	=200	=200	=200	=200	=200	=200	=200	=200	=200
!	!	!	!	!LO:TX:t=P:problem:mixed beam	!	!	!	!	!	!	!	!	!	!	!
.	.	2.ryy	4g#/	8ee\L	.	2.ryy	.	2.ryy	.	2.ryy	.	.	.	2.ryy	2.ryy
.	.	.	.	16e/L	.	.	.	.	.	.	.	.	.	.	.
.	.	.	.	16f#/JJ	.	.	.	.	.	.	.	.	.	.	.
.	.	.	4r	16g#/LL	.	.	.	.	.	.	.	.	.	.	.
.	.	.	.	16a/	.	.	.	.	.	.	.	.	.	.	.
.	.	.	.	16b/	.	.	.	.	.	.	.	.	.	.	.
.	.	.	.	16cc#/JJ	.	.	.	.	.	.	.	.	.	.	.
.	.	.	4e/	8dd\L	.	.	.	.	.	.	.	.	.	.	.
.	.	.	.	8b\J	.	.	.	.	.	.	.	.	.	.	.
!LO:PB:g=original	!	!	!LO:LB:g=original	!LO:LB:g=original	!	!	!	!	!	!	!	!	!	!	!
=201	=201	=201	=201	=201	=201	=201	=201	=201	=201	=201	=201	=201	=201	=201	=201
1.r	.	2.ryy	8a/L	8cc#\L	.	2.ryy	.	2.ryy	.	2.ryy	.	.	.	2.ryy	2.ryy
.	.	.	8g#/	8b\	.	.	.	.	.	.	.	.	.	.	.
.	.	.	8g#/	8b\	.	.	.	.	.	.	.	.	.	.	.
.	.	.	8g#/	8b\	.	.	.	.	.	.	.	.	.	.	.
.	.	.	8g#/	8b\	.	.	.	.	.	.	.	.	.	.	.
.	.	.	8a/J	8cc#\J	.	.	.	.	.	.	.	.	.	.	.
=202	=202	=202	=202	=202	=202	=202	=202	=202	=202	=202	=202	=202	=202	=202	=202
.	.	2.ryy	8b/L	(8dd\L	.	2.ryy	.	2.ryy	.	2.ryy	.	.	.	2.ryy	2.ryy
.	.	.	8a/	8cc#\)	.	.	.	.	.	.	.	.	.	.	.
.	.	.	8a/	(8cc#\	.	.	.	.	.	.	.	.	.	.	.
.	.	.	8g#/J	8b\J)	.	.	.	.	.	.	.	.	.	.	.
.	.	.	4g#/	4b\	.	.	.	.	.	.	.	.	.	.	.
=203	=203	=203	=203	=203	=203	=203	=203	=203	=203	=203	=203	=203	=203	=203	=203
2.r	.	2.ryy	8a/L	8cc#\L	.	2.ryy	.	2.ryy	.	2.ryy	.	0.r	.	2.ryy	2.ryy
.	.	.	8g#/	8b\	.	.	.	.	.	.	.	.	.	.	.
.	.	.	8g#/	8b\	.	.	.	.	.	.	.	.	.	.	.
.	.	.	8g#/	8b\	.	.	.	.	.	.	.	.	.	.	.
.	.	.	8g#/	8b\	.	.	.	.	.	.	.	.	.	.	.
.	.	.	8a/J	8cc#\J	.	.	.	.	.	.	.	.	.	.	.
=204	=204	=204	=204	=204	=204	=204	=204	=204	=204	=204	=204	=204	=204	=204	=204
!LO:TX:t=P:problem:brak taktu nr 204	!	!	!	!	!	!	!	!	!	!	!	!	!	!	!
2.ryy	.	2.ryy	8b/L	8dd\L	.	2.ryy	.	2.ryy	.	2.ryy	.	.	.	2.ryy	2.ryy
.	.	.	8a/	8cc#\	.	.	.	.	.	.	.	.	.	.	.
.	.	.	8a/	8cc#\	.	.	.	.	.	.	.	.	.	.	.
.	.	.	8g#/J	8b\	.	.	.	.	.	.	.	.	.	.	.
.	.	.	4g#/	8b\	.	.	.	.	.	.	.	.	.	.	.
.	.	.	.	8ee\J	.	.	.	.	.	.	.	.	.	.	.
=205	=205	=205	=205	=205	=205	=205	=205	=205	=205	=205	=205	=205	=205	=205	=205
4BB/	.	2.ryy	4a/	8ff#\L	.	2.ryy	.	2.ryy	.	2.ryy	.	.	.	2.ryy	2.ryy
.	.	.	.	8b\J	.	.	.	.	.	.	.	.	.	.	.
4r	.	.	4e/	4cc#\	.	.	.	.	.	.	.	.	.	.	.
4E\	.	.	4d/	8b\L	.	.	.	.	.	.	.	.	.	.	.
.	.	.	.	8a\J	.	.	.	.	.	.	.	.	.	.	.
=206	=206	=206	=206	=206	=206	=206	=206	=206	=206	=206	=206	=206	=206	=206	=206
!	!	!	!	!	!	!LO:TX:a:t=Oſanna ut ſupra	!	!	!	!	!	!LO:TX:a:t=Oſanna Ut ſupra.	!	!LO:TX:a:t=Oſanna ut\nſupra	!LO:TX:a:t=Oſanna\nut ſupra
4AA/	.	2.r	4c#/	4a/	.	2.ryy	.	2.ryy	.	2.ryy	.	.	.	2.ryy	2.ryy
4r	.	.	4r;>	4r	.	.	.	.	.	.	.	.	.	.	.
!LO:TX:a:t=Oſanna ut ſupra	!	!	!LO:TX:a:t=Oſanna ut ſupra	!LO:TX:a:t=Oſanna ut ſupra	!	!	!	!	!	!	!	!	!	!	!
4r	.	.	4r	4r	.	.	.	.	.	.	.	.	.	.	.
==	==	==	==	==	==	==	==	==	==	==	==	==	==	==	==
*-	*-	*-	*-	*-	*-	*-	*-	*-	*-	*-	*-	*-	*-	*-	*-
!!!system-decoration: [(s1,s2)][(s3,s4,s5,s6)][(s7,s8,s9)]s10
!!!RDF**kern: < = below
!!!RDF**kern: > = above
!!!ENC: Andrzej Kubiczek
!!!END: 2020-12-10
!!!AIN: 1 alto 1 bass 2 clrno 1 organ 1 soprn 1 tenor 1 violb 2 violn
!!!ENC: Marta Chmielewska
!!!END: 2022-03-25
